(Scribbled version of C:\Users\ICT\AppData\Local\Temp\ink_ext_XXXXXX.svgQGH4I2 @ 3500.00)
( C:\Program Files (x86)\Inkscape\share\extensions\unicorn.py --tab="plotter_setup" --pen-up-angle=50 --pen-down-angle=30 --start-delay=150 --stop-delay=150 --xy-feedrate=3500 --z-feedrate=150 --z-height=0 --finished-height=0 --register-pen=true --x-home=0 --y-home=0 --num-copies=1 --continuous=false --pause-on-layer-change=false C:\Users\ICT\AppData\Local\Temp\ink_ext_XXXXXX.svgQGH4I2 )
G21 (metric ftw)
G90 (absolute mode)
G92 X0.00 Y0.00 Z0.00 (you are here)

M300 S30 (pen down)
G4 P150 (wait 150ms)
M300 S50 (pen up)
G4 P150 (wait 150ms)
M18 (disengage drives)
M01 (Was registration test successful?)
M17 (engage drives if YES, and continue)

(Polyline consisting of 1 segments.)
G1 X-12.48 Y6.56 F3500.00
M300 S30.00 (pen down)
G4 P150 (wait 150ms)
G1 X-12.27 Y6.05 F3500.00
G1 X-12.57 Y5.85 F3500.00
G1 X-13.00 Y5.68 F3500.00
G1 X-13.16 Y5.64 F3500.00
G1 X-13.37 Y5.58 F3500.00
G1 X-13.76 Y5.55 F3500.00
G1 X-14.29 Y5.49 F3500.00
G1 X-15.07 Y4.96 F3500.00
G1 X-15.64 Y4.71 F3500.00
G1 X-15.72 Y4.64 F3500.00
G1 X-16.18 Y4.50 F3500.00
G1 X-16.82 Y4.41 F3500.00
G1 X-16.96 Y4.49 F3500.00
G1 X-17.12 Y4.67 F3500.00
G1 X-16.98 Y4.83 F3500.00
G1 X-16.79 Y5.06 F3500.00
G1 X-16.60 Y5.25 F3500.00
G1 X-16.30 Y5.36 F3500.00
G1 X-15.89 Y5.47 F3500.00
G1 X-15.76 Y5.57 F3500.00
G1 X-15.57 Y5.68 F3500.00
G1 X-15.31 Y5.85 F3500.00
G1 X-15.00 Y6.12 F3500.00
G1 X-14.64 Y6.47 F3500.00
G1 X-14.48 Y6.63 F3500.00
G1 X-14.38 Y6.78 F3500.00
G1 X-14.26 Y6.89 F3500.00
G1 X-14.06 Y7.23 F3500.00
G1 X-13.78 Y7.70 F3500.00
G1 X-13.71 Y7.78 F3500.00
G1 X-13.62 Y7.89 F3500.00
G1 X-13.45 Y8.28 F3500.00
G1 X-13.40 Y8.92 F3500.00
G1 X-13.53 Y9.45 F3500.00
G1 X-13.94 Y10.04 F3500.00
G1 X-14.43 Y10.49 F3500.00
G1 X-14.95 Y10.83 F3500.00
G1 X-15.33 Y11.02 F3500.00
G1 X-15.65 Y11.20 F3500.00
G1 X-15.85 Y10.43 F3500.00
G1 X-16.12 Y9.24 F3500.00
G1 X-16.37 Y7.97 F3500.00
G1 X-16.45 Y7.32 F3500.00
G1 X-16.51 Y7.04 F3500.00
G1 X-16.73 Y5.95 F3500.00
G1 X-17.07 Y5.39 F3500.00
G1 X-17.29 Y5.21 F3500.00
G1 X-17.36 Y5.27 F3500.00
G1 X-17.43 Y5.47 F3500.00
G1 X-17.36 Y5.79 F3500.00
G1 X-17.39 Y5.88 F3500.00
G1 X-17.33 Y6.61 F3500.00
G1 X-17.27 Y7.35 F3500.00
G1 X-17.19 Y8.12 F3500.00
G1 X-17.06 Y8.79 F3500.00
G1 X-17.13 Y9.07 F3500.00
G1 X-17.06 Y9.33 F3500.00
G1 X-17.01 Y9.69 F3500.00
G1 X-16.97 Y10.10 F3500.00
G1 X-16.93 Y10.32 F3500.00
G1 X-16.88 Y10.50 F3500.00
G1 X-16.82 Y10.77 F3500.00
G1 X-16.63 Y11.01 F3500.00
G1 X-16.40 Y11.27 F3500.00
G1 X-16.22 Y11.32 F3500.00
G1 X-16.17 Y11.40 F3500.00
G1 X-16.23 Y11.46 F3500.00
G1 X-16.43 Y11.51 F3500.00
G1 X-16.57 Y11.52 F3500.00
G1 X-16.73 Y11.57 F3500.00
G1 X-17.19 Y11.79 F3500.00
G1 X-17.41 Y11.92 F3500.00
G1 X-17.49 Y12.06 F3500.00
G1 X-17.43 Y12.29 F3500.00
G1 X-17.50 Y12.47 F3500.00
G1 X-17.52 Y12.58 F3500.00
G1 X-17.50 Y12.66 F3500.00
G1 X-17.43 Y12.69 F3500.00
G1 X-17.15 Y12.64 F3500.00
G1 X-17.04 Y12.67 F3500.00
G1 X-16.93 Y12.71 F3500.00
G1 X-16.69 Y12.69 F3500.00
G1 X-16.53 Y12.65 F3500.00
G1 X-16.36 Y12.57 F3500.00
G1 X-16.20 Y12.49 F3500.00
G1 X-16.02 Y12.52 F3500.00
G1 X-15.96 Y12.51 F3500.00
G1 X-15.80 Y12.43 F3500.00
G1 X-15.58 Y12.36 F3500.00
G1 X-15.35 Y12.32 F3500.00
G1 X-15.20 Y12.26 F3500.00
G1 X-14.16 Y11.69 F3500.00
G1 X-13.43 Y11.16 F3500.00
G1 X-12.75 Y10.32 F3500.00
G1 X-12.53 Y9.38 F3500.00
G1 X-12.99 Y7.73 F3500.00
G1 X-14.38 Y5.90 F3500.00
G1 X-14.17 Y5.97 F3500.00
G1 X-13.87 Y6.07 F3500.00
G1 X-13.15 Y6.23 F3500.00
G1 X-12.75 Y6.38 F3500.00
G1 X-12.48 Y6.56 F3500.00
G1 X-12.48 Y6.56 F3500.00
M300 S50.00 (pen up)
G4 P150 (wait 150ms)

(Polyline consisting of 1 segments.)
G1 X-12.33 Y6.81 F3500.00
M300 S30.00 (pen down)
G4 P150 (wait 150ms)
G1 X-11.82 Y7.14 F3500.00
G1 X-11.75 Y7.21 F3500.00
G1 X-11.66 Y7.35 F3500.00
G1 X-11.56 Y7.47 F3500.00
G1 X-11.41 Y7.56 F3500.00
G1 X-11.28 Y7.70 F3500.00
G1 X-11.07 Y7.89 F3500.00
G1 X-10.91 Y7.99 F3500.00
G1 X-10.70 Y8.16 F3500.00
G1 X-9.81 Y8.88 F3500.00
G1 X-9.17 Y9.12 F3500.00
G1 X-8.95 Y9.05 F3500.00
G1 X-8.88 Y8.88 F3500.00
G1 X-8.92 Y8.68 F3500.00
G1 X-9.05 Y8.53 F3500.00
G1 X-9.36 Y8.31 F3500.00
G1 X-9.57 Y8.06 F3500.00
G1 X-9.88 Y7.80 F3500.00
G1 X-9.97 Y7.67 F3500.00
G1 X-10.08 Y7.57 F3500.00
G1 X-10.28 Y7.41 F3500.00
G1 X-10.53 Y7.09 F3500.00
G1 X-11.03 Y6.62 F3500.00
G1 X-11.17 Y6.45 F3500.00
G1 X-11.43 Y6.08 F3500.00
G1 X-11.39 Y6.03 F3500.00
G1 X-11.14 Y6.16 F3500.00
G1 X-10.84 Y6.41 F3500.00
G1 X-10.53 Y6.69 F3500.00
G1 X-10.36 Y6.83 F3500.00
G1 X-10.28 Y6.88 F3500.00
G1 X-10.19 Y6.93 F3500.00
G1 X-9.71 Y7.39 F3500.00
G1 X-9.29 Y7.53 F3500.00
G1 X-9.11 Y7.44 F3500.00
G1 X-9.04 Y7.17 F3500.00
G1 X-9.05 Y6.63 F3500.00
G1 X-8.96 Y6.31 F3500.00
G1 X-8.68 Y6.17 F3500.00
G1 X-8.59 Y6.20 F3500.00
G1 X-8.49 Y6.27 F3500.00
G1 X-8.41 Y6.37 F3500.00
G1 X-8.34 Y6.46 F3500.00
G1 X-8.27 Y6.50 F3500.00
G1 X-8.19 Y6.56 F3500.00
G1 X-8.06 Y6.27 F3500.00
G1 X-7.98 Y6.05 F3500.00
G1 X-8.23 Y5.81 F3500.00
G1 X-8.50 Y5.57 F3500.00
G1 X-8.82 Y5.38 F3500.00
G1 X-9.14 Y5.32 F3500.00
G1 X-9.70 Y5.52 F3500.00
G1 X-9.93 Y6.15 F3500.00
G1 X-9.94 Y6.25 F3500.00
G1 X-10.00 Y6.36 F3500.00
G1 X-10.06 Y6.30 F3500.00
G1 X-10.14 Y6.22 F3500.00
G1 X-10.32 Y6.08 F3500.00
G1 X-10.58 Y5.88 F3500.00
G1 X-10.91 Y5.55 F3500.00
G1 X-11.10 Y5.37 F3500.00
G1 X-11.36 Y5.18 F3500.00
G1 X-11.69 Y4.99 F3500.00
G1 X-11.89 Y4.89 F3500.00
G1 X-12.01 Y4.85 F3500.00
G1 X-12.41 Y4.98 F3500.00
G1 X-12.54 Y5.39 F3500.00
G1 X-12.48 Y5.67 F3500.00
G1 X-12.28 Y5.93 F3500.00
G1 X-12.27 Y6.05 F3500.00
G1 X-12.29 Y6.11 F3500.00
G1 X-12.32 Y6.18 F3500.00
G1 X-12.40 Y6.35 F3500.00
G1 X-12.49 Y6.56 F3500.00
G1 X-12.43 Y6.65 F3500.00
G1 X-12.33 Y6.81 F3500.00
G1 X-12.33 Y6.81 F3500.00
M300 S50.00 (pen up)
G4 P150 (wait 150ms)

(Polyline consisting of 1 segments.)
G1 X-8.21 Y6.56 F3500.00
M300 S30.00 (pen down)
G4 P150 (wait 150ms)
G1 X-8.15 Y6.65 F3500.00
G1 X-8.06 Y6.76 F3500.00
G1 X-7.92 Y6.89 F3500.00
G1 X-7.72 Y7.08 F3500.00
G1 X-7.47 Y7.36 F3500.00
G1 X-7.12 Y7.76 F3500.00
G1 X-6.89 Y8.00 F3500.00
G1 X-6.57 Y8.35 F3500.00
G1 X-6.24 Y8.62 F3500.00
G1 X-5.86 Y8.71 F3500.00
G1 X-5.56 Y8.59 F3500.00
G1 X-5.47 Y8.22 F3500.00
G1 X-5.56 Y7.73 F3500.00
G1 X-5.86 Y6.78 F3500.00
G1 X-5.95 Y6.57 F3500.00
G1 X-6.00 Y6.44 F3500.00
G1 X-6.01 Y6.36 F3500.00
G1 X-5.97 Y6.27 F3500.00
G1 X-5.92 Y6.32 F3500.00
G1 X-5.86 Y6.38 F3500.00
G1 X-5.72 Y6.56 F3500.00
G1 X-5.50 Y6.76 F3500.00
G1 X-5.37 Y6.95 F3500.00
G1 X-5.19 Y7.12 F3500.00
G1 X-5.13 Y7.19 F3500.00
G1 X-5.04 Y7.29 F3500.00
G1 X-4.87 Y7.44 F3500.00
G1 X-4.63 Y7.61 F3500.00
G1 X-4.36 Y7.73 F3500.00
G1 X-4.15 Y7.77 F3500.00
G1 X-3.84 Y7.69 F3500.00
G1 X-3.61 Y7.43 F3500.00
G1 X-3.40 Y6.79 F3500.00
G1 X-3.26 Y6.53 F3500.00
G1 X-3.09 Y6.45 F3500.00
G1 X-2.96 Y6.48 F3500.00
G1 X-2.85 Y6.56 F3500.00
G1 X-2.63 Y6.05 F3500.00
G1 X-2.82 Y5.89 F3500.00
G1 X-3.02 Y5.73 F3500.00
G1 X-3.26 Y5.57 F3500.00
G1 X-3.48 Y5.52 F3500.00
G1 X-3.73 Y5.57 F3500.00
G1 X-3.93 Y5.74 F3500.00
G1 X-4.04 Y5.90 F3500.00
G1 X-4.20 Y6.20 F3500.00
G1 X-4.37 Y6.39 F3500.00
G1 X-4.58 Y6.67 F3500.00
G1 X-4.63 Y6.69 F3500.00
G1 X-4.84 Y6.59 F3500.00
G1 X-5.06 Y6.42 F3500.00
G1 X-5.43 Y6.14 F3500.00
G1 X-5.58 Y6.01 F3500.00
G1 X-5.85 Y5.67 F3500.00
G1 X-6.32 Y5.17 F3500.00
G1 X-6.47 Y5.03 F3500.00
G1 X-6.61 Y4.89 F3500.00
G1 X-6.78 Y4.80 F3500.00
G1 X-6.98 Y4.78 F3500.00
G1 X-7.23 Y4.93 F3500.00
G1 X-7.26 Y5.24 F3500.00
G1 X-7.07 Y5.82 F3500.00
G1 X-6.83 Y6.64 F3500.00
G1 X-6.81 Y6.71 F3500.00
G1 X-6.76 Y6.84 F3500.00
G1 X-6.72 Y6.96 F3500.00
G1 X-6.71 Y7.06 F3500.00
G1 X-6.74 Y7.12 F3500.00
G1 X-6.83 Y7.14 F3500.00
G1 X-6.97 Y7.07 F3500.00
G1 X-7.19 Y6.86 F3500.00
G1 X-7.45 Y6.60 F3500.00
G1 X-7.58 Y6.49 F3500.00
G1 X-7.71 Y6.38 F3500.00
G1 X-7.88 Y6.22 F3500.00
G1 X-7.91 Y6.15 F3500.00
G1 X-7.98 Y6.05 F3500.00
G1 X-8.06 Y6.26 F3500.00
G1 X-8.21 Y6.56 F3500.00
G1 X-8.21 Y6.56 F3500.00
M300 S50.00 (pen up)
G4 P150 (wait 150ms)

(Polyline consisting of 1 segments.)
G1 X-2.86 Y6.56 F3500.00
M300 S30.00 (pen down)
G4 P150 (wait 150ms)
G1 X-2.82 Y6.60 F3500.00
G1 X-2.81 Y6.66 F3500.00
G1 X-2.59 Y6.87 F3500.00
G1 X-2.32 Y7.19 F3500.00
G1 X-2.06 Y7.52 F3500.00
G1 X-1.78 Y7.86 F3500.00
G1 X-1.54 Y8.20 F3500.00
G1 X-1.28 Y8.55 F3500.00
G1 X-0.94 Y8.70 F3500.00
G1 X-0.77 Y8.75 F3500.00
G1 X-0.64 Y8.70 F3500.00
G1 X-0.60 Y8.54 F3500.00
G1 X-0.61 Y8.45 F3500.00
G1 X-0.65 Y8.32 F3500.00
G1 X-0.74 Y8.09 F3500.00
G1 X-0.85 Y7.70 F3500.00
G1 X-0.96 Y7.32 F3500.00
G1 X-1.05 Y6.88 F3500.00
G1 X-1.08 Y6.51 F3500.00
G1 X-1.05 Y6.05 F3500.00
G1 X-0.96 Y5.92 F3500.00
G1 X-0.82 Y6.00 F3500.00
G1 X-0.63 Y6.11 F3500.00
G1 X-0.40 Y6.37 F3500.00
G1 X-0.10 Y6.73 F3500.00
G1 X0.11 Y7.04 F3500.00
G1 X0.20 Y7.14 F3500.00
G1 X0.30 Y7.27 F3500.00
G1 X0.54 Y7.66 F3500.00
G1 X0.83 Y7.79 F3500.00
G1 X1.06 Y7.76 F3500.00
G1 X1.19 Y7.65 F3500.00
G1 X1.21 Y7.52 F3500.00
G1 X1.22 Y7.27 F3500.00
G1 X1.25 Y7.09 F3500.00
G1 X1.27 Y6.92 F3500.00
G1 X1.35 Y6.61 F3500.00
G1 X1.57 Y6.51 F3500.00
G1 X1.68 Y6.52 F3500.00
G1 X1.80 Y6.56 F3500.00
G1 X2.02 Y6.05 F3500.00
G1 X1.47 Y5.75 F3500.00
G1 X1.15 Y5.65 F3500.00
G1 X0.69 Y5.79 F3500.00
G1 X0.43 Y6.22 F3500.00
G1 X0.38 Y6.35 F3500.00
G1 X0.29 Y6.48 F3500.00
G1 X0.17 Y6.35 F3500.00
G1 X0.04 Y6.20 F3500.00
G1 X-0.26 Y5.84 F3500.00
G1 X-0.57 Y5.49 F3500.00
G1 X-0.97 Y5.16 F3500.00
G1 X-1.34 Y5.06 F3500.00
G1 X-1.75 Y5.21 F3500.00
G1 X-1.96 Y5.66 F3500.00
G1 X-2.02 Y6.11 F3500.00
G1 X-2.03 Y6.31 F3500.00
G1 X-2.06 Y6.55 F3500.00
G1 X-2.12 Y6.63 F3500.00
G1 X-2.15 Y6.62 F3500.00
G1 X-2.47 Y6.29 F3500.00
G1 X-2.53 Y6.19 F3500.00
G1 X-2.63 Y6.05 F3500.00
G1 X-2.71 Y6.26 F3500.00
G1 X-2.86 Y6.56 F3500.00
G1 X-2.86 Y6.56 F3500.00
M300 S50.00 (pen up)
G4 P150 (wait 150ms)

(Polyline consisting of 2 segments.)
G1 X1.80 Y6.56 F3500.00
M300 S30.00 (pen down)
G4 P150 (wait 150ms)
G1 X2.12 Y6.86 F3500.00
G1 X2.67 Y7.35 F3500.00
G1 X2.84 Y7.53 F3500.00
G1 X3.22 Y7.98 F3500.00
G1 X3.51 Y8.28 F3500.00
G1 X3.89 Y8.71 F3500.00
G1 X4.17 Y9.00 F3500.00
G1 X4.43 Y9.10 F3500.00
G1 X4.67 Y9.02 F3500.00
G1 X4.75 Y8.79 F3500.00
G1 X4.72 Y8.51 F3500.00
G1 X4.69 Y8.23 F3500.00
G1 X4.64 Y7.69 F3500.00
G1 X4.49 Y6.68 F3500.00
G1 X4.47 Y6.55 F3500.00
G1 X4.41 Y6.31 F3500.00
G1 X4.36 Y6.10 F3500.00
G1 X4.35 Y5.94 F3500.00
G1 X4.36 Y5.87 F3500.00
G1 X4.84 Y6.24 F3500.00
G1 X5.18 Y6.56 F3500.00
G1 X5.40 Y6.05 F3500.00
G1 X4.62 Y5.36 F3500.00
G1 X4.47 Y5.15 F3500.00
G1 X4.16 Y4.92 F3500.00
G1 X4.02 Y4.68 F3500.00
G1 X3.84 Y4.32 F3500.00
G1 X3.75 Y4.03 F3500.00
G1 X3.68 Y3.79 F3500.00
G1 X3.48 Y3.26 F3500.00
G1 X3.14 Y2.55 F3500.00
G1 X2.70 Y1.83 F3500.00
G1 X2.38 Y1.60 F3500.00
G1 X2.16 Y1.62 F3500.00
G1 X2.06 Y1.64 F3500.00
G1 X1.99 Y1.75 F3500.00
G1 X1.97 Y1.96 F3500.00
G1 X2.00 Y2.22 F3500.00
G1 X2.08 Y2.65 F3500.00
G1 X2.18 Y3.00 F3500.00
G1 X2.33 Y3.33 F3500.00
G1 X2.48 Y3.64 F3500.00
G1 X2.65 Y3.96 F3500.00
G1 X3.01 Y4.45 F3500.00
G1 X3.36 Y5.01 F3500.00
G1 X3.43 Y5.31 F3500.00
G1 X3.51 Y5.74 F3500.00
G1 X3.59 Y6.23 F3500.00
G1 X3.64 Y6.53 F3500.00
G1 X3.65 Y6.68 F3500.00
G1 X3.62 Y6.97 F3500.00
G1 X3.72 Y7.27 F3500.00
G1 X3.66 Y7.37 F3500.00
G1 X3.58 Y7.41 F3500.00
G1 X3.37 Y7.35 F3500.00
G1 X3.19 Y7.19 F3500.00
G1 X2.96 Y6.92 F3500.00
G1 X2.63 Y6.61 F3500.00
G1 X2.24 Y6.26 F3500.00
G1 X2.02 Y6.05 F3500.00
G1 X1.95 Y6.22 F3500.00
G1 X1.87 Y6.46 F3500.00
G1 X1.84 Y6.52 F3500.00
G1 X1.80 Y6.56 F3500.00
G1 X1.80 Y6.56 F3500.00
M300 S50.00 (pen up)
G4 P150 (wait 150ms)

(Polyline consisting of 2 segments.)
G1 X5.36 Y11.69 F3500.00
M300 S30.00 (pen down)
G4 P150 (wait 150ms)
G1 X5.54 Y11.64 F3500.00
G1 X5.60 Y11.47 F3500.00
G1 X5.56 Y11.21 F3500.00
G1 X5.43 Y10.86 F3500.00
G1 X5.31 Y10.57 F3500.00
G1 X5.04 Y10.33 F3500.00
G1 X4.71 Y10.18 F3500.00
G1 X4.46 Y10.20 F3500.00
G1 X4.30 Y10.26 F3500.00
G1 X4.22 Y10.40 F3500.00
G1 X4.19 Y10.66 F3500.00
G1 X4.63 Y11.31 F3500.00
G1 X5.36 Y11.69 F3500.00
G1 X5.36 Y11.69 F3500.00
M300 S50.00 (pen up)
G4 P150 (wait 150ms)

(Polyline consisting of 1 segments.)
G1 X5.36 Y6.81 F3500.00
M300 S30.00 (pen down)
G4 P150 (wait 150ms)
G1 X5.87 Y7.14 F3500.00
G1 X5.94 Y7.21 F3500.00
G1 X6.03 Y7.35 F3500.00
G1 X6.13 Y7.47 F3500.00
G1 X6.28 Y7.56 F3500.00
G1 X6.41 Y7.70 F3500.00
G1 X6.62 Y7.89 F3500.00
G1 X6.78 Y7.99 F3500.00
G1 X6.98 Y8.16 F3500.00
G1 X7.88 Y8.88 F3500.00
G1 X8.52 Y9.12 F3500.00
G1 X8.74 Y9.05 F3500.00
G1 X8.81 Y8.88 F3500.00
G1 X8.77 Y8.68 F3500.00
G1 X8.64 Y8.53 F3500.00
G1 X8.33 Y8.31 F3500.00
G1 X8.12 Y8.06 F3500.00
G1 X7.81 Y7.80 F3500.00
G1 X7.72 Y7.67 F3500.00
G1 X7.61 Y7.57 F3500.00
G1 X7.40 Y7.41 F3500.00
G1 X7.16 Y7.09 F3500.00
G1 X6.66 Y6.62 F3500.00
G1 X6.52 Y6.45 F3500.00
G1 X6.26 Y6.08 F3500.00
G1 X6.30 Y6.03 F3500.00
G1 X6.55 Y6.16 F3500.00
G1 X6.85 Y6.41 F3500.00
G1 X7.16 Y6.69 F3500.00
G1 X7.33 Y6.83 F3500.00
G1 X7.41 Y6.88 F3500.00
G1 X7.50 Y6.93 F3500.00
G1 X7.98 Y7.39 F3500.00
G1 X8.39 Y7.53 F3500.00
G1 X8.57 Y7.44 F3500.00
G1 X8.65 Y7.17 F3500.00
G1 X8.64 Y6.63 F3500.00
G1 X8.73 Y6.31 F3500.00
G1 X9.01 Y6.17 F3500.00
G1 X9.10 Y6.20 F3500.00
G1 X9.20 Y6.27 F3500.00
G1 X9.28 Y6.37 F3500.00
G1 X9.35 Y6.46 F3500.00
G1 X9.42 Y6.50 F3500.00
G1 X9.50 Y6.56 F3500.00
G1 X9.63 Y6.27 F3500.00
G1 X9.71 Y6.05 F3500.00
G1 X9.46 Y5.81 F3500.00
G1 X9.19 Y5.57 F3500.00
G1 X8.87 Y5.38 F3500.00
G1 X8.55 Y5.32 F3500.00
G1 X7.99 Y5.52 F3500.00
G1 X7.76 Y6.15 F3500.00
G1 X7.75 Y6.25 F3500.00
G1 X7.69 Y6.36 F3500.00
G1 X7.63 Y6.30 F3500.00
G1 X7.55 Y6.22 F3500.00
G1 X7.37 Y6.08 F3500.00
G1 X7.11 Y5.88 F3500.00
G1 X6.78 Y5.55 F3500.00
G1 X6.59 Y5.37 F3500.00
G1 X6.33 Y5.18 F3500.00
G1 X6.00 Y4.99 F3500.00
G1 X5.80 Y4.89 F3500.00
G1 X5.67 Y4.85 F3500.00
G1 X5.28 Y4.98 F3500.00
G1 X5.15 Y5.39 F3500.00
G1 X5.21 Y5.67 F3500.00
G1 X5.41 Y5.93 F3500.00
G1 X5.42 Y6.05 F3500.00
G1 X5.40 Y6.11 F3500.00
G1 X5.37 Y6.18 F3500.00
G1 X5.29 Y6.35 F3500.00
G1 X5.20 Y6.56 F3500.00
G1 X5.26 Y6.65 F3500.00
G1 X5.36 Y6.81 F3500.00
G1 X5.36 Y6.81 F3500.00
M300 S50.00 (pen up)
G4 P150 (wait 150ms)

(Polyline consisting of 1 segments.)
G1 X9.48 Y6.56 F3500.00
M300 S30.00 (pen down)
G4 P150 (wait 150ms)
G1 X9.88 Y6.88 F3500.00
G1 X10.27 Y7.19 F3500.00
G1 X10.49 Y7.44 F3500.00
G1 X10.81 Y7.77 F3500.00
G1 X11.03 Y7.93 F3500.00
G1 X11.24 Y7.98 F3500.00
G1 X11.45 Y7.92 F3500.00
G1 X11.52 Y7.71 F3500.00
G1 X11.36 Y7.01 F3500.00
G1 X11.19 Y6.27 F3500.00
G1 X11.21 Y6.20 F3500.00
G1 X11.27 Y6.17 F3500.00
G1 X11.30 Y6.18 F3500.00
G1 X11.55 Y6.35 F3500.00
G1 X11.87 Y6.60 F3500.00
G1 X12.23 Y6.95 F3500.00
G1 X12.74 Y7.45 F3500.00
G1 X12.99 Y7.68 F3500.00
G1 X13.32 Y8.01 F3500.00
G1 X13.52 Y8.17 F3500.00
G1 X13.84 Y8.22 F3500.00
G1 X14.03 Y8.17 F3500.00
G1 X14.10 Y8.03 F3500.00
G1 X14.09 Y7.96 F3500.00
G1 X14.08 Y7.89 F3500.00
G1 X13.96 Y7.48 F3500.00
G1 X13.77 Y6.91 F3500.00
G1 X13.57 Y6.42 F3500.00
G1 X13.35 Y5.79 F3500.00
G1 X13.39 Y5.74 F3500.00
G1 X13.74 Y6.00 F3500.00
G1 X14.32 Y6.56 F3500.00
G1 X14.55 Y6.05 F3500.00
G1 X14.44 Y5.94 F3500.00
G1 X14.27 Y5.81 F3500.00
G1 X13.24 Y4.97 F3500.00
G1 X12.56 Y4.15 F3500.00
G1 X11.94 Y3.16 F3500.00
G1 X11.57 Y2.62 F3500.00
G1 X10.84 Y1.87 F3500.00
G1 X10.16 Y1.63 F3500.00
G1 X9.98 Y1.68 F3500.00
G1 X9.93 Y1.83 F3500.00
G1 X9.96 Y1.97 F3500.00
G1 X10.06 Y2.15 F3500.00
G1 X10.25 Y2.46 F3500.00
G1 X10.42 Y2.60 F3500.00
G1 X10.44 Y2.70 F3500.00
G1 X10.51 Y2.77 F3500.00
G1 X10.61 Y2.86 F3500.00
G1 X10.82 Y3.19 F3500.00
G1 X11.29 Y3.78 F3500.00
G1 X11.71 Y4.26 F3500.00
G1 X12.04 Y4.61 F3500.00
G1 X12.09 Y4.71 F3500.00
G1 X12.13 Y4.84 F3500.00
G1 X12.29 Y5.19 F3500.00
G1 X12.50 Y5.67 F3500.00
G1 X12.59 Y6.04 F3500.00
G1 X12.67 Y6.49 F3500.00
G1 X12.65 Y6.55 F3500.00
G1 X12.63 Y6.65 F3500.00
G1 X12.41 Y6.50 F3500.00
G1 X12.15 Y6.27 F3500.00
G1 X11.77 Y5.87 F3500.00
G1 X11.40 Y5.63 F3500.00
G1 X11.08 Y5.28 F3500.00
G1 X10.63 Y5.16 F3500.00
G1 X10.35 Y5.25 F3500.00
G1 X10.26 Y5.51 F3500.00
G1 X10.27 Y5.60 F3500.00
G1 X10.29 Y5.71 F3500.00
G1 X10.24 Y5.87 F3500.00
G1 X10.28 Y6.08 F3500.00
G1 X10.25 Y6.33 F3500.00
G1 X10.17 Y6.41 F3500.00
G1 X10.15 Y6.40 F3500.00
G1 X9.97 Y6.27 F3500.00
G1 X9.70 Y6.05 F3500.00
G1 X9.63 Y6.22 F3500.00
G1 X9.55 Y6.46 F3500.00
G1 X9.52 Y6.52 F3500.00
G1 X9.48 Y6.56 F3500.00
G1 X9.48 Y6.56 F3500.00
M300 S50.00 (pen up)
G4 P150 (wait 150ms)

(Polyline consisting of 1 segments.)
G1 X14.50 Y6.81 F3500.00
M300 S30.00 (pen down)
G4 P150 (wait 150ms)
G1 X15.01 Y7.14 F3500.00
G1 X15.07 Y7.21 F3500.00
G1 X15.16 Y7.35 F3500.00
G1 X15.27 Y7.47 F3500.00
G1 X15.41 Y7.56 F3500.00
G1 X15.54 Y7.70 F3500.00
G1 X15.76 Y7.89 F3500.00
G1 X15.91 Y7.99 F3500.00
G1 X16.12 Y8.16 F3500.00
G1 X17.01 Y8.88 F3500.00
G1 X17.66 Y9.12 F3500.00
G1 X17.87 Y9.05 F3500.00
G1 X17.94 Y8.88 F3500.00
G1 X17.90 Y8.68 F3500.00
G1 X17.77 Y8.53 F3500.00
G1 X17.47 Y8.31 F3500.00
G1 X17.25 Y8.06 F3500.00
G1 X16.95 Y7.80 F3500.00
G1 X16.85 Y7.67 F3500.00
G1 X16.75 Y7.57 F3500.00
G1 X16.54 Y7.41 F3500.00
G1 X16.30 Y7.09 F3500.00
G1 X15.80 Y6.62 F3500.00
G1 X15.66 Y6.45 F3500.00
G1 X15.39 Y6.08 F3500.00
G1 X15.43 Y6.03 F3500.00
G1 X15.69 Y6.16 F3500.00
G1 X15.99 Y6.41 F3500.00
G1 X16.30 Y6.69 F3500.00
G1 X16.47 Y6.83 F3500.00
G1 X16.55 Y6.88 F3500.00
G1 X16.63 Y6.93 F3500.00
G1 X17.12 Y7.39 F3500.00
G1 X17.53 Y7.53 F3500.00
G1 X17.71 Y7.44 F3500.00
G1 X17.78 Y7.17 F3500.00
G1 X17.77 Y6.63 F3500.00
G1 X17.87 Y6.31 F3500.00
G1 X18.14 Y6.17 F3500.00
G1 X18.24 Y6.20 F3500.00
G1 X18.34 Y6.27 F3500.00
G1 X18.41 Y6.37 F3500.00
G1 X18.49 Y6.46 F3500.00
G1 X18.55 Y6.50 F3500.00
G1 X18.63 Y6.56 F3500.00
G1 X18.76 Y6.27 F3500.00
G1 X18.85 Y6.05 F3500.00
G1 X18.59 Y5.81 F3500.00
G1 X18.33 Y5.57 F3500.00
G1 X18.00 Y5.38 F3500.00
G1 X17.69 Y5.32 F3500.00
G1 X17.13 Y5.52 F3500.00
G1 X16.90 Y6.15 F3500.00
G1 X16.88 Y6.25 F3500.00
G1 X16.83 Y6.36 F3500.00
G1 X16.76 Y6.30 F3500.00
G1 X16.69 Y6.22 F3500.00
G1 X16.50 Y6.08 F3500.00
G1 X16.25 Y5.88 F3500.00
G1 X15.92 Y5.55 F3500.00
G1 X15.73 Y5.37 F3500.00
G1 X15.47 Y5.18 F3500.00
G1 X15.13 Y4.99 F3500.00
G1 X14.93 Y4.89 F3500.00
G1 X14.81 Y4.85 F3500.00
G1 X14.41 Y4.98 F3500.00
G1 X14.28 Y5.39 F3500.00
G1 X14.35 Y5.67 F3500.00
G1 X14.54 Y5.93 F3500.00
G1 X14.55 Y6.05 F3500.00
G1 X14.54 Y6.11 F3500.00
G1 X14.50 Y6.18 F3500.00
G1 X14.43 Y6.35 F3500.00
G1 X14.33 Y6.56 F3500.00
G1 X14.40 Y6.65 F3500.00
G1 X14.50 Y6.81 F3500.00
G1 X14.50 Y6.81 F3500.00
M300 S50.00 (pen up)
G4 P150 (wait 150ms)

(Polyline consisting of 1 segments.)
G1 X-12.48 Y-7.65 F3500.00
M300 S30.00 (pen down)
G4 P150 (wait 150ms)
G1 X-12.27 Y-8.16 F3500.00
G1 X-12.57 Y-8.36 F3500.00
G1 X-13.00 Y-8.53 F3500.00
G1 X-13.16 Y-8.57 F3500.00
G1 X-13.37 Y-8.63 F3500.00
G1 X-13.76 Y-8.66 F3500.00
G1 X-14.29 Y-8.72 F3500.00
G1 X-15.07 Y-9.25 F3500.00
G1 X-15.64 Y-9.50 F3500.00
G1 X-15.72 Y-9.58 F3500.00
G1 X-16.18 Y-9.71 F3500.00
G1 X-16.82 Y-9.80 F3500.00
G1 X-16.96 Y-9.72 F3500.00
G1 X-17.12 Y-9.54 F3500.00
G1 X-16.98 Y-9.38 F3500.00
G1 X-16.79 Y-9.15 F3500.00
G1 X-16.60 Y-8.96 F3500.00
G1 X-16.30 Y-8.85 F3500.00
G1 X-15.89 Y-8.74 F3500.00
G1 X-15.76 Y-8.65 F3500.00
G1 X-15.57 Y-8.53 F3500.00
G1 X-15.31 Y-8.36 F3500.00
G1 X-15.00 Y-8.09 F3500.00
G1 X-14.64 Y-7.74 F3500.00
G1 X-14.48 Y-7.58 F3500.00
G1 X-14.38 Y-7.44 F3500.00
G1 X-14.26 Y-7.32 F3500.00
G1 X-14.06 Y-6.98 F3500.00
G1 X-13.78 Y-6.51 F3500.00
G1 X-13.71 Y-6.43 F3500.00
G1 X-13.62 Y-6.32 F3500.00
G1 X-13.45 Y-5.93 F3500.00
G1 X-13.40 Y-5.30 F3500.00
G1 X-13.53 Y-4.76 F3500.00
G1 X-13.94 Y-4.17 F3500.00
G1 X-14.43 Y-3.72 F3500.00
G1 X-14.95 Y-3.39 F3500.00
G1 X-15.33 Y-3.19 F3500.00
G1 X-15.65 Y-3.01 F3500.00
G1 X-15.85 Y-3.78 F3500.00
G1 X-16.12 Y-4.97 F3500.00
G1 X-16.37 Y-6.24 F3500.00
G1 X-16.45 Y-6.89 F3500.00
G1 X-16.51 Y-7.17 F3500.00
G1 X-16.73 Y-8.26 F3500.00
G1 X-17.07 Y-8.82 F3500.00
G1 X-17.29 Y-9.00 F3500.00
G1 X-17.36 Y-8.94 F3500.00
G1 X-17.43 Y-8.74 F3500.00
G1 X-17.36 Y-8.42 F3500.00
G1 X-17.39 Y-8.33 F3500.00
G1 X-17.33 Y-7.60 F3500.00
G1 X-17.27 Y-6.86 F3500.00
G1 X-17.19 Y-6.09 F3500.00
G1 X-17.06 Y-5.42 F3500.00
G1 X-17.13 Y-5.14 F3500.00
G1 X-17.06 Y-4.88 F3500.00
G1 X-17.01 Y-4.52 F3500.00
G1 X-16.97 Y-4.11 F3500.00
G1 X-16.93 Y-3.89 F3500.00
G1 X-16.88 Y-3.71 F3500.00
G1 X-16.82 Y-3.44 F3500.00
G1 X-16.63 Y-3.21 F3500.00
G1 X-16.40 Y-2.94 F3500.00
G1 X-16.22 Y-2.89 F3500.00
G1 X-16.17 Y-2.81 F3500.00
G1 X-16.23 Y-2.75 F3500.00
G1 X-16.43 Y-2.70 F3500.00
G1 X-16.57 Y-2.69 F3500.00
G1 X-16.73 Y-2.64 F3500.00
G1 X-17.19 Y-2.42 F3500.00
G1 X-17.41 Y-2.29 F3500.00
G1 X-17.49 Y-2.15 F3500.00
G1 X-17.43 Y-1.93 F3500.00
G1 X-17.50 Y-1.74 F3500.00
G1 X-17.52 Y-1.63 F3500.00
G1 X-17.50 Y-1.55 F3500.00
G1 X-17.43 Y-1.53 F3500.00
G1 X-17.15 Y-1.58 F3500.00
G1 X-17.04 Y-1.54 F3500.00
G1 X-16.93 Y-1.50 F3500.00
G1 X-16.69 Y-1.52 F3500.00
G1 X-16.53 Y-1.56 F3500.00
G1 X-16.36 Y-1.64 F3500.00
G1 X-16.20 Y-1.72 F3500.00
G1 X-16.02 Y-1.69 F3500.00
G1 X-15.96 Y-1.70 F3500.00
G1 X-15.80 Y-1.78 F3500.00
G1 X-15.58 Y-1.85 F3500.00
G1 X-15.35 Y-1.90 F3500.00
G1 X-15.20 Y-1.95 F3500.00
G1 X-14.16 Y-2.52 F3500.00
G1 X-13.43 Y-3.05 F3500.00
G1 X-12.75 Y-3.89 F3500.00
G1 X-12.53 Y-4.83 F3500.00
G1 X-12.99 Y-6.48 F3500.00
G1 X-14.38 Y-8.31 F3500.00
G1 X-14.17 Y-8.24 F3500.00
G1 X-13.87 Y-8.14 F3500.00
G1 X-13.15 Y-7.98 F3500.00
G1 X-12.75 Y-7.83 F3500.00
G1 X-12.48 Y-7.65 F3500.00
G1 X-12.48 Y-7.65 F3500.00
M300 S50.00 (pen up)
G4 P150 (wait 150ms)

(Polyline consisting of 1 segments.)
G1 X-12.33 Y-7.41 F3500.00
M300 S30.00 (pen down)
G4 P150 (wait 150ms)
G1 X-11.82 Y-7.07 F3500.00
G1 X-11.75 Y-7.00 F3500.00
G1 X-11.66 Y-6.86 F3500.00
G1 X-11.56 Y-6.74 F3500.00
G1 X-11.41 Y-6.65 F3500.00
G1 X-11.28 Y-6.51 F3500.00
G1 X-11.07 Y-6.32 F3500.00
G1 X-10.91 Y-6.22 F3500.00
G1 X-10.70 Y-6.05 F3500.00
G1 X-9.81 Y-5.33 F3500.00
G1 X-9.17 Y-5.10 F3500.00
G1 X-8.95 Y-5.16 F3500.00
G1 X-8.88 Y-5.33 F3500.00
G1 X-8.92 Y-5.53 F3500.00
G1 X-9.05 Y-5.68 F3500.00
G1 X-9.36 Y-5.91 F3500.00
G1 X-9.57 Y-6.15 F3500.00
G1 X-9.88 Y-6.41 F3500.00
G1 X-9.97 Y-6.54 F3500.00
G1 X-10.08 Y-6.64 F3500.00
G1 X-10.28 Y-6.81 F3500.00
G1 X-10.53 Y-7.12 F3500.00
G1 X-11.03 Y-7.59 F3500.00
G1 X-11.17 Y-7.77 F3500.00
G1 X-11.43 Y-8.13 F3500.00
G1 X-11.39 Y-8.18 F3500.00
G1 X-11.14 Y-8.05 F3500.00
G1 X-10.84 Y-7.80 F3500.00
G1 X-10.53 Y-7.52 F3500.00
G1 X-10.36 Y-7.38 F3500.00
G1 X-10.28 Y-7.33 F3500.00
G1 X-10.19 Y-7.28 F3500.00
G1 X-9.71 Y-6.83 F3500.00
G1 X-9.29 Y-6.68 F3500.00
G1 X-9.11 Y-6.77 F3500.00
G1 X-9.04 Y-7.04 F3500.00
G1 X-9.05 Y-7.58 F3500.00
G1 X-8.96 Y-7.90 F3500.00
G1 X-8.68 Y-8.04 F3500.00
G1 X-8.59 Y-8.01 F3500.00
G1 X-8.49 Y-7.94 F3500.00
G1 X-8.41 Y-7.84 F3500.00
G1 X-8.34 Y-7.75 F3500.00
G1 X-8.27 Y-7.72 F3500.00
G1 X-8.19 Y-7.65 F3500.00
G1 X-8.06 Y-7.94 F3500.00
G1 X-7.98 Y-8.16 F3500.00
G1 X-8.23 Y-8.40 F3500.00
G1 X-8.50 Y-8.64 F3500.00
G1 X-8.82 Y-8.83 F3500.00
G1 X-9.14 Y-8.89 F3500.00
G1 X-9.70 Y-8.69 F3500.00
G1 X-9.93 Y-8.07 F3500.00
G1 X-9.94 Y-7.96 F3500.00
G1 X-10.00 Y-7.85 F3500.00
G1 X-10.06 Y-7.91 F3500.00
G1 X-10.14 Y-7.99 F3500.00
G1 X-10.32 Y-8.13 F3500.00
G1 X-10.58 Y-8.33 F3500.00
G1 X-10.91 Y-8.66 F3500.00
G1 X-11.10 Y-8.84 F3500.00
G1 X-11.36 Y-9.03 F3500.00
G1 X-11.69 Y-9.23 F3500.00
G1 X-11.89 Y-9.32 F3500.00
G1 X-12.01 Y-9.36 F3500.00
G1 X-12.41 Y-9.23 F3500.00
G1 X-12.54 Y-8.83 F3500.00
G1 X-12.48 Y-8.54 F3500.00
G1 X-12.28 Y-8.28 F3500.00
G1 X-12.27 Y-8.16 F3500.00
G1 X-12.29 Y-8.10 F3500.00
G1 X-12.32 Y-8.03 F3500.00
G1 X-12.40 Y-7.86 F3500.00
G1 X-12.49 Y-7.65 F3500.00
G1 X-12.43 Y-7.56 F3500.00
G1 X-12.33 Y-7.41 F3500.00
G1 X-12.33 Y-7.41 F3500.00
M300 S50.00 (pen up)
G4 P150 (wait 150ms)

(Polyline consisting of 2 segments.)
G1 X-8.21 Y-7.65 F3500.00
M300 S30.00 (pen down)
G4 P150 (wait 150ms)
G1 X-8.02 Y-7.48 F3500.00
G1 X-7.91 Y-7.38 F3500.00
G1 X-7.77 Y-7.22 F3500.00
G1 X-7.70 Y-7.08 F3500.00
G1 X-7.59 Y-6.61 F3500.00
G1 X-7.41 Y-5.95 F3500.00
G1 X-7.30 Y-5.67 F3500.00
G1 X-7.18 Y-5.29 F3500.00
G1 X-7.01 Y-4.78 F3500.00
G1 X-6.79 Y-4.37 F3500.00
G1 X-6.71 Y-4.25 F3500.00
G1 X-6.63 Y-4.07 F3500.00
G1 X-6.52 Y-3.87 F3500.00
G1 X-6.36 Y-3.59 F3500.00
G1 X-5.96 Y-3.01 F3500.00
G1 X-5.67 Y-2.63 F3500.00
G1 X-5.27 Y-2.18 F3500.00
G1 X-4.85 Y-1.80 F3500.00
G1 X-4.52 Y-1.56 F3500.00
G1 X-4.30 Y-1.49 F3500.00
G1 X-4.19 Y-1.61 F3500.00
G1 X-4.11 Y-1.60 F3500.00
G1 X-3.90 Y-1.72 F3500.00
G1 X-3.83 Y-2.06 F3500.00
G1 X-3.85 Y-2.19 F3500.00
G1 X-3.89 Y-2.39 F3500.00
G1 X-3.95 Y-2.49 F3500.00
G1 X-3.98 Y-2.61 F3500.00
G1 X-3.99 Y-2.74 F3500.00
G1 X-4.02 Y-2.84 F3500.00
G1 X-4.18 Y-3.17 F3500.00
G1 X-4.36 Y-3.61 F3500.00
G1 X-4.50 Y-3.86 F3500.00
G1 X-4.70 Y-4.21 F3500.00
G1 X-4.84 Y-4.47 F3500.00
G1 X-5.06 Y-4.83 F3500.00
G1 X-5.18 Y-5.00 F3500.00
G1 X-5.37 Y-5.22 F3500.00
G1 X-5.56 Y-5.52 F3500.00
G1 X-5.99 Y-6.08 F3500.00
G1 X-6.33 Y-6.51 F3500.00
G1 X-6.83 Y-7.12 F3500.00
G1 X-6.98 Y-7.86 F3500.00
G1 X-7.04 Y-8.42 F3500.00
G1 X-7.02 Y-8.56 F3500.00
G1 X-6.97 Y-8.61 F3500.00
G1 X-6.89 Y-8.52 F3500.00
G1 X-6.78 Y-8.40 F3500.00
G1 X-6.53 Y-8.05 F3500.00
G1 X-6.20 Y-7.39 F3500.00
G1 X-5.91 Y-6.83 F3500.00
G1 X-5.70 Y-6.59 F3500.00
G1 X-5.50 Y-6.51 F3500.00
G1 X-5.40 Y-6.47 F3500.00
G1 X-5.33 Y-6.46 F3500.00
G1 X-5.20 Y-6.54 F3500.00
G1 X-5.10 Y-6.79 F3500.00
G1 X-4.98 Y-7.22 F3500.00
G1 X-4.93 Y-7.41 F3500.00
G1 X-4.75 Y-7.65 F3500.00
G1 X-4.50 Y-7.73 F3500.00
G1 X-4.09 Y-7.65 F3500.00
G1 X-3.99 Y-7.89 F3500.00
G1 X-3.87 Y-8.16 F3500.00
G1 X-4.14 Y-8.33 F3500.00
G1 X-4.41 Y-8.50 F3500.00
G1 X-4.67 Y-8.57 F3500.00
G1 X-5.06 Y-8.60 F3500.00
G1 X-5.59 Y-8.28 F3500.00
G1 X-5.82 Y-7.97 F3500.00
G1 X-5.85 Y-7.97 F3500.00
G1 X-6.04 Y-8.19 F3500.00
G1 X-6.23 Y-8.44 F3500.00
G1 X-6.41 Y-8.73 F3500.00
G1 X-6.67 Y-9.10 F3500.00
G1 X-7.00 Y-9.43 F3500.00
G1 X-7.24 Y-9.54 F3500.00
G1 X-7.57 Y-9.50 F3500.00
G1 X-7.72 Y-9.35 F3500.00
G1 X-7.82 Y-8.81 F3500.00
G1 X-7.86 Y-8.42 F3500.00
G1 X-7.85 Y-8.33 F3500.00
G1 X-7.84 Y-8.26 F3500.00
G1 X-7.80 Y-8.10 F3500.00
G1 X-7.81 Y-8.06 F3500.00
G1 X-7.86 Y-8.05 F3500.00
G1 X-7.91 Y-8.10 F3500.00
G1 X-7.98 Y-8.16 F3500.00
G1 X-8.06 Y-7.96 F3500.00
G1 X-8.21 Y-7.65 F3500.00
G1 X-8.21 Y-7.65 F3500.00
M300 S50.00 (pen up)
G4 P150 (wait 150ms)

(Polyline consisting of 2 segments.)
G1 X-4.57 Y-2.52 F3500.00
M300 S30.00 (pen down)
G4 P150 (wait 150ms)
G1 X-4.82 Y-2.74 F3500.00
G1 X-5.29 Y-3.39 F3500.00
G1 X-5.61 Y-3.86 F3500.00
G1 X-5.91 Y-4.32 F3500.00
G1 X-6.01 Y-4.46 F3500.00
G1 X-6.04 Y-4.60 F3500.00
G1 X-6.26 Y-5.18 F3500.00
G1 X-6.43 Y-5.63 F3500.00
G1 X-6.50 Y-5.82 F3500.00
G1 X-6.47 Y-5.85 F3500.00
G1 X-6.28 Y-5.64 F3500.00
G1 X-6.01 Y-5.31 F3500.00
G1 X-5.65 Y-4.84 F3500.00
G1 X-5.24 Y-4.19 F3500.00
G1 X-4.78 Y-3.29 F3500.00
G1 X-4.57 Y-2.84 F3500.00
G1 X-4.50 Y-2.61 F3500.00
G1 X-4.51 Y-2.55 F3500.00
G1 X-4.57 Y-2.52 F3500.00
G1 X-4.57 Y-2.52 F3500.00
M300 S50.00 (pen up)
G4 P150 (wait 150ms)

(Polyline consisting of 1 segments.)
G1 X-3.91 Y-7.41 F3500.00
M300 S30.00 (pen down)
G4 P150 (wait 150ms)
G1 X-3.40 Y-7.07 F3500.00
G1 X-3.33 Y-7.00 F3500.00
G1 X-3.24 Y-6.86 F3500.00
G1 X-3.14 Y-6.74 F3500.00
G1 X-2.99 Y-6.65 F3500.00
G1 X-2.86 Y-6.51 F3500.00
G1 X-2.65 Y-6.32 F3500.00
G1 X-2.49 Y-6.22 F3500.00
G1 X-2.29 Y-6.05 F3500.00
G1 X-1.39 Y-5.33 F3500.00
G1 X-0.75 Y-5.10 F3500.00
G1 X-0.53 Y-5.16 F3500.00
G1 X-0.46 Y-5.33 F3500.00
G1 X-0.50 Y-5.53 F3500.00
G1 X-0.63 Y-5.68 F3500.00
G1 X-0.94 Y-5.91 F3500.00
G1 X-1.15 Y-6.15 F3500.00
G1 X-1.46 Y-6.41 F3500.00
G1 X-1.55 Y-6.54 F3500.00
G1 X-1.66 Y-6.64 F3500.00
G1 X-1.87 Y-6.81 F3500.00
G1 X-2.11 Y-7.12 F3500.00
G1 X-2.61 Y-7.59 F3500.00
G1 X-2.75 Y-7.77 F3500.00
G1 X-3.01 Y-8.13 F3500.00
G1 X-2.97 Y-8.18 F3500.00
G1 X-2.72 Y-8.05 F3500.00
G1 X-2.42 Y-7.80 F3500.00
G1 X-2.11 Y-7.52 F3500.00
G1 X-1.94 Y-7.38 F3500.00
G1 X-1.86 Y-7.33 F3500.00
G1 X-1.77 Y-7.28 F3500.00
G1 X-1.29 Y-6.83 F3500.00
G1 X-0.87 Y-6.68 F3500.00
G1 X-0.70 Y-6.77 F3500.00
G1 X-0.62 Y-7.04 F3500.00
G1 X-0.63 Y-7.58 F3500.00
G1 X-0.54 Y-7.90 F3500.00
G1 X-0.26 Y-8.04 F3500.00
G1 X-0.17 Y-8.01 F3500.00
G1 X-0.07 Y-7.94 F3500.00
G1 X0.01 Y-7.84 F3500.00
G1 X0.08 Y-7.75 F3500.00
G1 X0.15 Y-7.72 F3500.00
G1 X0.23 Y-7.65 F3500.00
G1 X0.36 Y-7.94 F3500.00
G1 X0.44 Y-8.16 F3500.00
G1 X0.19 Y-8.40 F3500.00
G1 X-0.08 Y-8.64 F3500.00
G1 X-0.40 Y-8.83 F3500.00
G1 X-0.72 Y-8.89 F3500.00
G1 X-1.28 Y-8.69 F3500.00
G1 X-1.51 Y-8.07 F3500.00
G1 X-1.52 Y-7.96 F3500.00
G1 X-1.58 Y-7.85 F3500.00
G1 X-1.64 Y-7.91 F3500.00
G1 X-1.72 Y-7.99 F3500.00
G1 X-1.90 Y-8.13 F3500.00
G1 X-2.16 Y-8.33 F3500.00
G1 X-2.49 Y-8.66 F3500.00
G1 X-2.68 Y-8.84 F3500.00
G1 X-2.94 Y-9.03 F3500.00
G1 X-3.27 Y-9.23 F3500.00
G1 X-3.47 Y-9.32 F3500.00
G1 X-3.60 Y-9.36 F3500.00
G1 X-3.99 Y-9.23 F3500.00
G1 X-4.12 Y-8.83 F3500.00
G1 X-4.06 Y-8.54 F3500.00
G1 X-3.86 Y-8.28 F3500.00
G1 X-3.85 Y-8.16 F3500.00
G1 X-3.87 Y-8.10 F3500.00
G1 X-3.90 Y-8.03 F3500.00
G1 X-3.98 Y-7.86 F3500.00
G1 X-4.07 Y-7.65 F3500.00
G1 X-4.01 Y-7.56 F3500.00
G1 X-3.91 Y-7.41 F3500.00
G1 X-3.91 Y-7.41 F3500.00
M300 S50.00 (pen up)
G4 P150 (wait 150ms)

(Polyline consisting of 1 segments.)
G1 X0.21 Y-7.65 F3500.00
M300 S30.00 (pen down)
G4 P150 (wait 150ms)
G1 X0.29 Y-7.55 F3500.00
G1 X0.39 Y-7.41 F3500.00
G1 X0.87 Y-6.86 F3500.00
G1 X1.31 Y-6.43 F3500.00
G1 X1.57 Y-6.17 F3500.00
G1 X1.92 Y-5.81 F3500.00
G1 X2.36 Y-5.63 F3500.00
G1 X2.58 Y-5.73 F3500.00
G1 X2.66 Y-6.01 F3500.00
G1 X2.63 Y-6.34 F3500.00
G1 X2.56 Y-6.71 F3500.00
G1 X2.48 Y-7.00 F3500.00
G1 X2.49 Y-7.06 F3500.00
G1 X2.55 Y-7.08 F3500.00
G1 X2.88 Y-6.80 F3500.00
G1 X3.51 Y-6.13 F3500.00
G1 X4.10 Y-5.59 F3500.00
G1 X4.50 Y-5.41 F3500.00
G1 X4.74 Y-5.53 F3500.00
G1 X4.81 Y-5.88 F3500.00
G1 X4.76 Y-6.53 F3500.00
G1 X4.59 Y-7.13 F3500.00
G1 X4.56 Y-7.23 F3500.00
G1 X4.55 Y-7.30 F3500.00
G1 X4.62 Y-7.37 F3500.00
G1 X4.73 Y-7.26 F3500.00
G1 X4.86 Y-7.08 F3500.00
G1 X5.12 Y-6.87 F3500.00
G1 X5.40 Y-6.65 F3500.00
G1 X5.72 Y-6.46 F3500.00
G1 X6.04 Y-6.40 F3500.00
G1 X6.09 Y-6.42 F3500.00
G1 X6.15 Y-6.46 F3500.00
G1 X6.36 Y-6.66 F3500.00
G1 X6.48 Y-6.82 F3500.00
G1 X6.87 Y-7.48 F3500.00
G1 X7.17 Y-7.70 F3500.00
G1 X7.23 Y-7.69 F3500.00
G1 X7.28 Y-7.65 F3500.00
G1 X7.50 Y-8.16 F3500.00
G1 X7.14 Y-8.40 F3500.00
G1 X6.87 Y-8.48 F3500.00
G1 X6.07 Y-7.98 F3500.00
G1 X5.44 Y-7.48 F3500.00
G1 X4.47 Y-8.34 F3500.00
G1 X3.63 Y-9.19 F3500.00
G1 X3.40 Y-9.17 F3500.00
G1 X3.33 Y-9.10 F3500.00
G1 X3.31 Y-8.98 F3500.00
G1 X3.35 Y-8.76 F3500.00
G1 X3.44 Y-8.44 F3500.00
G1 X3.55 Y-8.07 F3500.00
G1 X3.60 Y-7.87 F3500.00
G1 X3.65 Y-7.59 F3500.00
G1 X3.73 Y-7.03 F3500.00
G1 X3.70 Y-6.93 F3500.00
G1 X3.62 Y-6.90 F3500.00
G1 X3.53 Y-6.93 F3500.00
G1 X3.42 Y-7.01 F3500.00
G1 X3.28 Y-7.15 F3500.00
G1 X3.02 Y-7.36 F3500.00
G1 X2.62 Y-7.81 F3500.00
G1 X2.20 Y-8.27 F3500.00
G1 X1.66 Y-8.85 F3500.00
G1 X1.41 Y-9.03 F3500.00
G1 X1.15 Y-8.99 F3500.00
G1 X1.07 Y-8.88 F3500.00
G1 X1.27 Y-8.11 F3500.00
G1 X1.46 Y-7.29 F3500.00
G1 X1.44 Y-7.23 F3500.00
G1 X1.38 Y-7.21 F3500.00
G1 X1.22 Y-7.28 F3500.00
G1 X1.01 Y-7.52 F3500.00
G1 X0.82 Y-7.72 F3500.00
G1 X0.54 Y-7.99 F3500.00
G1 X0.50 Y-8.08 F3500.00
G1 X0.43 Y-8.16 F3500.00
G1 X0.36 Y-7.95 F3500.00
G1 X0.21 Y-7.65 F3500.00
G1 X0.21 Y-7.65 F3500.00
M300 S50.00 (pen up)
G4 P150 (wait 150ms)


(end of print job)
M300 S50.00 (pen up)
G4 P150 (wait 150ms)
M300 S255 (turn off servo)
G1 X0 Y0 F3500.00
G1 Z0.00 F150.00 (go up to finished level)
G1 X0.00 Y0.00 F3500.00 (go home)
M18 (drives off)
