(Scribbled version of C:\Users\ICT\AppData\Local\Temp\ink_ext_XXXXXX.svgKWAUI2 @ 3500.00)
( C:\Program Files (x86)\Inkscape\share\extensions\unicorn.py --tab="plotter_setup" --pen-up-angle=50 --pen-down-angle=30 --start-delay=150 --stop-delay=150 --xy-feedrate=3500 --z-feedrate=150 --z-height=0 --finished-height=0 --register-pen=true --x-home=0 --y-home=0 --num-copies=1 --continuous=false --pause-on-layer-change=false C:\Users\ICT\AppData\Local\Temp\ink_ext_XXXXXX.svgKWAUI2 )
G21 (metric ftw)
G90 (absolute mode)
G92 X0.00 Y0.00 Z0.00 (you are here)

M300 S30 (pen down)
G4 P150 (wait 150ms)
M300 S50 (pen up)
G4 P150 (wait 150ms)
M18 (disengage drives)
M01 (Was registration test successful?)
M17 (engage drives if YES, and continue)

(Polyline consisting of 1 segments.)
G1 X-12.33 Y9.66 F3500.00
M300 S30.00 (pen down)
G4 P150 (wait 150ms)
G1 X-12.11 Y9.15 F3500.00
G1 X-12.41 Y8.95 F3500.00
G1 X-12.84 Y8.79 F3500.00
G1 X-13.00 Y8.74 F3500.00
G1 X-13.21 Y8.69 F3500.00
G1 X-13.60 Y8.65 F3500.00
G1 X-14.13 Y8.59 F3500.00
G1 X-14.91 Y8.06 F3500.00
G1 X-15.48 Y7.81 F3500.00
G1 X-15.56 Y7.74 F3500.00
G1 X-16.02 Y7.60 F3500.00
G1 X-16.66 Y7.51 F3500.00
G1 X-16.80 Y7.59 F3500.00
G1 X-16.96 Y7.77 F3500.00
G1 X-16.82 Y7.93 F3500.00
G1 X-16.64 Y8.16 F3500.00
G1 X-16.44 Y8.36 F3500.00
G1 X-16.14 Y8.46 F3500.00
G1 X-15.73 Y8.57 F3500.00
G1 X-15.60 Y8.67 F3500.00
G1 X-15.42 Y8.78 F3500.00
G1 X-15.15 Y8.95 F3500.00
G1 X-14.84 Y9.22 F3500.00
G1 X-14.48 Y9.57 F3500.00
G1 X-14.32 Y9.73 F3500.00
G1 X-14.22 Y9.88 F3500.00
G1 X-14.10 Y10.00 F3500.00
G1 X-13.90 Y10.33 F3500.00
G1 X-13.62 Y10.80 F3500.00
G1 X-13.55 Y10.88 F3500.00
G1 X-13.46 Y10.99 F3500.00
G1 X-13.29 Y11.38 F3500.00
G1 X-13.24 Y12.02 F3500.00
G1 X-13.38 Y12.55 F3500.00
G1 X-13.78 Y13.14 F3500.00
G1 X-14.27 Y13.60 F3500.00
G1 X-14.79 Y13.93 F3500.00
G1 X-15.17 Y14.12 F3500.00
G1 X-15.49 Y14.30 F3500.00
G1 X-15.69 Y13.53 F3500.00
G1 X-15.96 Y12.34 F3500.00
G1 X-16.21 Y11.07 F3500.00
G1 X-16.29 Y10.42 F3500.00
G1 X-16.35 Y10.15 F3500.00
G1 X-16.57 Y9.05 F3500.00
G1 X-16.91 Y8.49 F3500.00
G1 X-17.13 Y8.31 F3500.00
G1 X-17.20 Y8.37 F3500.00
G1 X-17.27 Y8.57 F3500.00
G1 X-17.20 Y8.89 F3500.00
G1 X-17.23 Y8.99 F3500.00
G1 X-17.17 Y9.72 F3500.00
G1 X-17.11 Y10.45 F3500.00
G1 X-17.03 Y11.22 F3500.00
G1 X-16.90 Y11.89 F3500.00
G1 X-16.97 Y12.17 F3500.00
G1 X-16.90 Y12.43 F3500.00
G1 X-16.85 Y12.79 F3500.00
G1 X-16.81 Y13.20 F3500.00
G1 X-16.77 Y13.42 F3500.00
G1 X-16.72 Y13.60 F3500.00
G1 X-16.66 Y13.87 F3500.00
G1 X-16.47 Y14.11 F3500.00
G1 X-16.24 Y14.37 F3500.00
G1 X-16.06 Y14.42 F3500.00
G1 X-16.01 Y14.50 F3500.00
G1 X-16.07 Y14.56 F3500.00
G1 X-16.27 Y14.61 F3500.00
G1 X-16.41 Y14.62 F3500.00
G1 X-16.57 Y14.67 F3500.00
G1 X-17.03 Y14.89 F3500.00
G1 X-17.25 Y15.02 F3500.00
G1 X-17.33 Y15.16 F3500.00
G1 X-17.27 Y15.39 F3500.00
G1 X-17.34 Y15.57 F3500.00
G1 X-17.36 Y15.68 F3500.00
G1 X-17.34 Y15.76 F3500.00
G1 X-17.27 Y15.79 F3500.00
G1 X-16.99 Y15.74 F3500.00
G1 X-16.88 Y15.77 F3500.00
G1 X-16.77 Y15.81 F3500.00
G1 X-16.53 Y15.79 F3500.00
G1 X-16.37 Y15.75 F3500.00
G1 X-16.20 Y15.67 F3500.00
G1 X-16.04 Y15.59 F3500.00
G1 X-15.86 Y15.62 F3500.00
G1 X-15.80 Y15.61 F3500.00
G1 X-15.64 Y15.53 F3500.00
G1 X-15.42 Y15.46 F3500.00
G1 X-15.19 Y15.42 F3500.00
G1 X-15.04 Y15.36 F3500.00
G1 X-14.00 Y14.79 F3500.00
G1 X-13.27 Y14.26 F3500.00
G1 X-12.59 Y13.42 F3500.00
G1 X-12.37 Y12.48 F3500.00
G1 X-12.84 Y10.83 F3500.00
G1 X-14.22 Y9.00 F3500.00
G1 X-14.01 Y9.07 F3500.00
G1 X-13.71 Y9.17 F3500.00
G1 X-12.99 Y9.33 F3500.00
G1 X-12.59 Y9.48 F3500.00
G1 X-12.33 Y9.66 F3500.00
G1 X-12.33 Y9.66 F3500.00
M300 S50.00 (pen up)
G4 P150 (wait 150ms)

(Polyline consisting of 1 segments.)
G1 X-12.17 Y9.91 F3500.00
M300 S30.00 (pen down)
G4 P150 (wait 150ms)
G1 X-11.66 Y10.24 F3500.00
G1 X-11.59 Y10.31 F3500.00
G1 X-11.50 Y10.45 F3500.00
G1 X-11.40 Y10.57 F3500.00
G1 X-11.25 Y10.66 F3500.00
G1 X-11.12 Y10.80 F3500.00
G1 X-10.91 Y10.99 F3500.00
G1 X-10.75 Y11.09 F3500.00
G1 X-10.55 Y11.26 F3500.00
G1 X-9.65 Y11.98 F3500.00
G1 X-9.01 Y12.22 F3500.00
G1 X-8.79 Y12.15 F3500.00
G1 X-8.72 Y11.98 F3500.00
G1 X-8.76 Y11.78 F3500.00
G1 X-8.89 Y11.63 F3500.00
G1 X-9.20 Y11.41 F3500.00
G1 X-9.41 Y11.16 F3500.00
G1 X-9.72 Y10.90 F3500.00
G1 X-9.81 Y10.77 F3500.00
G1 X-9.92 Y10.67 F3500.00
G1 X-10.13 Y10.51 F3500.00
G1 X-10.37 Y10.19 F3500.00
G1 X-10.87 Y9.72 F3500.00
G1 X-11.01 Y9.55 F3500.00
G1 X-11.27 Y9.18 F3500.00
G1 X-11.23 Y9.13 F3500.00
G1 X-10.98 Y9.26 F3500.00
G1 X-10.68 Y9.51 F3500.00
G1 X-10.37 Y9.79 F3500.00
G1 X-10.20 Y9.93 F3500.00
G1 X-10.12 Y9.98 F3500.00
G1 X-10.03 Y10.03 F3500.00
G1 X-9.55 Y10.49 F3500.00
G1 X-9.13 Y10.63 F3500.00
G1 X-8.96 Y10.54 F3500.00
G1 X-8.88 Y10.27 F3500.00
G1 X-8.89 Y9.73 F3500.00
G1 X-8.80 Y9.42 F3500.00
G1 X-8.52 Y9.27 F3500.00
G1 X-8.43 Y9.30 F3500.00
G1 X-8.33 Y9.37 F3500.00
G1 X-8.25 Y9.47 F3500.00
G1 X-8.18 Y9.56 F3500.00
G1 X-8.11 Y9.60 F3500.00
G1 X-8.03 Y9.66 F3500.00
G1 X-7.90 Y9.37 F3500.00
G1 X-7.82 Y9.15 F3500.00
G1 X-8.07 Y8.91 F3500.00
G1 X-8.34 Y8.67 F3500.00
G1 X-8.66 Y8.48 F3500.00
G1 X-8.98 Y8.42 F3500.00
G1 X-9.54 Y8.62 F3500.00
G1 X-9.77 Y9.25 F3500.00
G1 X-9.78 Y9.35 F3500.00
G1 X-9.84 Y9.46 F3500.00
G1 X-9.90 Y9.40 F3500.00
G1 X-9.98 Y9.32 F3500.00
G1 X-10.16 Y9.18 F3500.00
G1 X-10.42 Y8.98 F3500.00
G1 X-10.75 Y8.65 F3500.00
G1 X-10.94 Y8.47 F3500.00
G1 X-11.20 Y8.28 F3500.00
G1 X-11.53 Y8.09 F3500.00
G1 X-11.73 Y7.99 F3500.00
G1 X-11.86 Y7.95 F3500.00
G1 X-12.25 Y8.08 F3500.00
G1 X-12.38 Y8.49 F3500.00
G1 X-12.32 Y8.77 F3500.00
G1 X-12.12 Y9.04 F3500.00
G1 X-12.11 Y9.15 F3500.00
G1 X-12.13 Y9.21 F3500.00
G1 X-12.16 Y9.28 F3500.00
G1 X-12.24 Y9.45 F3500.00
G1 X-12.33 Y9.66 F3500.00
G1 X-12.27 Y9.75 F3500.00
G1 X-12.17 Y9.91 F3500.00
G1 X-12.17 Y9.91 F3500.00
M300 S50.00 (pen up)
G4 P150 (wait 150ms)

(Polyline consisting of 1 segments.)
G1 X-8.05 Y9.66 F3500.00
M300 S30.00 (pen down)
G4 P150 (wait 150ms)
G1 X-7.99 Y9.75 F3500.00
G1 X-7.90 Y9.86 F3500.00
G1 X-7.76 Y9.99 F3500.00
G1 X-7.56 Y10.18 F3500.00
G1 X-7.31 Y10.46 F3500.00
G1 X-6.96 Y10.86 F3500.00
G1 X-6.73 Y11.10 F3500.00
G1 X-6.41 Y11.45 F3500.00
G1 X-6.08 Y11.72 F3500.00
G1 X-5.70 Y11.81 F3500.00
G1 X-5.40 Y11.69 F3500.00
G1 X-5.31 Y11.32 F3500.00
G1 X-5.40 Y10.83 F3500.00
G1 X-5.70 Y9.88 F3500.00
G1 X-5.79 Y9.67 F3500.00
G1 X-5.84 Y9.54 F3500.00
G1 X-5.85 Y9.46 F3500.00
G1 X-5.81 Y9.37 F3500.00
G1 X-5.76 Y9.42 F3500.00
G1 X-5.70 Y9.48 F3500.00
G1 X-5.56 Y9.66 F3500.00
G1 X-5.34 Y9.86 F3500.00
G1 X-5.21 Y10.05 F3500.00
G1 X-5.03 Y10.22 F3500.00
G1 X-4.97 Y10.29 F3500.00
G1 X-4.88 Y10.40 F3500.00
G1 X-4.71 Y10.54 F3500.00
G1 X-4.47 Y10.71 F3500.00
G1 X-4.20 Y10.83 F3500.00
G1 X-3.99 Y10.87 F3500.00
G1 X-3.68 Y10.79 F3500.00
G1 X-3.45 Y10.53 F3500.00
G1 X-3.24 Y9.89 F3500.00
G1 X-3.10 Y9.63 F3500.00
G1 X-2.93 Y9.55 F3500.00
G1 X-2.80 Y9.58 F3500.00
G1 X-2.69 Y9.66 F3500.00
G1 X-2.47 Y9.15 F3500.00
G1 X-2.66 Y8.99 F3500.00
G1 X-2.86 Y8.83 F3500.00
G1 X-3.10 Y8.67 F3500.00
G1 X-3.32 Y8.62 F3500.00
G1 X-3.57 Y8.67 F3500.00
G1 X-3.77 Y8.84 F3500.00
G1 X-3.88 Y9.00 F3500.00
G1 X-4.04 Y9.30 F3500.00
G1 X-4.21 Y9.49 F3500.00
G1 X-4.42 Y9.77 F3500.00
G1 X-4.47 Y9.79 F3500.00
G1 X-4.68 Y9.69 F3500.00
G1 X-4.90 Y9.52 F3500.00
G1 X-5.27 Y9.24 F3500.00
G1 X-5.42 Y9.11 F3500.00
G1 X-5.69 Y8.77 F3500.00
G1 X-6.16 Y8.27 F3500.00
G1 X-6.31 Y8.13 F3500.00
G1 X-6.45 Y7.99 F3500.00
G1 X-6.62 Y7.91 F3500.00
G1 X-6.82 Y7.88 F3500.00
G1 X-7.07 Y8.03 F3500.00
G1 X-7.10 Y8.34 F3500.00
G1 X-6.91 Y8.92 F3500.00
G1 X-6.67 Y9.74 F3500.00
G1 X-6.65 Y9.82 F3500.00
G1 X-6.60 Y9.94 F3500.00
G1 X-6.56 Y10.06 F3500.00
G1 X-6.55 Y10.16 F3500.00
G1 X-6.58 Y10.22 F3500.00
G1 X-6.67 Y10.24 F3500.00
G1 X-6.81 Y10.17 F3500.00
G1 X-7.04 Y9.96 F3500.00
G1 X-7.29 Y9.70 F3500.00
G1 X-7.42 Y9.59 F3500.00
G1 X-7.55 Y9.48 F3500.00
G1 X-7.72 Y9.32 F3500.00
G1 X-7.75 Y9.25 F3500.00
G1 X-7.83 Y9.15 F3500.00
G1 X-7.90 Y9.36 F3500.00
G1 X-8.05 Y9.66 F3500.00
G1 X-8.05 Y9.66 F3500.00
M300 S50.00 (pen up)
G4 P150 (wait 150ms)

(Polyline consisting of 1 segments.)
G1 X-2.70 Y9.66 F3500.00
M300 S30.00 (pen down)
G4 P150 (wait 150ms)
G1 X-2.66 Y9.70 F3500.00
G1 X-2.65 Y9.76 F3500.00
G1 X-2.43 Y9.97 F3500.00
G1 X-2.16 Y10.29 F3500.00
G1 X-1.91 Y10.62 F3500.00
G1 X-1.62 Y10.96 F3500.00
G1 X-1.38 Y11.30 F3500.00
G1 X-1.12 Y11.66 F3500.00
G1 X-0.78 Y11.81 F3500.00
G1 X-0.61 Y11.85 F3500.00
G1 X-0.48 Y11.80 F3500.00
G1 X-0.44 Y11.64 F3500.00
G1 X-0.45 Y11.55 F3500.00
G1 X-0.49 Y11.42 F3500.00
G1 X-0.58 Y11.19 F3500.00
G1 X-0.69 Y10.80 F3500.00
G1 X-0.81 Y10.42 F3500.00
G1 X-0.89 Y9.98 F3500.00
G1 X-0.92 Y9.61 F3500.00
G1 X-0.89 Y9.15 F3500.00
G1 X-0.81 Y9.02 F3500.00
G1 X-0.67 Y9.10 F3500.00
G1 X-0.47 Y9.21 F3500.00
G1 X-0.24 Y9.47 F3500.00
G1 X0.06 Y9.83 F3500.00
G1 X0.27 Y10.14 F3500.00
G1 X0.36 Y10.25 F3500.00
G1 X0.46 Y10.37 F3500.00
G1 X0.70 Y10.76 F3500.00
G1 X0.99 Y10.89 F3500.00
G1 X1.22 Y10.86 F3500.00
G1 X1.34 Y10.75 F3500.00
G1 X1.37 Y10.62 F3500.00
G1 X1.38 Y10.37 F3500.00
G1 X1.41 Y10.19 F3500.00
G1 X1.43 Y10.02 F3500.00
G1 X1.51 Y9.71 F3500.00
G1 X1.73 Y9.61 F3500.00
G1 X1.84 Y9.62 F3500.00
G1 X1.96 Y9.66 F3500.00
G1 X2.18 Y9.15 F3500.00
G1 X1.63 Y8.85 F3500.00
G1 X1.31 Y8.75 F3500.00
G1 X0.85 Y8.89 F3500.00
G1 X0.59 Y9.32 F3500.00
G1 X0.54 Y9.45 F3500.00
G1 X0.45 Y9.58 F3500.00
G1 X0.33 Y9.45 F3500.00
G1 X0.20 Y9.30 F3500.00
G1 X-0.11 Y8.94 F3500.00
G1 X-0.41 Y8.59 F3500.00
G1 X-0.81 Y8.26 F3500.00
G1 X-1.18 Y8.16 F3500.00
G1 X-1.59 Y8.31 F3500.00
G1 X-1.80 Y8.76 F3500.00
G1 X-1.86 Y9.21 F3500.00
G1 X-1.87 Y9.41 F3500.00
G1 X-1.90 Y9.65 F3500.00
G1 X-1.96 Y9.73 F3500.00
G1 X-1.99 Y9.72 F3500.00
G1 X-2.31 Y9.39 F3500.00
G1 X-2.37 Y9.29 F3500.00
G1 X-2.47 Y9.15 F3500.00
G1 X-2.55 Y9.36 F3500.00
G1 X-2.70 Y9.66 F3500.00
G1 X-2.70 Y9.66 F3500.00
M300 S50.00 (pen up)
G4 P150 (wait 150ms)

(Polyline consisting of 2 segments.)
G1 X1.96 Y9.66 F3500.00
M300 S30.00 (pen down)
G4 P150 (wait 150ms)
G1 X2.28 Y9.96 F3500.00
G1 X2.83 Y10.45 F3500.00
G1 X3.00 Y10.63 F3500.00
G1 X3.38 Y11.08 F3500.00
G1 X3.67 Y11.38 F3500.00
G1 X4.05 Y11.81 F3500.00
G1 X4.32 Y12.10 F3500.00
G1 X4.59 Y12.20 F3500.00
G1 X4.83 Y12.12 F3500.00
G1 X4.90 Y11.89 F3500.00
G1 X4.88 Y11.61 F3500.00
G1 X4.85 Y11.33 F3500.00
G1 X4.80 Y10.79 F3500.00
G1 X4.65 Y9.78 F3500.00
G1 X4.63 Y9.65 F3500.00
G1 X4.57 Y9.41 F3500.00
G1 X4.52 Y9.20 F3500.00
G1 X4.51 Y9.04 F3500.00
G1 X4.52 Y8.97 F3500.00
G1 X5.00 Y9.34 F3500.00
G1 X5.34 Y9.66 F3500.00
G1 X5.56 Y9.15 F3500.00
G1 X4.78 Y8.46 F3500.00
G1 X4.63 Y8.25 F3500.00
G1 X4.32 Y8.02 F3500.00
G1 X4.18 Y7.78 F3500.00
G1 X4.00 Y7.42 F3500.00
G1 X3.91 Y7.13 F3500.00
G1 X3.84 Y6.89 F3500.00
G1 X3.64 Y6.36 F3500.00
G1 X3.30 Y5.65 F3500.00
G1 X2.86 Y4.93 F3500.00
G1 X2.54 Y4.70 F3500.00
G1 X2.32 Y4.72 F3500.00
G1 X2.22 Y4.74 F3500.00
G1 X2.15 Y4.85 F3500.00
G1 X2.13 Y5.06 F3500.00
G1 X2.16 Y5.32 F3500.00
G1 X2.24 Y5.75 F3500.00
G1 X2.34 Y6.10 F3500.00
G1 X2.49 Y6.43 F3500.00
G1 X2.64 Y6.74 F3500.00
G1 X2.81 Y7.06 F3500.00
G1 X3.17 Y7.55 F3500.00
G1 X3.52 Y8.11 F3500.00
G1 X3.59 Y8.41 F3500.00
G1 X3.67 Y8.84 F3500.00
G1 X3.75 Y9.33 F3500.00
G1 X3.80 Y9.63 F3500.00
G1 X3.81 Y9.78 F3500.00
G1 X3.78 Y10.07 F3500.00
G1 X3.87 Y10.37 F3500.00
G1 X3.82 Y10.47 F3500.00
G1 X3.73 Y10.51 F3500.00
G1 X3.53 Y10.45 F3500.00
G1 X3.35 Y10.29 F3500.00
G1 X3.12 Y10.02 F3500.00
G1 X2.79 Y9.71 F3500.00
G1 X2.40 Y9.36 F3500.00
G1 X2.18 Y9.15 F3500.00
G1 X2.11 Y9.32 F3500.00
G1 X2.03 Y9.56 F3500.00
G1 X2.00 Y9.62 F3500.00
G1 X1.96 Y9.66 F3500.00
G1 X1.96 Y9.66 F3500.00
M300 S50.00 (pen up)
G4 P150 (wait 150ms)

(Polyline consisting of 2 segments.)
G1 X5.51 Y14.79 F3500.00
M300 S30.00 (pen down)
G4 P150 (wait 150ms)
G1 X5.70 Y14.74 F3500.00
G1 X5.76 Y14.58 F3500.00
G1 X5.72 Y14.31 F3500.00
G1 X5.59 Y13.96 F3500.00
G1 X5.46 Y13.67 F3500.00
G1 X5.20 Y13.43 F3500.00
G1 X4.87 Y13.28 F3500.00
G1 X4.62 Y13.30 F3500.00
G1 X4.46 Y13.36 F3500.00
G1 X4.38 Y13.50 F3500.00
G1 X4.34 Y13.76 F3500.00
G1 X4.79 Y14.41 F3500.00
G1 X5.51 Y14.79 F3500.00
G1 X5.51 Y14.79 F3500.00
M300 S50.00 (pen up)
G4 P150 (wait 150ms)

(Polyline consisting of 1 segments.)
G1 X5.52 Y9.91 F3500.00
M300 S30.00 (pen down)
G4 P150 (wait 150ms)
G1 X6.03 Y10.24 F3500.00
G1 X6.10 Y10.31 F3500.00
G1 X6.19 Y10.45 F3500.00
G1 X6.29 Y10.57 F3500.00
G1 X6.44 Y10.66 F3500.00
G1 X6.57 Y10.80 F3500.00
G1 X6.78 Y10.99 F3500.00
G1 X6.94 Y11.09 F3500.00
G1 X7.14 Y11.26 F3500.00
G1 X8.04 Y11.98 F3500.00
G1 X8.68 Y12.22 F3500.00
G1 X8.90 Y12.15 F3500.00
G1 X8.97 Y11.98 F3500.00
G1 X8.93 Y11.78 F3500.00
G1 X8.79 Y11.63 F3500.00
G1 X8.49 Y11.41 F3500.00
G1 X8.27 Y11.16 F3500.00
G1 X7.97 Y10.90 F3500.00
G1 X7.88 Y10.77 F3500.00
G1 X7.77 Y10.67 F3500.00
G1 X7.56 Y10.51 F3500.00
G1 X7.32 Y10.19 F3500.00
G1 X6.82 Y9.72 F3500.00
G1 X6.68 Y9.55 F3500.00
G1 X6.42 Y9.18 F3500.00
G1 X6.45 Y9.13 F3500.00
G1 X6.71 Y9.26 F3500.00
G1 X7.01 Y9.51 F3500.00
G1 X7.32 Y9.79 F3500.00
G1 X7.49 Y9.93 F3500.00
G1 X7.57 Y9.98 F3500.00
G1 X7.66 Y10.03 F3500.00
G1 X8.14 Y10.49 F3500.00
G1 X8.55 Y10.63 F3500.00
G1 X8.73 Y10.54 F3500.00
G1 X8.81 Y10.27 F3500.00
G1 X8.79 Y9.73 F3500.00
G1 X8.89 Y9.42 F3500.00
G1 X9.16 Y9.27 F3500.00
G1 X9.26 Y9.30 F3500.00
G1 X9.36 Y9.37 F3500.00
G1 X9.44 Y9.47 F3500.00
G1 X9.51 Y9.56 F3500.00
G1 X9.58 Y9.60 F3500.00
G1 X9.66 Y9.66 F3500.00
G1 X9.79 Y9.37 F3500.00
G1 X9.87 Y9.15 F3500.00
G1 X9.61 Y8.91 F3500.00
G1 X9.35 Y8.67 F3500.00
G1 X9.02 Y8.48 F3500.00
G1 X8.71 Y8.42 F3500.00
G1 X8.15 Y8.62 F3500.00
G1 X7.92 Y9.25 F3500.00
G1 X7.91 Y9.35 F3500.00
G1 X7.85 Y9.46 F3500.00
G1 X7.79 Y9.40 F3500.00
G1 X7.71 Y9.32 F3500.00
G1 X7.53 Y9.18 F3500.00
G1 X7.27 Y8.98 F3500.00
G1 X6.94 Y8.65 F3500.00
G1 X6.75 Y8.47 F3500.00
G1 X6.49 Y8.28 F3500.00
G1 X6.16 Y8.09 F3500.00
G1 X5.96 Y7.99 F3500.00
G1 X5.83 Y7.95 F3500.00
G1 X5.44 Y8.08 F3500.00
G1 X5.31 Y8.49 F3500.00
G1 X5.37 Y8.77 F3500.00
G1 X5.56 Y9.04 F3500.00
G1 X5.58 Y9.15 F3500.00
G1 X5.56 Y9.21 F3500.00
G1 X5.53 Y9.28 F3500.00
G1 X5.45 Y9.45 F3500.00
G1 X5.36 Y9.66 F3500.00
G1 X5.42 Y9.75 F3500.00
G1 X5.52 Y9.91 F3500.00
G1 X5.52 Y9.91 F3500.00
M300 S50.00 (pen up)
G4 P150 (wait 150ms)

(Polyline consisting of 1 segments.)
G1 X9.64 Y9.66 F3500.00
M300 S30.00 (pen down)
G4 P150 (wait 150ms)
G1 X10.03 Y9.98 F3500.00
G1 X10.43 Y10.30 F3500.00
G1 X10.65 Y10.54 F3500.00
G1 X10.97 Y10.87 F3500.00
G1 X11.18 Y11.03 F3500.00
G1 X11.40 Y11.08 F3500.00
G1 X11.61 Y11.02 F3500.00
G1 X11.68 Y10.81 F3500.00
G1 X11.52 Y10.11 F3500.00
G1 X11.35 Y9.37 F3500.00
G1 X11.37 Y9.30 F3500.00
G1 X11.43 Y9.27 F3500.00
G1 X11.46 Y9.28 F3500.00
G1 X11.71 Y9.45 F3500.00
G1 X12.03 Y9.70 F3500.00
G1 X12.39 Y10.05 F3500.00
G1 X12.90 Y10.55 F3500.00
G1 X13.15 Y10.78 F3500.00
G1 X13.47 Y11.11 F3500.00
G1 X13.68 Y11.27 F3500.00
G1 X14.00 Y11.32 F3500.00
G1 X14.19 Y11.27 F3500.00
G1 X14.26 Y11.13 F3500.00
G1 X14.25 Y11.06 F3500.00
G1 X14.24 Y10.99 F3500.00
G1 X14.12 Y10.58 F3500.00
G1 X13.93 Y10.01 F3500.00
G1 X13.73 Y9.52 F3500.00
G1 X13.51 Y8.89 F3500.00
G1 X13.55 Y8.84 F3500.00
G1 X13.90 Y9.10 F3500.00
G1 X14.48 Y9.66 F3500.00
G1 X14.71 Y9.15 F3500.00
G1 X14.60 Y9.04 F3500.00
G1 X14.43 Y8.91 F3500.00
G1 X13.40 Y8.07 F3500.00
G1 X12.72 Y7.25 F3500.00
G1 X12.09 Y6.26 F3500.00
G1 X11.73 Y5.72 F3500.00
G1 X11.00 Y4.97 F3500.00
G1 X10.32 Y4.73 F3500.00
G1 X10.14 Y4.78 F3500.00
G1 X10.09 Y4.93 F3500.00
G1 X10.12 Y5.07 F3500.00
G1 X10.22 Y5.25 F3500.00
G1 X10.41 Y5.56 F3500.00
G1 X10.58 Y5.70 F3500.00
G1 X10.60 Y5.80 F3500.00
G1 X10.67 Y5.87 F3500.00
G1 X10.77 Y5.96 F3500.00
G1 X10.98 Y6.29 F3500.00
G1 X11.45 Y6.88 F3500.00
G1 X11.87 Y7.36 F3500.00
G1 X12.20 Y7.71 F3500.00
G1 X12.25 Y7.81 F3500.00
G1 X12.29 Y7.94 F3500.00
G1 X12.45 Y8.29 F3500.00
G1 X12.66 Y8.77 F3500.00
G1 X12.75 Y9.14 F3500.00
G1 X12.83 Y9.59 F3500.00
G1 X12.81 Y9.65 F3500.00
G1 X12.79 Y9.75 F3500.00
G1 X12.56 Y9.60 F3500.00
G1 X12.30 Y9.37 F3500.00
G1 X11.93 Y8.97 F3500.00
G1 X11.55 Y8.73 F3500.00
G1 X11.24 Y8.38 F3500.00
G1 X10.79 Y8.26 F3500.00
G1 X10.51 Y8.35 F3500.00
G1 X10.42 Y8.61 F3500.00
G1 X10.43 Y8.70 F3500.00
G1 X10.45 Y8.81 F3500.00
G1 X10.40 Y8.97 F3500.00
G1 X10.43 Y9.18 F3500.00
G1 X10.41 Y9.43 F3500.00
G1 X10.33 Y9.51 F3500.00
G1 X10.31 Y9.50 F3500.00
G1 X10.13 Y9.37 F3500.00
G1 X9.86 Y9.15 F3500.00
G1 X9.79 Y9.32 F3500.00
G1 X9.71 Y9.56 F3500.00
G1 X9.68 Y9.62 F3500.00
G1 X9.64 Y9.66 F3500.00
G1 X9.64 Y9.66 F3500.00
M300 S50.00 (pen up)
G4 P150 (wait 150ms)

(Polyline consisting of 1 segments.)
G1 X14.66 Y9.91 F3500.00
M300 S30.00 (pen down)
G4 P150 (wait 150ms)
G1 X15.16 Y10.24 F3500.00
G1 X15.23 Y10.31 F3500.00
G1 X15.32 Y10.45 F3500.00
G1 X15.43 Y10.57 F3500.00
G1 X15.57 Y10.66 F3500.00
G1 X15.70 Y10.80 F3500.00
G1 X15.92 Y10.99 F3500.00
G1 X16.07 Y11.09 F3500.00
G1 X16.28 Y11.26 F3500.00
G1 X17.17 Y11.98 F3500.00
G1 X17.82 Y12.22 F3500.00
G1 X18.03 Y12.15 F3500.00
G1 X18.10 Y11.98 F3500.00
G1 X18.06 Y11.78 F3500.00
G1 X17.93 Y11.63 F3500.00
G1 X17.63 Y11.41 F3500.00
G1 X17.41 Y11.16 F3500.00
G1 X17.11 Y10.90 F3500.00
G1 X17.01 Y10.77 F3500.00
G1 X16.91 Y10.67 F3500.00
G1 X16.70 Y10.51 F3500.00
G1 X16.46 Y10.19 F3500.00
G1 X15.95 Y9.72 F3500.00
G1 X15.81 Y9.55 F3500.00
G1 X15.55 Y9.18 F3500.00
G1 X15.59 Y9.13 F3500.00
G1 X15.85 Y9.26 F3500.00
G1 X16.14 Y9.51 F3500.00
G1 X16.46 Y9.79 F3500.00
G1 X16.63 Y9.93 F3500.00
G1 X16.70 Y9.98 F3500.00
G1 X16.79 Y10.03 F3500.00
G1 X17.28 Y10.49 F3500.00
G1 X17.69 Y10.63 F3500.00
G1 X17.87 Y10.54 F3500.00
G1 X17.94 Y10.27 F3500.00
G1 X17.93 Y9.73 F3500.00
G1 X18.03 Y9.42 F3500.00
G1 X18.30 Y9.27 F3500.00
G1 X18.40 Y9.30 F3500.00
G1 X18.50 Y9.37 F3500.00
G1 X18.57 Y9.47 F3500.00
G1 X18.65 Y9.56 F3500.00
G1 X18.71 Y9.60 F3500.00
G1 X18.79 Y9.66 F3500.00
G1 X18.92 Y9.37 F3500.00
G1 X19.01 Y9.15 F3500.00
G1 X18.75 Y8.91 F3500.00
G1 X18.48 Y8.67 F3500.00
G1 X18.16 Y8.48 F3500.00
G1 X17.85 Y8.42 F3500.00
G1 X17.29 Y8.62 F3500.00
G1 X17.06 Y9.25 F3500.00
G1 X17.04 Y9.35 F3500.00
G1 X16.98 Y9.46 F3500.00
G1 X16.92 Y9.40 F3500.00
G1 X16.84 Y9.32 F3500.00
G1 X16.66 Y9.18 F3500.00
G1 X16.41 Y8.98 F3500.00
G1 X16.08 Y8.65 F3500.00
G1 X15.89 Y8.47 F3500.00
G1 X15.63 Y8.28 F3500.00
G1 X15.29 Y8.09 F3500.00
G1 X15.09 Y7.99 F3500.00
G1 X14.97 Y7.95 F3500.00
G1 X14.57 Y8.08 F3500.00
G1 X14.44 Y8.49 F3500.00
G1 X14.51 Y8.77 F3500.00
G1 X14.70 Y9.04 F3500.00
G1 X14.71 Y9.15 F3500.00
G1 X14.70 Y9.21 F3500.00
G1 X14.66 Y9.28 F3500.00
G1 X14.59 Y9.45 F3500.00
G1 X14.49 Y9.66 F3500.00
G1 X14.56 Y9.75 F3500.00
G1 X14.66 Y9.91 F3500.00
G1 X14.66 Y9.91 F3500.00
M300 S50.00 (pen up)
G4 P150 (wait 150ms)

(Polyline consisting of 1 segments.)
G1 X-12.33 Y-4.55 F3500.00
M300 S30.00 (pen down)
G4 P150 (wait 150ms)
G1 X-12.11 Y-5.06 F3500.00
G1 X-12.41 Y-5.26 F3500.00
G1 X-12.84 Y-5.43 F3500.00
G1 X-13.00 Y-5.47 F3500.00
G1 X-13.21 Y-5.53 F3500.00
G1 X-13.60 Y-5.56 F3500.00
G1 X-14.13 Y-5.62 F3500.00
G1 X-14.91 Y-6.15 F3500.00
G1 X-15.48 Y-6.40 F3500.00
G1 X-15.56 Y-6.48 F3500.00
G1 X-16.02 Y-6.61 F3500.00
G1 X-16.66 Y-6.70 F3500.00
G1 X-16.80 Y-6.62 F3500.00
G1 X-16.96 Y-6.44 F3500.00
G1 X-16.82 Y-6.28 F3500.00
G1 X-16.64 Y-6.05 F3500.00
G1 X-16.44 Y-5.86 F3500.00
G1 X-16.14 Y-5.75 F3500.00
G1 X-15.73 Y-5.64 F3500.00
G1 X-15.60 Y-5.55 F3500.00
G1 X-15.42 Y-5.43 F3500.00
G1 X-15.15 Y-5.26 F3500.00
G1 X-14.84 Y-4.99 F3500.00
G1 X-14.48 Y-4.64 F3500.00
G1 X-14.32 Y-4.48 F3500.00
G1 X-14.22 Y-4.34 F3500.00
G1 X-14.10 Y-4.22 F3500.00
G1 X-13.90 Y-3.88 F3500.00
G1 X-13.62 Y-3.41 F3500.00
G1 X-13.55 Y-3.33 F3500.00
G1 X-13.46 Y-3.22 F3500.00
G1 X-13.29 Y-2.83 F3500.00
G1 X-13.24 Y-2.20 F3500.00
G1 X-13.38 Y-1.66 F3500.00
G1 X-13.78 Y-1.07 F3500.00
G1 X-14.27 Y-0.62 F3500.00
G1 X-14.79 Y-0.29 F3500.00
G1 X-15.17 Y-0.09 F3500.00
G1 X-15.49 Y0.09 F3500.00
G1 X-15.69 Y-0.68 F3500.00
G1 X-15.96 Y-1.87 F3500.00
G1 X-16.21 Y-3.14 F3500.00
G1 X-16.29 Y-3.79 F3500.00
G1 X-16.35 Y-4.07 F3500.00
G1 X-16.57 Y-5.16 F3500.00
G1 X-16.91 Y-5.72 F3500.00
G1 X-17.13 Y-5.90 F3500.00
G1 X-17.20 Y-5.84 F3500.00
G1 X-17.27 Y-5.64 F3500.00
G1 X-17.20 Y-5.32 F3500.00
G1 X-17.23 Y-5.23 F3500.00
G1 X-17.17 Y-4.50 F3500.00
G1 X-17.11 Y-3.76 F3500.00
G1 X-17.03 Y-2.99 F3500.00
G1 X-16.90 Y-2.32 F3500.00
G1 X-16.97 Y-2.04 F3500.00
G1 X-16.90 Y-1.78 F3500.00
G1 X-16.85 Y-1.42 F3500.00
G1 X-16.81 Y-1.01 F3500.00
G1 X-16.77 Y-0.79 F3500.00
G1 X-16.72 Y-0.61 F3500.00
G1 X-16.66 Y-0.34 F3500.00
G1 X-16.47 Y-0.11 F3500.00
G1 X-16.24 Y0.16 F3500.00
G1 X-16.06 Y0.21 F3500.00
G1 X-16.01 Y0.29 F3500.00
G1 X-16.07 Y0.35 F3500.00
G1 X-16.27 Y0.40 F3500.00
G1 X-16.41 Y0.41 F3500.00
G1 X-16.57 Y0.46 F3500.00
G1 X-17.03 Y0.68 F3500.00
G1 X-17.25 Y0.81 F3500.00
G1 X-17.33 Y0.95 F3500.00
G1 X-17.27 Y1.17 F3500.00
G1 X-17.34 Y1.36 F3500.00
G1 X-17.36 Y1.47 F3500.00
G1 X-17.34 Y1.55 F3500.00
G1 X-17.27 Y1.57 F3500.00
G1 X-16.99 Y1.52 F3500.00
G1 X-16.88 Y1.56 F3500.00
G1 X-16.77 Y1.60 F3500.00
G1 X-16.53 Y1.58 F3500.00
G1 X-16.37 Y1.54 F3500.00
G1 X-16.20 Y1.46 F3500.00
G1 X-16.04 Y1.38 F3500.00
G1 X-15.86 Y1.41 F3500.00
G1 X-15.80 Y1.40 F3500.00
G1 X-15.64 Y1.32 F3500.00
G1 X-15.42 Y1.25 F3500.00
G1 X-15.19 Y1.20 F3500.00
G1 X-15.04 Y1.15 F3500.00
G1 X-14.00 Y0.58 F3500.00
G1 X-13.27 Y0.05 F3500.00
G1 X-12.59 Y-0.79 F3500.00
G1 X-12.37 Y-1.73 F3500.00
G1 X-12.84 Y-3.38 F3500.00
G1 X-14.22 Y-5.21 F3500.00
G1 X-14.01 Y-5.14 F3500.00
G1 X-13.71 Y-5.04 F3500.00
G1 X-12.99 Y-4.88 F3500.00
G1 X-12.59 Y-4.73 F3500.00
G1 X-12.33 Y-4.55 F3500.00
G1 X-12.33 Y-4.55 F3500.00
M300 S50.00 (pen up)
G4 P150 (wait 150ms)

(Polyline consisting of 1 segments.)
G1 X-12.17 Y-4.30 F3500.00
M300 S30.00 (pen down)
G4 P150 (wait 150ms)
G1 X-11.66 Y-3.97 F3500.00
G1 X-11.59 Y-3.90 F3500.00
G1 X-11.50 Y-3.76 F3500.00
G1 X-11.40 Y-3.64 F3500.00
G1 X-11.25 Y-3.55 F3500.00
G1 X-11.12 Y-3.41 F3500.00
G1 X-10.91 Y-3.22 F3500.00
G1 X-10.75 Y-3.12 F3500.00
G1 X-10.55 Y-2.95 F3500.00
G1 X-9.65 Y-2.23 F3500.00
G1 X-9.01 Y-2.00 F3500.00
G1 X-8.79 Y-2.06 F3500.00
G1 X-8.72 Y-2.23 F3500.00
G1 X-8.76 Y-2.43 F3500.00
G1 X-8.89 Y-2.58 F3500.00
G1 X-9.20 Y-2.81 F3500.00
G1 X-9.41 Y-3.05 F3500.00
G1 X-9.72 Y-3.31 F3500.00
G1 X-9.81 Y-3.44 F3500.00
G1 X-9.92 Y-3.54 F3500.00
G1 X-10.13 Y-3.71 F3500.00
G1 X-10.37 Y-4.02 F3500.00
G1 X-10.87 Y-4.49 F3500.00
G1 X-11.01 Y-4.67 F3500.00
G1 X-11.27 Y-5.03 F3500.00
G1 X-11.23 Y-5.08 F3500.00
G1 X-10.98 Y-4.95 F3500.00
G1 X-10.68 Y-4.70 F3500.00
G1 X-10.37 Y-4.42 F3500.00
G1 X-10.20 Y-4.28 F3500.00
G1 X-10.12 Y-4.23 F3500.00
G1 X-10.03 Y-4.18 F3500.00
G1 X-9.55 Y-3.72 F3500.00
G1 X-9.13 Y-3.58 F3500.00
G1 X-8.96 Y-3.67 F3500.00
G1 X-8.88 Y-3.94 F3500.00
G1 X-8.89 Y-4.48 F3500.00
G1 X-8.80 Y-4.80 F3500.00
G1 X-8.52 Y-4.94 F3500.00
G1 X-8.43 Y-4.91 F3500.00
G1 X-8.33 Y-4.84 F3500.00
G1 X-8.25 Y-4.74 F3500.00
G1 X-8.18 Y-4.65 F3500.00
G1 X-8.11 Y-4.62 F3500.00
G1 X-8.03 Y-4.55 F3500.00
G1 X-7.90 Y-4.84 F3500.00
G1 X-7.82 Y-5.06 F3500.00
G1 X-8.07 Y-5.30 F3500.00
G1 X-8.34 Y-5.54 F3500.00
G1 X-8.66 Y-5.73 F3500.00
G1 X-8.98 Y-5.79 F3500.00
G1 X-9.54 Y-5.59 F3500.00
G1 X-9.77 Y-4.97 F3500.00
G1 X-9.78 Y-4.86 F3500.00
G1 X-9.84 Y-4.75 F3500.00
G1 X-9.90 Y-4.81 F3500.00
G1 X-9.98 Y-4.89 F3500.00
G1 X-10.16 Y-5.03 F3500.00
G1 X-10.42 Y-5.23 F3500.00
G1 X-10.75 Y-5.56 F3500.00
G1 X-10.94 Y-5.74 F3500.00
G1 X-11.20 Y-5.93 F3500.00
G1 X-11.53 Y-6.13 F3500.00
G1 X-11.73 Y-6.22 F3500.00
G1 X-11.86 Y-6.26 F3500.00
G1 X-12.25 Y-6.13 F3500.00
G1 X-12.38 Y-5.73 F3500.00
G1 X-12.32 Y-5.44 F3500.00
G1 X-12.12 Y-5.18 F3500.00
G1 X-12.11 Y-5.06 F3500.00
G1 X-12.13 Y-5.00 F3500.00
G1 X-12.16 Y-4.93 F3500.00
G1 X-12.24 Y-4.76 F3500.00
G1 X-12.33 Y-4.55 F3500.00
G1 X-12.27 Y-4.46 F3500.00
G1 X-12.17 Y-4.30 F3500.00
G1 X-12.17 Y-4.30 F3500.00
M300 S50.00 (pen up)
G4 P150 (wait 150ms)

(Polyline consisting of 2 segments.)
G1 X-8.05 Y-4.55 F3500.00
M300 S30.00 (pen down)
G4 P150 (wait 150ms)
G1 X-7.86 Y-4.38 F3500.00
G1 X-7.75 Y-4.28 F3500.00
G1 X-7.61 Y-4.12 F3500.00
G1 X-7.55 Y-3.98 F3500.00
G1 X-7.43 Y-3.51 F3500.00
G1 X-7.25 Y-2.85 F3500.00
G1 X-7.14 Y-2.57 F3500.00
G1 X-7.02 Y-2.19 F3500.00
G1 X-6.85 Y-1.68 F3500.00
G1 X-6.63 Y-1.27 F3500.00
G1 X-6.55 Y-1.15 F3500.00
G1 X-6.47 Y-0.97 F3500.00
G1 X-6.36 Y-0.77 F3500.00
G1 X-6.20 Y-0.49 F3500.00
G1 X-5.80 Y0.09 F3500.00
G1 X-5.51 Y0.47 F3500.00
G1 X-5.11 Y0.92 F3500.00
G1 X-4.70 Y1.30 F3500.00
G1 X-4.37 Y1.54 F3500.00
G1 X-4.14 Y1.61 F3500.00
G1 X-4.03 Y1.49 F3500.00
G1 X-3.95 Y1.50 F3500.00
G1 X-3.74 Y1.39 F3500.00
G1 X-3.67 Y1.04 F3500.00
G1 X-3.69 Y0.91 F3500.00
G1 X-3.73 Y0.71 F3500.00
G1 X-3.79 Y0.61 F3500.00
G1 X-3.82 Y0.49 F3500.00
G1 X-3.83 Y0.36 F3500.00
G1 X-3.86 Y0.26 F3500.00
G1 X-4.02 Y-0.07 F3500.00
G1 X-4.20 Y-0.51 F3500.00
G1 X-4.34 Y-0.76 F3500.00
G1 X-4.54 Y-1.11 F3500.00
G1 X-4.68 Y-1.37 F3500.00
G1 X-4.90 Y-1.73 F3500.00
G1 X-5.02 Y-1.90 F3500.00
G1 X-5.21 Y-2.12 F3500.00
G1 X-5.40 Y-2.42 F3500.00
G1 X-5.83 Y-2.98 F3500.00
G1 X-6.17 Y-3.41 F3500.00
G1 X-6.67 Y-4.02 F3500.00
G1 X-6.83 Y-4.76 F3500.00
G1 X-6.88 Y-5.32 F3500.00
G1 X-6.87 Y-5.46 F3500.00
G1 X-6.81 Y-5.51 F3500.00
G1 X-6.73 Y-5.42 F3500.00
G1 X-6.62 Y-5.30 F3500.00
G1 X-6.37 Y-4.95 F3500.00
G1 X-6.04 Y-4.29 F3500.00
G1 X-5.75 Y-3.73 F3500.00
G1 X-5.54 Y-3.49 F3500.00
G1 X-5.35 Y-3.41 F3500.00
G1 X-5.24 Y-3.37 F3500.00
G1 X-5.17 Y-3.36 F3500.00
G1 X-5.04 Y-3.44 F3500.00
G1 X-4.94 Y-3.69 F3500.00
G1 X-4.82 Y-4.12 F3500.00
G1 X-4.77 Y-4.30 F3500.00
G1 X-4.59 Y-4.55 F3500.00
G1 X-4.34 Y-4.63 F3500.00
G1 X-3.93 Y-4.55 F3500.00
G1 X-3.83 Y-4.79 F3500.00
G1 X-3.71 Y-5.06 F3500.00
G1 X-3.98 Y-5.23 F3500.00
G1 X-4.25 Y-5.40 F3500.00
G1 X-4.51 Y-5.47 F3500.00
G1 X-4.90 Y-5.50 F3500.00
G1 X-5.43 Y-5.18 F3500.00
G1 X-5.66 Y-4.87 F3500.00
G1 X-5.69 Y-4.87 F3500.00
G1 X-5.88 Y-5.09 F3500.00
G1 X-6.07 Y-5.34 F3500.00
G1 X-6.25 Y-5.63 F3500.00
G1 X-6.52 Y-6.00 F3500.00
G1 X-6.84 Y-6.33 F3500.00
G1 X-7.08 Y-6.44 F3500.00
G1 X-7.41 Y-6.39 F3500.00
G1 X-7.56 Y-6.25 F3500.00
G1 X-7.66 Y-5.71 F3500.00
G1 X-7.70 Y-5.32 F3500.00
G1 X-7.69 Y-5.23 F3500.00
G1 X-7.68 Y-5.16 F3500.00
G1 X-7.64 Y-5.00 F3500.00
G1 X-7.65 Y-4.96 F3500.00
G1 X-7.70 Y-4.95 F3500.00
G1 X-7.75 Y-5.00 F3500.00
G1 X-7.83 Y-5.06 F3500.00
G1 X-7.90 Y-4.86 F3500.00
G1 X-8.05 Y-4.55 F3500.00
G1 X-8.05 Y-4.55 F3500.00
M300 S50.00 (pen up)
G4 P150 (wait 150ms)

(Polyline consisting of 2 segments.)
G1 X-4.41 Y0.58 F3500.00
M300 S30.00 (pen down)
G4 P150 (wait 150ms)
G1 X-4.66 Y0.36 F3500.00
G1 X-5.13 Y-0.29 F3500.00
G1 X-5.45 Y-0.76 F3500.00
G1 X-5.75 Y-1.22 F3500.00
G1 X-5.85 Y-1.36 F3500.00
G1 X-5.88 Y-1.50 F3500.00
G1 X-6.10 Y-2.08 F3500.00
G1 X-6.27 Y-2.53 F3500.00
G1 X-6.34 Y-2.72 F3500.00
G1 X-6.31 Y-2.75 F3500.00
G1 X-6.12 Y-2.54 F3500.00
G1 X-5.85 Y-2.21 F3500.00
G1 X-5.49 Y-1.73 F3500.00
G1 X-5.08 Y-1.09 F3500.00
G1 X-4.62 Y-0.19 F3500.00
G1 X-4.41 Y0.26 F3500.00
G1 X-4.34 Y0.49 F3500.00
G1 X-4.35 Y0.56 F3500.00
G1 X-4.41 Y0.58 F3500.00
G1 X-4.41 Y0.58 F3500.00
M300 S50.00 (pen up)
G4 P150 (wait 150ms)

(Polyline consisting of 1 segments.)
G1 X-3.75 Y-4.30 F3500.00
M300 S30.00 (pen down)
G4 P150 (wait 150ms)
G1 X-3.24 Y-3.97 F3500.00
G1 X-3.17 Y-3.90 F3500.00
G1 X-3.08 Y-3.76 F3500.00
G1 X-2.98 Y-3.64 F3500.00
G1 X-2.83 Y-3.55 F3500.00
G1 X-2.70 Y-3.41 F3500.00
G1 X-2.49 Y-3.22 F3500.00
G1 X-2.33 Y-3.12 F3500.00
G1 X-2.13 Y-2.95 F3500.00
G1 X-1.23 Y-2.23 F3500.00
G1 X-0.59 Y-2.00 F3500.00
G1 X-0.37 Y-2.06 F3500.00
G1 X-0.30 Y-2.23 F3500.00
G1 X-0.34 Y-2.43 F3500.00
G1 X-0.48 Y-2.58 F3500.00
G1 X-0.78 Y-2.81 F3500.00
G1 X-1.00 Y-3.05 F3500.00
G1 X-1.30 Y-3.31 F3500.00
G1 X-1.39 Y-3.44 F3500.00
G1 X-1.50 Y-3.54 F3500.00
G1 X-1.71 Y-3.71 F3500.00
G1 X-1.95 Y-4.02 F3500.00
G1 X-2.45 Y-4.49 F3500.00
G1 X-2.59 Y-4.67 F3500.00
G1 X-2.85 Y-5.03 F3500.00
G1 X-2.82 Y-5.08 F3500.00
G1 X-2.56 Y-4.95 F3500.00
G1 X-2.26 Y-4.70 F3500.00
G1 X-1.95 Y-4.42 F3500.00
G1 X-1.78 Y-4.28 F3500.00
G1 X-1.70 Y-4.23 F3500.00
G1 X-1.61 Y-4.18 F3500.00
G1 X-1.13 Y-3.72 F3500.00
G1 X-0.72 Y-3.58 F3500.00
G1 X-0.54 Y-3.67 F3500.00
G1 X-0.46 Y-3.94 F3500.00
G1 X-0.48 Y-4.48 F3500.00
G1 X-0.38 Y-4.80 F3500.00
G1 X-0.11 Y-4.94 F3500.00
G1 X-0.01 Y-4.91 F3500.00
G1 X0.09 Y-4.84 F3500.00
G1 X0.17 Y-4.74 F3500.00
G1 X0.24 Y-4.65 F3500.00
G1 X0.31 Y-4.62 F3500.00
G1 X0.39 Y-4.55 F3500.00
G1 X0.52 Y-4.84 F3500.00
G1 X0.60 Y-5.06 F3500.00
G1 X0.34 Y-5.30 F3500.00
G1 X0.08 Y-5.54 F3500.00
G1 X-0.25 Y-5.73 F3500.00
G1 X-0.56 Y-5.79 F3500.00
G1 X-1.12 Y-5.59 F3500.00
G1 X-1.35 Y-4.97 F3500.00
G1 X-1.36 Y-4.86 F3500.00
G1 X-1.42 Y-4.75 F3500.00
G1 X-1.48 Y-4.81 F3500.00
G1 X-1.56 Y-4.89 F3500.00
G1 X-1.74 Y-5.03 F3500.00
G1 X-2.00 Y-5.23 F3500.00
G1 X-2.33 Y-5.56 F3500.00
G1 X-2.52 Y-5.74 F3500.00
G1 X-2.78 Y-5.93 F3500.00
G1 X-3.11 Y-6.13 F3500.00
G1 X-3.31 Y-6.22 F3500.00
G1 X-3.44 Y-6.26 F3500.00
G1 X-3.83 Y-6.13 F3500.00
G1 X-3.96 Y-5.73 F3500.00
G1 X-3.90 Y-5.44 F3500.00
G1 X-3.71 Y-5.18 F3500.00
G1 X-3.69 Y-5.06 F3500.00
G1 X-3.71 Y-5.00 F3500.00
G1 X-3.74 Y-4.93 F3500.00
G1 X-3.82 Y-4.76 F3500.00
G1 X-3.91 Y-4.55 F3500.00
G1 X-3.85 Y-4.46 F3500.00
G1 X-3.75 Y-4.30 F3500.00
G1 X-3.75 Y-4.30 F3500.00
M300 S50.00 (pen up)
G4 P150 (wait 150ms)

(Polyline consisting of 1 segments.)
G1 X0.37 Y-4.55 F3500.00
M300 S30.00 (pen down)
G4 P150 (wait 150ms)
G1 X0.45 Y-4.45 F3500.00
G1 X0.55 Y-4.30 F3500.00
G1 X1.03 Y-3.76 F3500.00
G1 X1.47 Y-3.33 F3500.00
G1 X1.72 Y-3.07 F3500.00
G1 X2.08 Y-2.71 F3500.00
G1 X2.52 Y-2.53 F3500.00
G1 X2.74 Y-2.63 F3500.00
G1 X2.82 Y-2.91 F3500.00
G1 X2.79 Y-3.24 F3500.00
G1 X2.72 Y-3.61 F3500.00
G1 X2.64 Y-3.90 F3500.00
G1 X2.65 Y-3.96 F3500.00
G1 X2.71 Y-3.98 F3500.00
G1 X3.03 Y-3.70 F3500.00
G1 X3.67 Y-3.03 F3500.00
G1 X4.25 Y-2.49 F3500.00
G1 X4.66 Y-2.31 F3500.00
G1 X4.90 Y-2.43 F3500.00
G1 X4.97 Y-2.78 F3500.00
G1 X4.92 Y-3.43 F3500.00
G1 X4.75 Y-4.03 F3500.00
G1 X4.72 Y-4.13 F3500.00
G1 X4.71 Y-4.20 F3500.00
G1 X4.78 Y-4.27 F3500.00
G1 X4.88 Y-4.16 F3500.00
G1 X5.02 Y-3.98 F3500.00
G1 X5.28 Y-3.77 F3500.00
G1 X5.56 Y-3.55 F3500.00
G1 X5.88 Y-3.36 F3500.00
G1 X6.20 Y-3.30 F3500.00
G1 X6.25 Y-3.32 F3500.00
G1 X6.31 Y-3.36 F3500.00
G1 X6.52 Y-3.56 F3500.00
G1 X6.64 Y-3.72 F3500.00
G1 X7.03 Y-4.38 F3500.00
G1 X7.33 Y-4.60 F3500.00
G1 X7.38 Y-4.59 F3500.00
G1 X7.44 Y-4.55 F3500.00
G1 X7.66 Y-5.06 F3500.00
G1 X7.30 Y-5.30 F3500.00
G1 X7.03 Y-5.38 F3500.00
G1 X6.23 Y-4.88 F3500.00
G1 X5.60 Y-4.38 F3500.00
G1 X4.63 Y-5.23 F3500.00
G1 X3.78 Y-6.09 F3500.00
G1 X3.56 Y-6.07 F3500.00
G1 X3.49 Y-6.00 F3500.00
G1 X3.47 Y-5.88 F3500.00
G1 X3.50 Y-5.66 F3500.00
G1 X3.59 Y-5.34 F3500.00
G1 X3.71 Y-4.97 F3500.00
G1 X3.76 Y-4.77 F3500.00
G1 X3.81 Y-4.49 F3500.00
G1 X3.89 Y-3.93 F3500.00
G1 X3.86 Y-3.83 F3500.00
G1 X3.78 Y-3.80 F3500.00
G1 X3.69 Y-3.82 F3500.00
G1 X3.58 Y-3.91 F3500.00
G1 X3.43 Y-4.05 F3500.00
G1 X3.17 Y-4.25 F3500.00
G1 X2.77 Y-4.71 F3500.00
G1 X2.36 Y-5.17 F3500.00
G1 X1.82 Y-5.75 F3500.00
G1 X1.57 Y-5.93 F3500.00
G1 X1.31 Y-5.89 F3500.00
G1 X1.23 Y-5.78 F3500.00
G1 X1.43 Y-5.01 F3500.00
G1 X1.62 Y-4.19 F3500.00
G1 X1.60 Y-4.13 F3500.00
G1 X1.53 Y-4.11 F3500.00
G1 X1.37 Y-4.18 F3500.00
G1 X1.16 Y-4.42 F3500.00
G1 X0.97 Y-4.62 F3500.00
G1 X0.70 Y-4.89 F3500.00
G1 X0.66 Y-4.98 F3500.00
G1 X0.59 Y-5.06 F3500.00
G1 X0.52 Y-4.85 F3500.00
G1 X0.37 Y-4.55 F3500.00
G1 X0.37 Y-4.55 F3500.00
M300 S50.00 (pen up)
G4 P150 (wait 150ms)


(end of print job)
M300 S50.00 (pen up)
G4 P150 (wait 150ms)
M300 S255 (turn off servo)
G1 X0 Y0 F3500.00
G1 Z0.00 F150.00 (go up to finished level)
G1 X0.00 Y0.00 F3500.00 (go home)
M18 (drives off)
