(Scribbled version of C:\Users\ICT\AppData\Local\Temp\ink_ext_XXXXXX.svgN5EKI2 @ 3500.00)
( C:\Program Files (x86)\Inkscape\share\extensions\unicorn.py --tab="plotter_setup" --pen-up-angle=50 --pen-down-angle=30 --start-delay=150 --stop-delay=150 --xy-feedrate=3500 --z-feedrate=150 --z-height=0 --finished-height=0 --register-pen=true --x-home=0 --y-home=0 --num-copies=1 --continuous=false --pause-on-layer-change=false C:\Users\ICT\AppData\Local\Temp\ink_ext_XXXXXX.svgN5EKI2 )
G21 (metric ftw)
G90 (absolute mode)
G92 X0.00 Y0.00 Z0.00 (you are here)

M300 S30 (pen down)
G4 P150 (wait 150ms)
M300 S50 (pen up)
G4 P150 (wait 150ms)
M18 (disengage drives)
M01 (Was registration test successful?)
M17 (engage drives if YES, and continue)

(Polyline consisting of 8 segments.)
G1 X5.23 Y-1.20 F3500.00
M300 S30.00 (pen down)
G4 P150 (wait 150ms)
G1 X5.45 Y-0.89 F3500.00
G1 X5.82 Y-0.10 F3500.00
G1 X5.87 Y1.52 F3500.00
G1 X5.94 Y3.48 F3500.00
G1 X6.28 Y4.67 F3500.00
G1 X6.34 Y5.02 F3500.00
G1 X4.71 Y4.73 F3500.00
G1 X3.26 Y5.08 F3500.00
G1 X1.81 Y5.80 F3500.00
G1 X0.59 Y6.74 F3500.00
G1 X-0.17 Y7.76 F3500.00
G1 X-0.30 Y8.07 F3500.00
G1 X-0.06 Y7.98 F3500.00
G1 X0.85 Y7.97 F3500.00
G1 X2.58 Y9.03 F3500.00
G1 X3.77 Y9.71 F3500.00
G1 X4.71 Y9.93 F3500.00
G1 X5.19 Y9.96 F3500.00
G1 X4.83 Y10.37 F3500.00
G1 X4.10 Y11.57 F3500.00
G1 X3.63 Y13.33 F3500.00
G1 X3.70 Y16.77 F3500.00
G1 X4.20 Y17.95 F3500.00
G1 X4.36 Y17.52 F3500.00
G1 X4.68 Y16.89 F3500.00
G1 X5.47 Y16.31 F3500.00
G1 X7.39 Y14.99 F3500.00
G1 X8.30 Y13.85 F3500.00
G1 X8.45 Y13.46 F3500.00
G1 X8.61 Y14.14 F3500.00
G1 X9.00 Y15.25 F3500.00
G1 X11.01 Y17.46 F3500.00
G1 X12.60 Y18.37 F3500.00
G1 X13.93 Y18.73 F3500.00
G1 X14.18 Y18.65 F3500.00
G1 X13.97 Y18.34 F3500.00
G1 X13.56 Y17.65 F3500.00
G1 X13.53 Y16.13 F3500.00
G1 X13.47 Y14.09 F3500.00
G1 X13.12 Y12.80 F3500.00
G1 X12.88 Y12.31 F3500.00
G1 X13.31 Y12.50 F3500.00
G1 X14.51 Y12.69 F3500.00
G1 X15.93 Y12.42 F3500.00
G1 X18.31 Y11.10 F3500.00
G1 X19.68 Y9.48 F3500.00
G1 X19.50 Y9.42 F3500.00
G1 X18.66 Y9.49 F3500.00
G1 X17.44 Y8.78 F3500.00
G1 X15.76 Y7.76 F3500.00
G1 X14.54 Y7.46 F3500.00
G1 X14.13 Y7.47 F3500.00
G1 X14.54 Y7.00 F3500.00
G1 X15.36 Y5.49 F3500.00
G1 X15.77 Y3.28 F3500.00
G1 X15.69 Y1.15 F3500.00
G1 X15.23 Y-0.39 F3500.00
G1 X15.09 Y-0.61 F3500.00
G1 X15.00 Y-0.19 F3500.00
G1 X14.60 Y0.54 F3500.00
G1 X13.44 Y1.37 F3500.00
G1 X11.92 Y2.43 F3500.00
G1 X11.14 Y3.33 F3500.00
G1 X10.89 Y3.81 F3500.00
G1 X10.75 Y3.21 F3500.00
G1 X10.32 Y2.11 F3500.00
G1 X9.54 Y1.05 F3500.00
G1 X8.00 Y-0.28 F3500.00
G1 X6.33 Y-1.10 F3500.00
G1 X5.23 Y-1.20 F3500.00
G1 X5.23 Y-1.20 F3500.00
M300 S50.00 (pen up)
G4 P150 (wait 150ms)

(Polyline consisting of 8 segments.)
G1 X6.60 Y-0.58 F3500.00
M300 S30.00 (pen down)
G4 P150 (wait 150ms)
G1 X8.17 Y0.44 F3500.00
G1 X9.45 Y1.76 F3500.00
G1 X10.00 Y2.95 F3500.00
G1 X10.19 Y4.95 F3500.00
G1 X10.46 Y6.85 F3500.00
G1 X11.38 Y7.77 F3500.00
G1 X11.52 Y7.82 F3500.00
G1 X11.32 Y7.57 F3500.00
G1 X10.78 Y6.40 F3500.00
G1 X10.93 Y5.00 F3500.00
G1 X12.11 Y2.99 F3500.00
G1 X14.06 Y1.50 F3500.00
G1 X14.83 Y0.86 F3500.00
G1 X15.20 Y0.48 F3500.00
G1 X15.39 Y2.54 F3500.00
G1 X14.83 Y5.36 F3500.00
G1 X14.17 Y6.32 F3500.00
G1 X13.21 Y7.13 F3500.00
G1 X11.92 Y8.07 F3500.00
G1 X11.48 Y8.71 F3500.00
G1 X11.33 Y9.68 F3500.00
G1 X11.34 Y10.18 F3500.00
G1 X11.42 Y9.80 F3500.00
G1 X11.76 Y8.97 F3500.00
G1 X12.44 Y8.38 F3500.00
G1 X13.83 Y8.05 F3500.00
G1 X15.63 Y8.28 F3500.00
G1 X17.48 Y9.33 F3500.00
G1 X18.55 Y9.85 F3500.00
G1 X18.98 Y9.91 F3500.00
G1 X18.66 Y10.29 F3500.00
G1 X16.87 Y11.47 F3500.00
G1 X14.83 Y12.10 F3500.00
G1 X12.72 Y11.30 F3500.00
G1 X11.10 Y10.46 F3500.00
G1 X10.03 Y10.72 F3500.00
G1 X9.66 Y10.96 F3500.00
G1 X10.82 Y10.87 F3500.00
G1 X11.77 Y11.56 F3500.00
G1 X12.84 Y13.54 F3500.00
G1 X13.13 Y16.17 F3500.00
G1 X13.26 Y17.73 F3500.00
G1 X13.40 Y18.23 F3500.00
G1 X11.69 Y17.37 F3500.00
G1 X10.20 Y16.03 F3500.00
G1 X9.41 Y14.64 F3500.00
G1 X9.20 Y12.75 F3500.00
G1 X9.10 Y11.02 F3500.00
G1 X8.19 Y9.81 F3500.00
G1 X7.94 Y9.67 F3500.00
G1 X8.15 Y9.98 F3500.00
G1 X8.62 Y10.97 F3500.00
G1 X8.49 Y12.09 F3500.00
G1 X7.37 Y14.25 F3500.00
G1 X5.15 Y16.00 F3500.00
G1 X4.44 Y16.64 F3500.00
G1 X4.17 Y17.00 F3500.00
G1 X4.01 Y16.39 F3500.00
G1 X4.15 Y13.14 F3500.00
G1 X4.84 Y11.45 F3500.00
G1 X6.45 Y10.06 F3500.00
G1 X7.56 Y9.23 F3500.00
G1 X8.02 Y7.66 F3500.00
G1 X8.01 Y7.27 F3500.00
G1 X7.86 Y7.78 F3500.00
G1 X7.09 Y8.93 F3500.00
G1 X5.63 Y9.40 F3500.00
G1 X3.86 Y9.16 F3500.00
G1 X1.97 Y8.11 F3500.00
G1 X0.90 Y7.59 F3500.00
G1 X0.46 Y7.46 F3500.00
G1 X2.10 Y6.17 F3500.00
G1 X4.02 Y5.42 F3500.00
G1 X5.61 Y5.54 F3500.00
G1 X6.91 Y6.24 F3500.00
G1 X8.07 Y6.90 F3500.00
G1 X8.69 Y7.00 F3500.00
G1 X9.77 Y6.52 F3500.00
G1 X9.14 Y6.54 F3500.00
G1 X8.14 Y6.34 F3500.00
G1 X6.82 Y4.64 F3500.00
G1 X6.40 Y3.20 F3500.00
G1 X6.24 Y1.18 F3500.00
G1 X6.06 Y-0.55 F3500.00
G1 X6.02 Y-0.79 F3500.00
G1 X6.60 Y-0.58 F3500.00
G1 X6.60 Y-0.58 F3500.00
M300 S50.00 (pen up)
G4 P150 (wait 150ms)

(Polyline consisting of 8 segments.)
G1 X7.70 Y1.31 F3500.00
M300 S30.00 (pen down)
G4 P150 (wait 150ms)
G1 X7.80 Y1.58 F3500.00
G1 X7.97 Y2.92 F3500.00
G1 X8.26 Y4.55 F3500.00
G1 X8.75 Y5.19 F3500.00
G1 X9.43 Y5.56 F3500.00
G1 X9.55 Y5.53 F3500.00
G1 X9.23 Y5.12 F3500.00
G1 X8.63 Y4.22 F3500.00
G1 X8.38 Y3.16 F3500.00
G1 X7.86 Y1.47 F3500.00
G1 X7.70 Y1.31 F3500.00
G1 X7.70 Y1.31 F3500.00
M300 S50.00 (pen up)
G4 P150 (wait 150ms)

(Polyline consisting of 8 segments.)
G1 X13.84 Y3.25 F3500.00
M300 S30.00 (pen down)
G4 P150 (wait 150ms)
G1 X12.92 Y4.02 F3500.00
G1 X11.82 Y5.14 F3500.00
G1 X11.67 Y6.47 F3500.00
G1 X11.75 Y6.96 F3500.00
G1 X11.93 Y6.30 F3500.00
G1 X12.36 Y5.19 F3500.00
G1 X13.12 Y4.35 F3500.00
G1 X13.92 Y3.42 F3500.00
G1 X14.08 Y3.00 F3500.00
G1 X13.84 Y3.25 F3500.00
G1 X13.84 Y3.25 F3500.00
M300 S50.00 (pen up)
G4 P150 (wait 150ms)

(Polyline consisting of 8 segments.)
G1 X3.94 Y6.96 F3500.00
M300 S30.00 (pen down)
G4 P150 (wait 150ms)
G1 X4.94 Y7.47 F3500.00
G1 X6.30 Y7.93 F3500.00
G1 X7.47 Y7.38 F3500.00
G1 X7.80 Y7.05 F3500.00
G1 X7.22 Y7.24 F3500.00
G1 X6.11 Y7.40 F3500.00
G1 X5.02 Y7.08 F3500.00
G1 X3.92 Y6.79 F3500.00
G1 X3.43 Y6.80 F3500.00
G1 X3.94 Y6.96 F3500.00
G1 X3.94 Y6.96 F3500.00
M300 S50.00 (pen up)
G4 P150 (wait 150ms)

(Polyline consisting of 8 segments.)
G1 X12.95 Y9.18 F3500.00
M300 S30.00 (pen down)
G4 P150 (wait 150ms)
G1 X11.95 Y9.78 F3500.00
G1 X11.71 Y10.01 F3500.00
G1 X12.29 Y9.84 F3500.00
G1 X13.46 Y9.68 F3500.00
G1 X14.60 Y10.09 F3500.00
G1 X15.52 Y10.26 F3500.00
G1 X15.94 Y10.23 F3500.00
G1 X14.59 Y9.63 F3500.00
G1 X13.71 Y9.23 F3500.00
G1 X12.95 Y9.18 F3500.00
M300 S50.00 (pen up)
G4 P150 (wait 150ms)

(Polyline consisting of 8 segments.)
G1 X7.23 Y10.82 F3500.00
M300 S30.00 (pen down)
G4 P150 (wait 150ms)
G1 X6.81 Y11.92 F3500.00
G1 X6.10 Y12.70 F3500.00
G1 X5.31 Y13.57 F3500.00
G1 X5.08 Y14.09 F3500.00
G1 X5.28 Y13.90 F3500.00
G1 X6.14 Y13.16 F3500.00
G1 X7.30 Y12.02 F3500.00
G1 X7.49 Y10.64 F3500.00
G1 X7.41 Y10.12 F3500.00
G1 X7.23 Y10.82 F3500.00
G1 X7.23 Y10.82 F3500.00
M300 S50.00 (pen up)
G4 P150 (wait 150ms)

(Polyline consisting of 8 segments.)
G1 X10.14 Y12.06 F3500.00
M300 S30.00 (pen down)
G4 P150 (wait 150ms)
G1 X10.74 Y13.00 F3500.00
G1 X10.99 Y14.20 F3500.00
G1 X11.52 Y15.72 F3500.00
G1 X11.49 Y15.41 F3500.00
G1 X11.33 Y14.06 F3500.00
G1 X11.08 Y12.56 F3500.00
G1 X10.33 Y11.75 F3500.00
G1 X9.77 Y11.52 F3500.00
G1 X10.14 Y12.06 F3500.00
G1 X10.14 Y12.06 F3500.00
M300 S50.00 (pen up)
G4 P150 (wait 150ms)


(end of print job)
M300 S50.00 (pen up)
G4 P150 (wait 150ms)
M300 S255 (turn off servo)
G1 X0 Y0 F3500.00
G1 Z0.00 F150.00 (go up to finished level)
G1 X0.00 Y0.00 F3500.00 (go home)
M18 (drives off)
