(Scribbled version of C:\Users\ICT\AppData\Local\Temp\ink_ext_XXXXXX.svgC8IGI2 @ 3500.00)
( C:\Program Files (x86)\Inkscape\share\extensions\unicorn.py --tab="plotter_setup" --pen-up-angle=50 --pen-down-angle=30 --start-delay=150 --stop-delay=150 --xy-feedrate=3500 --z-feedrate=150 --z-height=0 --finished-height=0 --register-pen=true --x-home=0 --y-home=0 --num-copies=1 --continuous=false --pause-on-layer-change=false C:\Users\ICT\AppData\Local\Temp\ink_ext_XXXXXX.svgC8IGI2 )
G21 (metric ftw)
G90 (absolute mode)
G92 X0.00 Y0.00 Z0.00 (you are here)

M300 S30 (pen down)
G4 P150 (wait 150ms)
M300 S50 (pen up)
G4 P150 (wait 150ms)
M18 (disengage drives)
M01 (Was registration test successful?)
M17 (engage drives if YES, and continue)

(Polyline consisting of 8 segments.)
G1 X8.86 Y-1.99 F3500.00
M300 S30.00 (pen down)
G4 P150 (wait 150ms)
G1 X9.30 Y-1.35 F3500.00
G1 X10.02 Y0.22 F3500.00
G1 X10.09 Y3.45 F3500.00
G1 X10.17 Y7.37 F3500.00
G1 X10.83 Y9.75 F3500.00
G1 X11.13 Y10.41 F3500.00
G1 X10.94 Y10.43 F3500.00
G1 X9.37 Y9.92 F3500.00
G1 X7.68 Y9.84 F3500.00
G1 X4.78 Y10.52 F3500.00
G1 X1.86 Y11.93 F3500.00
G1 X-0.61 Y13.79 F3500.00
G1 X-2.15 Y15.82 F3500.00
G1 X-2.43 Y16.42 F3500.00
G1 X-1.95 Y16.26 F3500.00
G1 X-1.05 Y16.06 F3500.00
G1 X-0.12 Y16.25 F3500.00
G1 X3.32 Y18.39 F3500.00
G1 X5.69 Y19.76 F3500.00
G1 X7.56 Y20.22 F3500.00
G1 X8.53 Y20.28 F3500.00
G1 X7.79 Y21.08 F3500.00
G1 X6.30 Y23.47 F3500.00
G1 X5.32 Y26.96 F3500.00
G1 X5.16 Y30.50 F3500.00
G1 X5.39 Y33.83 F3500.00
G1 X6.36 Y36.18 F3500.00
G1 X6.70 Y35.33 F3500.00
G1 X7.34 Y34.08 F3500.00
G1 X8.93 Y32.94 F3500.00
G1 X12.81 Y30.34 F3500.00
G1 X13.98 Y29.17 F3500.00
G1 X14.66 Y28.08 F3500.00
G1 X14.97 Y27.30 F3500.00
G1 X15.28 Y28.66 F3500.00
G1 X16.03 Y30.88 F3500.00
G1 X17.77 Y33.18 F3500.00
G1 X19.99 Y35.32 F3500.00
G1 X23.15 Y37.16 F3500.00
G1 X25.82 Y37.88 F3500.00
G1 X26.31 Y37.72 F3500.00
G1 X25.91 Y37.11 F3500.00
G1 X25.11 Y35.72 F3500.00
G1 X25.07 Y32.70 F3500.00
G1 X25.01 Y28.63 F3500.00
G1 X24.33 Y26.05 F3500.00
G1 X23.87 Y25.08 F3500.00
G1 X24.72 Y25.46 F3500.00
G1 X27.12 Y25.86 F3500.00
G1 X29.97 Y25.34 F3500.00
G1 X32.47 Y24.23 F3500.00
G1 X34.76 Y22.74 F3500.00
G1 X36.54 Y21.10 F3500.00
G1 X37.53 Y19.52 F3500.00
G1 X37.54 Y19.28 F3500.00
G1 X37.17 Y19.39 F3500.00
G1 X36.34 Y19.62 F3500.00
G1 X35.49 Y19.52 F3500.00
G1 X33.06 Y18.10 F3500.00
G1 X29.73 Y16.04 F3500.00
G1 X27.29 Y15.43 F3500.00
G1 X26.48 Y15.43 F3500.00
G1 X27.31 Y14.51 F3500.00
G1 X28.25 Y13.19 F3500.00
G1 X28.99 Y11.51 F3500.00
G1 X29.86 Y7.11 F3500.00
G1 X29.74 Y2.86 F3500.00
G1 X29.38 Y1.02 F3500.00
G1 X28.86 Y-0.23 F3500.00
G1 X28.58 Y-0.66 F3500.00
G1 X28.39 Y0.17 F3500.00
G1 X27.58 Y1.63 F3500.00
G1 X25.22 Y3.27 F3500.00
G1 X22.16 Y5.35 F3500.00
G1 X20.59 Y7.14 F3500.00
G1 X20.07 Y8.08 F3500.00
G1 X19.80 Y6.90 F3500.00
G1 X18.98 Y4.69 F3500.00
G1 X17.43 Y2.58 F3500.00
G1 X14.37 Y-0.10 F3500.00
G1 X11.05 Y-1.77 F3500.00
G1 X9.54 Y-2.10 F3500.00
G1 X8.86 Y-1.99 F3500.00
G1 X8.86 Y-1.99 F3500.00
M300 S50.00 (pen up)
G4 P150 (wait 150ms)

(Polyline consisting of 8 segments.)
G1 X11.59 Y-0.72 F3500.00
M300 S30.00 (pen down)
G4 P150 (wait 150ms)
G1 X14.72 Y1.33 F3500.00
G1 X17.24 Y3.98 F3500.00
G1 X18.32 Y6.37 F3500.00
G1 X18.65 Y10.36 F3500.00
G1 X18.78 Y13.11 F3500.00
G1 X19.13 Y14.15 F3500.00
G1 X20.96 Y15.99 F3500.00
G1 X21.24 Y16.10 F3500.00
G1 X20.86 Y15.59 F3500.00
G1 X20.15 Y14.48 F3500.00
G1 X19.80 Y13.26 F3500.00
G1 X19.79 Y11.93 F3500.00
G1 X20.13 Y10.46 F3500.00
G1 X21.10 Y8.38 F3500.00
G1 X22.54 Y6.47 F3500.00
G1 X24.36 Y4.82 F3500.00
G1 X26.47 Y3.54 F3500.00
G1 X28.03 Y2.26 F3500.00
G1 X28.79 Y1.51 F3500.00
G1 X29.07 Y3.06 F3500.00
G1 X29.11 Y5.62 F3500.00
G1 X28.73 Y8.78 F3500.00
G1 X27.92 Y11.23 F3500.00
G1 X26.59 Y13.15 F3500.00
G1 X24.63 Y14.74 F3500.00
G1 X22.04 Y16.59 F3500.00
G1 X21.15 Y17.88 F3500.00
G1 X20.81 Y19.80 F3500.00
G1 X20.83 Y20.81 F3500.00
G1 X20.99 Y20.05 F3500.00
G1 X21.70 Y18.40 F3500.00
G1 X23.06 Y17.22 F3500.00
G1 X24.20 Y16.74 F3500.00
G1 X25.85 Y16.59 F3500.00
G1 X27.74 Y16.66 F3500.00
G1 X29.45 Y17.07 F3500.00
G1 X31.18 Y17.88 F3500.00
G1 X33.14 Y19.18 F3500.00
G1 X35.26 Y20.24 F3500.00
G1 X36.12 Y20.37 F3500.00
G1 X35.48 Y21.12 F3500.00
G1 X33.99 Y22.31 F3500.00
G1 X31.86 Y23.46 F3500.00
G1 X29.60 Y24.33 F3500.00
G1 X27.76 Y24.67 F3500.00
G1 X25.85 Y24.24 F3500.00
G1 X23.57 Y23.05 F3500.00
G1 X21.66 Y21.89 F3500.00
G1 X20.35 Y21.35 F3500.00
G1 X19.30 Y21.36 F3500.00
G1 X18.19 Y21.85 F3500.00
G1 X17.45 Y22.33 F3500.00
G1 X18.71 Y22.08 F3500.00
G1 X19.77 Y22.18 F3500.00
G1 X20.72 Y22.66 F3500.00
G1 X21.66 Y23.55 F3500.00
G1 X22.89 Y25.36 F3500.00
G1 X23.75 Y27.51 F3500.00
G1 X24.21 Y29.99 F3500.00
G1 X24.28 Y32.77 F3500.00
G1 X24.26 Y34.71 F3500.00
G1 X24.50 Y35.88 F3500.00
G1 X24.77 Y36.88 F3500.00
G1 X23.47 Y36.42 F3500.00
G1 X21.37 Y35.15 F3500.00
G1 X18.42 Y32.45 F3500.00
G1 X17.46 Y31.07 F3500.00
G1 X16.85 Y29.67 F3500.00
G1 X16.49 Y25.90 F3500.00
G1 X16.33 Y22.45 F3500.00
G1 X15.67 Y21.13 F3500.00
G1 X14.53 Y20.02 F3500.00
G1 X14.03 Y19.74 F3500.00
G1 X14.45 Y20.36 F3500.00
G1 X15.36 Y22.33 F3500.00
G1 X15.07 Y24.57 F3500.00
G1 X14.18 Y26.85 F3500.00
G1 X12.79 Y28.86 F3500.00
G1 X10.85 Y30.65 F3500.00
G1 X8.30 Y32.31 F3500.00
G1 X6.87 Y33.58 F3500.00
G1 X6.32 Y34.29 F3500.00
G1 X6.01 Y33.07 F3500.00
G1 X5.92 Y30.00 F3500.00
G1 X6.36 Y26.59 F3500.00
G1 X6.93 Y24.73 F3500.00
G1 X7.79 Y23.23 F3500.00
G1 X9.11 Y21.89 F3500.00
G1 X11.05 Y20.50 F3500.00
G1 X13.28 Y18.86 F3500.00
G1 X13.96 Y17.51 F3500.00
G1 X14.24 Y15.72 F3500.00
G1 X14.23 Y14.96 F3500.00
G1 X13.92 Y15.96 F3500.00
G1 X13.30 Y17.28 F3500.00
G1 X12.34 Y18.25 F3500.00
G1 X11.05 Y18.88 F3500.00
G1 X9.42 Y19.16 F3500.00
G1 X7.64 Y19.10 F3500.00
G1 X5.88 Y18.66 F3500.00
G1 X4.07 Y17.81 F3500.00
G1 X2.12 Y16.54 F3500.00
G1 X0.94 Y15.79 F3500.00
G1 X-0.02 Y15.49 F3500.00
G1 X-0.89 Y15.22 F3500.00
G1 X0.21 Y14.12 F3500.00
G1 X2.42 Y12.66 F3500.00
G1 X4.45 Y11.72 F3500.00
G1 X6.28 Y11.21 F3500.00
G1 X7.95 Y11.13 F3500.00
G1 X9.46 Y11.47 F3500.00
G1 X12.05 Y12.88 F3500.00
G1 X14.37 Y14.22 F3500.00
G1 X15.59 Y14.41 F3500.00
G1 X17.77 Y13.48 F3500.00
G1 X16.51 Y13.51 F3500.00
G1 X15.34 Y13.49 F3500.00
G1 X14.51 Y13.09 F3500.00
G1 X13.06 Y11.68 F3500.00
G1 X11.91 Y9.70 F3500.00
G1 X11.10 Y6.80 F3500.00
G1 X10.83 Y2.78 F3500.00
G1 X10.75 Y0.30 F3500.00
G1 X10.50 Y-0.67 F3500.00
G1 X10.42 Y-1.16 F3500.00
G1 X11.59 Y-0.72 F3500.00
G1 X11.59 Y-0.72 F3500.00
M300 S50.00 (pen up)
G4 P150 (wait 150ms)

(Polyline consisting of 8 segments.)
G1 X13.74 Y3.06 F3500.00
M300 S30.00 (pen down)
G4 P150 (wait 150ms)
G1 X13.94 Y3.60 F3500.00
G1 X14.25 Y6.28 F3500.00
G1 X14.41 Y8.31 F3500.00
G1 X14.80 Y9.52 F3500.00
G1 X15.76 Y10.81 F3500.00
G1 X17.12 Y11.56 F3500.00
G1 X17.35 Y11.50 F3500.00
G1 X16.73 Y10.69 F3500.00
G1 X15.54 Y8.87 F3500.00
G1 X15.06 Y6.76 F3500.00
G1 X14.69 Y4.76 F3500.00
G1 X14.06 Y3.39 F3500.00
G1 X13.74 Y3.06 F3500.00
G1 X13.74 Y3.06 F3500.00
M300 S50.00 (pen up)
G4 P150 (wait 150ms)

(Polyline consisting of 8 segments.)
G1 X25.98 Y7.02 F3500.00
M300 S30.00 (pen down)
G4 P150 (wait 150ms)
G1 X24.14 Y8.54 F3500.00
G1 X22.76 Y9.64 F3500.00
G1 X21.91 Y10.75 F3500.00
G1 X21.53 Y11.98 F3500.00
G1 X21.58 Y13.42 F3500.00
G1 X21.73 Y14.39 F3500.00
G1 X22.10 Y13.07 F3500.00
G1 X22.98 Y10.87 F3500.00
G1 X24.52 Y9.21 F3500.00
G1 X26.15 Y7.35 F3500.00
G1 X26.47 Y6.52 F3500.00
G1 X25.98 Y7.02 F3500.00
M300 S50.00 (pen up)
G4 P150 (wait 150ms)

(Polyline consisting of 8 segments.)
G1 X6.09 Y14.28 F3500.00
M300 S30.00 (pen down)
G4 P150 (wait 150ms)
G1 X8.08 Y15.30 F3500.00
G1 X9.47 Y16.03 F3500.00
G1 X10.78 Y16.25 F3500.00
G1 X12.01 Y15.96 F3500.00
G1 X13.15 Y15.16 F3500.00
G1 X13.82 Y14.51 F3500.00
G1 X12.64 Y14.89 F3500.00
G1 X10.42 Y15.18 F3500.00
G1 X8.25 Y14.52 F3500.00
G1 X7.09 Y14.05 F3500.00
G1 X6.06 Y13.93 F3500.00
G1 X5.08 Y13.95 F3500.00
G1 X6.09 Y14.28 F3500.00
G1 X6.09 Y14.28 F3500.00
M300 S50.00 (pen up)
G4 P150 (wait 150ms)

(Polyline consisting of 8 segments.)
G1 X24.07 Y18.83 F3500.00
M300 S30.00 (pen down)
G4 P150 (wait 150ms)
G1 X22.06 Y20.02 F3500.00
G1 X21.57 Y20.47 F3500.00
G1 X22.74 Y20.13 F3500.00
G1 X25.07 Y19.83 F3500.00
G1 X27.35 Y20.66 F3500.00
G1 X29.20 Y21.02 F3500.00
G1 X29.97 Y21.02 F3500.00
G1 X30.04 Y20.97 F3500.00
G1 X27.35 Y19.76 F3500.00
G1 X25.59 Y18.93 F3500.00
G1 X24.07 Y18.83 F3500.00
G1 X24.07 Y18.83 F3500.00
M300 S50.00 (pen up)
G4 P150 (wait 150ms)

(Polyline consisting of 8 segments.)
G1 X12.59 Y22.01 F3500.00
M300 S30.00 (pen down)
G4 P150 (wait 150ms)
G1 X11.72 Y24.21 F3500.00
G1 X10.28 Y25.76 F3500.00
G1 X8.69 Y27.48 F3500.00
G1 X8.21 Y28.50 F3500.00
G1 X8.61 Y28.13 F3500.00
G1 X10.36 Y26.68 F3500.00
G1 X11.78 Y25.57 F3500.00
G1 X12.69 Y24.41 F3500.00
G1 X13.12 Y23.13 F3500.00
G1 X13.12 Y21.67 F3500.00
G1 X12.97 Y20.62 F3500.00
G1 X12.59 Y22.01 F3500.00
M300 S50.00 (pen up)
G4 P150 (wait 150ms)

(Polyline consisting of 8 segments.)
G1 X18.38 Y24.54 F3500.00
M300 S30.00 (pen down)
G4 P150 (wait 150ms)
G1 X19.57 Y26.42 F3500.00
G1 X20.02 Y28.80 F3500.00
G1 X20.42 Y30.61 F3500.00
G1 X21.06 Y31.86 F3500.00
G1 X21.00 Y31.24 F3500.00
G1 X20.72 Y28.54 F3500.00
G1 X20.26 Y25.55 F3500.00
G1 X19.67 Y24.61 F3500.00
G1 X18.78 Y23.92 F3500.00
G1 X17.65 Y23.45 F3500.00
G1 X18.38 Y24.54 F3500.00
G1 X18.38 Y24.54 F3500.00
M300 S50.00 (pen up)
G4 P150 (wait 150ms)


(end of print job)
M300 S50.00 (pen up)
G4 P150 (wait 150ms)
M300 S255 (turn off servo)
G1 X0 Y0 F3500.00
G1 Z0.00 F150.00 (go up to finished level)
G1 X0.00 Y0.00 F3500.00 (go home)
M18 (drives off)
