(Scribbled version of C:\Users\ICT\AppData\Local\Temp\ink_ext_XXXXXX.svgY85AI2 @ 3500.00)
( C:\Program Files (x86)\Inkscape\share\extensions\unicorn.py --tab="plotter_setup" --pen-up-angle=50 --pen-down-angle=30 --start-delay=150 --stop-delay=150 --xy-feedrate=3500 --z-feedrate=150 --z-height=0 --finished-height=0 --register-pen=true --x-home=0 --y-home=0 --num-copies=1 --continuous=false --pause-on-layer-change=false C:\Users\ICT\AppData\Local\Temp\ink_ext_XXXXXX.svgY85AI2 )
G21 (metric ftw)
G90 (absolute mode)
G92 X0.00 Y0.00 Z0.00 (you are here)

M300 S30 (pen down)
G4 P150 (wait 150ms)
M300 S50 (pen up)
G4 P150 (wait 150ms)
M18 (disengage drives)
M01 (Was registration test successful?)
M17 (engage drives if YES, and continue)

(Polyline consisting of 47 segments.)
G1 X-2.65 Y10.61 F3500.00
M300 S30.00 (pen down)
G4 P150 (wait 150ms)
G1 X-2.65 Y19.80 F3500.00
G1 X-1.51 Y19.80 F3500.00
G1 X-0.37 Y19.80 F3500.00
G1 X-0.37 Y10.61 F3500.00
G1 X-0.37 Y1.42 F3500.00
G1 X-1.51 Y1.42 F3500.00
G1 X-2.65 Y1.42 F3500.00
G1 X-2.65 Y10.61 F3500.00
M300 S50.00 (pen up)
G4 P150 (wait 150ms)

(Polyline consisting of 47 segments.)
G1 X5.95 Y1.50 F3500.00
M300 S30.00 (pen down)
G4 P150 (wait 150ms)
G1 X7.08 Y2.46 F3500.00
G1 X10.36 Y5.75 F3500.00
G1 X9.86 Y5.70 F3500.00
G1 X9.33 Y5.72 F3500.00
G1 X9.40 Y8.18 F3500.00
G1 X10.49 Y9.29 F3500.00
G1 X10.85 Y9.53 F3500.00
G1 X10.44 Y9.47 F3500.00
G1 X9.46 Y9.10 F3500.00
G1 X8.74 Y8.53 F3500.00
G1 X8.34 Y7.76 F3500.00
G1 X8.48 Y5.49 F3500.00
G1 X8.42 Y5.26 F3500.00
G1 X8.04 Y5.71 F3500.00
G1 X7.73 Y6.71 F3500.00
G1 X7.81 Y7.85 F3500.00
G1 X8.54 Y9.01 F3500.00
G1 X9.80 Y9.82 F3500.00
G1 X10.66 Y10.06 F3500.00
G1 X10.71 Y10.21 F3500.00
G1 X10.38 Y11.00 F3500.00
G1 X9.76 Y14.04 F3500.00
G1 X9.95 Y15.18 F3500.00
G1 X10.46 Y16.27 F3500.00
G1 X11.67 Y17.57 F3500.00
G1 X12.98 Y18.33 F3500.00
G1 X13.80 Y18.63 F3500.00
G1 X15.03 Y18.88 F3500.00
G1 X16.46 Y18.45 F3500.00
G1 X17.69 Y17.59 F3500.00
G1 X18.53 Y16.41 F3500.00
G1 X18.82 Y14.49 F3500.00
G1 X18.58 Y12.71 F3500.00
G1 X18.31 Y11.18 F3500.00
G1 X18.16 Y9.80 F3500.00
G1 X18.19 Y8.81 F3500.00
G1 X18.37 Y6.59 F3500.00
G1 X18.25 Y6.03 F3500.00
G1 X18.14 Y6.64 F3500.00
G1 X18.14 Y7.27 F3500.00
G1 X17.88 Y6.75 F3500.00
G1 X17.34 Y6.22 F3500.00
G1 X17.18 Y6.19 F3500.00
G1 X17.46 Y6.10 F3500.00
G1 X18.27 Y5.53 F3500.00
G1 X18.88 Y4.19 F3500.00
G1 X19.47 Y2.51 F3500.00
G1 X19.74 Y1.84 F3500.00
G1 X19.83 Y1.69 F3500.00
G1 X19.84 Y1.50 F3500.00
G1 X19.48 Y1.98 F3500.00
G1 X19.19 Y2.34 F3500.00
G1 X19.05 Y1.93 F3500.00
G1 X18.43 Y1.92 F3500.00
G1 X17.74 Y2.38 F3500.00
G1 X17.57 Y3.00 F3500.00
G1 X17.65 Y3.45 F3500.00
G1 X18.26 Y3.19 F3500.00
G1 X18.41 Y2.91 F3500.00
G1 X18.71 Y2.84 F3500.00
G1 X19.01 Y2.92 F3500.00
G1 X18.81 Y3.81 F3500.00
G1 X18.46 Y4.87 F3500.00
G1 X18.17 Y4.95 F3500.00
G1 X17.61 Y5.23 F3500.00
G1 X17.26 Y5.49 F3500.00
G1 X17.25 Y5.54 F3500.00
G1 X17.22 Y5.89 F3500.00
G1 X16.66 Y6.01 F3500.00
G1 X16.12 Y6.01 F3500.00
G1 X16.16 Y5.63 F3500.00
G1 X16.05 Y5.09 F3500.00
G1 X15.60 Y4.93 F3500.00
G1 X13.80 Y5.80 F3500.00
G1 X12.77 Y6.13 F3500.00
G1 X12.48 Y5.99 F3500.00
G1 X12.67 Y5.58 F3500.00
G1 X12.41 Y5.10 F3500.00
G1 X11.89 Y4.93 F3500.00
G1 X11.39 Y5.15 F3500.00
G1 X11.13 Y5.53 F3500.00
G1 X11.24 Y5.89 F3500.00
G1 X11.04 Y5.89 F3500.00
G1 X9.31 Y4.30 F3500.00
G1 X8.17 Y3.07 F3500.00
G1 X8.20 Y2.82 F3500.00
G1 X8.51 Y2.54 F3500.00
G1 X8.33 Y2.03 F3500.00
G1 X8.16 Y1.73 F3500.00
G1 X7.86 Y1.66 F3500.00
G1 X7.41 Y1.79 F3500.00
G1 X7.31 Y2.18 F3500.00
G1 X7.27 Y2.33 F3500.00
G1 X6.66 Y1.91 F3500.00
G1 X5.95 Y1.50 F3500.00
G1 X5.95 Y1.50 F3500.00
M300 S50.00 (pen up)
G4 P150 (wait 150ms)

(Polyline consisting of 47 segments.)
G1 X8.14 Y2.05 F3500.00
M300 S30.00 (pen down)
G4 P150 (wait 150ms)
G1 X8.22 Y2.67 F3500.00
G1 X7.53 Y2.21 F3500.00
G1 X7.63 Y1.82 F3500.00
G1 X8.14 Y2.05 F3500.00
M300 S50.00 (pen up)
G4 P150 (wait 150ms)

(Polyline consisting of 47 segments.)
G1 X18.51 Y2.32 F3500.00
M300 S30.00 (pen down)
G4 P150 (wait 150ms)
G1 X17.83 Y3.22 F3500.00
G1 X17.92 Y2.38 F3500.00
G1 X18.49 Y2.08 F3500.00
G1 X18.51 Y2.32 F3500.00
M300 S50.00 (pen up)
G4 P150 (wait 150ms)

(Polyline consisting of 47 segments.)
G1 X19.01 Y2.32 F3500.00
M300 S30.00 (pen down)
G4 P150 (wait 150ms)
G1 X18.93 Y2.73 F3500.00
G1 X18.72 Y2.29 F3500.00
G1 X18.87 Y2.09 F3500.00
G1 X19.01 Y2.32 F3500.00
M300 S50.00 (pen up)
G4 P150 (wait 150ms)

(Polyline consisting of 47 segments.)
G1 X15.92 Y5.20 F3500.00
M300 S30.00 (pen down)
G4 P150 (wait 150ms)
G1 X15.92 Y5.98 F3500.00
G1 X15.77 Y6.61 F3500.00
G1 X15.28 Y6.98 F3500.00
G1 X14.29 Y7.39 F3500.00
G1 X13.74 Y7.66 F3500.00
G1 X13.70 Y7.38 F3500.00
G1 X13.54 Y6.71 F3500.00
G1 X13.39 Y6.29 F3500.00
G1 X15.14 Y5.24 F3500.00
G1 X15.67 Y5.05 F3500.00
G1 X15.92 Y5.20 F3500.00
G1 X15.92 Y5.20 F3500.00
M300 S50.00 (pen up)
G4 P150 (wait 150ms)

(Polyline consisting of 47 segments.)
G1 X17.97 Y5.58 F3500.00
M300 S30.00 (pen down)
G4 P150 (wait 150ms)
G1 X17.44 Y5.90 F3500.00
G1 X17.74 Y5.35 F3500.00
G1 X18.18 Y5.13 F3500.00
G1 X17.97 Y5.58 F3500.00
M300 S50.00 (pen up)
G4 P150 (wait 150ms)

(Polyline consisting of 47 segments.)
G1 X12.39 Y5.34 F3500.00
M300 S30.00 (pen down)
G4 P150 (wait 150ms)
G1 X12.43 Y5.74 F3500.00
G1 X11.92 Y5.93 F3500.00
G1 X11.45 Y5.85 F3500.00
G1 X11.32 Y5.58 F3500.00
G1 X11.74 Y5.16 F3500.00
G1 X12.39 Y5.34 F3500.00
M300 S50.00 (pen up)
G4 P150 (wait 150ms)

(Polyline consisting of 47 segments.)
G1 X8.11 Y6.40 F3500.00
M300 S30.00 (pen down)
G4 P150 (wait 150ms)
G1 X8.10 Y7.54 F3500.00
G1 X8.46 Y8.46 F3500.00
G1 X9.20 Y9.15 F3500.00
G1 X10.32 Y9.63 F3500.00
G1 X10.84 Y9.79 F3500.00
G1 X10.70 Y9.84 F3500.00
G1 X9.23 Y9.34 F3500.00
G1 X8.14 Y8.18 F3500.00
G1 X7.90 Y7.12 F3500.00
G1 X8.01 Y6.12 F3500.00
G1 X8.16 Y5.85 F3500.00
G1 X8.11 Y6.40 F3500.00
M300 S50.00 (pen up)
G4 P150 (wait 150ms)

(Polyline consisting of 47 segments.)
G1 X10.08 Y5.91 F3500.00
M300 S30.00 (pen down)
G4 P150 (wait 150ms)
G1 X10.70 Y6.09 F3500.00
G1 X11.00 Y6.19 F3500.00
G1 X12.35 Y6.96 F3500.00
G1 X12.66 Y7.33 F3500.00
G1 X12.30 Y7.72 F3500.00
G1 X11.53 Y9.10 F3500.00
G1 X11.43 Y9.39 F3500.00
G1 X11.03 Y9.37 F3500.00
G1 X10.35 Y8.95 F3500.00
G1 X9.48 Y7.87 F3500.00
G1 X9.43 Y7.58 F3500.00
G1 X9.55 Y5.80 F3500.00
G1 X10.08 Y5.91 F3500.00
G1 X10.08 Y5.91 F3500.00
M300 S50.00 (pen up)
G4 P150 (wait 150ms)

(Polyline consisting of 47 segments.)
G1 X13.24 Y6.60 F3500.00
M300 S30.00 (pen down)
G4 P150 (wait 150ms)
G1 X13.53 Y7.32 F3500.00
G1 X13.37 Y7.99 F3500.00
G1 X13.06 Y8.17 F3500.00
G1 X12.93 Y7.79 F3500.00
G1 X12.11 Y6.46 F3500.00
G1 X11.79 Y6.21 F3500.00
G1 X12.41 Y6.27 F3500.00
G1 X13.24 Y6.60 F3500.00
M300 S50.00 (pen up)
G4 P150 (wait 150ms)

(Polyline consisting of 47 segments.)
G1 X16.65 Y6.31 F3500.00
M300 S30.00 (pen down)
G4 P150 (wait 150ms)
G1 X16.21 Y6.53 F3500.00
G1 X16.01 Y6.64 F3500.00
G1 X15.98 Y6.46 F3500.00
G1 X16.42 Y6.25 F3500.00
G1 X16.65 Y6.31 F3500.00
M300 S50.00 (pen up)
G4 P150 (wait 150ms)

(Polyline consisting of 47 segments.)
G1 X17.70 Y6.74 F3500.00
M300 S30.00 (pen down)
G4 P150 (wait 150ms)
G1 X17.85 Y8.57 F3500.00
G1 X17.73 Y8.88 F3500.00
G1 X17.33 Y8.34 F3500.00
G1 X16.45 Y7.38 F3500.00
G1 X16.05 Y6.88 F3500.00
G1 X17.14 Y6.45 F3500.00
G1 X17.70 Y6.74 F3500.00
G1 X17.70 Y6.74 F3500.00
M300 S50.00 (pen up)
G4 P150 (wait 150ms)

(Polyline consisting of 47 segments.)
G1 X16.22 Y7.40 F3500.00
M300 S30.00 (pen down)
G4 P150 (wait 150ms)
G1 X17.73 Y9.29 F3500.00
G1 X17.95 Y9.73 F3500.00
G1 X17.65 Y9.73 F3500.00
G1 X16.95 Y9.88 F3500.00
G1 X16.54 Y10.03 F3500.00
G1 X16.54 Y9.64 F3500.00
G1 X16.54 Y9.24 F3500.00
G1 X16.03 Y9.24 F3500.00
G1 X15.59 Y9.28 F3500.00
G1 X15.48 Y9.52 F3500.00
G1 X15.58 Y9.62 F3500.00
G1 X16.40 Y9.44 F3500.00
G1 X16.23 Y10.16 F3500.00
G1 X15.34 Y9.98 F3500.00
G1 X13.93 Y9.52 F3500.00
G1 X12.90 Y9.59 F3500.00
G1 X12.29 Y10.14 F3500.00
G1 X12.07 Y11.02 F3500.00
G1 X12.23 Y12.04 F3500.00
G1 X12.34 Y12.64 F3500.00
G1 X12.26 Y12.66 F3500.00
G1 X11.99 Y12.19 F3500.00
G1 X11.74 Y11.45 F3500.00
G1 X12.17 Y9.44 F3500.00
G1 X13.47 Y8.14 F3500.00
G1 X15.15 Y7.18 F3500.00
G1 X16.22 Y7.40 F3500.00
G1 X16.22 Y7.40 F3500.00
M300 S50.00 (pen up)
G4 P150 (wait 150ms)

(Polyline consisting of 47 segments.)
G1 X14.90 Y8.43 F3500.00
M300 S30.00 (pen down)
G4 P150 (wait 150ms)
G1 X14.45 Y8.81 F3500.00
G1 X15.57 Y8.90 F3500.00
G1 X16.83 Y9.01 F3500.00
G1 X17.00 Y8.92 F3500.00
G1 X16.64 Y8.43 F3500.00
G1 X15.84 Y8.08 F3500.00
G1 X14.90 Y8.43 F3500.00
G1 X14.90 Y8.43 F3500.00
M300 S50.00 (pen up)
G4 P150 (wait 150ms)

(Polyline consisting of 47 segments.)
G1 X16.29 Y8.38 F3500.00
M300 S30.00 (pen down)
G4 P150 (wait 150ms)
G1 X16.36 Y8.48 F3500.00
G1 X15.73 Y8.41 F3500.00
G1 X15.51 Y8.31 F3500.00
G1 X16.29 Y8.38 F3500.00
M300 S50.00 (pen up)
G4 P150 (wait 150ms)

(Polyline consisting of 47 segments.)
G1 X12.46 Y8.79 F3500.00
M300 S30.00 (pen down)
G4 P150 (wait 150ms)
G1 X12.15 Y9.13 F3500.00
G1 X12.43 Y8.37 F3500.00
G1 X12.72 Y7.60 F3500.00
G1 X12.75 Y8.03 F3500.00
G1 X12.46 Y8.79 F3500.00
G1 X12.46 Y8.79 F3500.00
M300 S50.00 (pen up)
G4 P150 (wait 150ms)

(Polyline consisting of 47 segments.)
G1 X12.26 Y8.34 F3500.00
M300 S30.00 (pen down)
G4 P150 (wait 150ms)
G1 X11.52 Y11.76 F3500.00
G1 X11.50 Y12.01 F3500.00
G1 X11.40 Y11.83 F3500.00
G1 X11.48 Y10.04 F3500.00
G1 X12.16 Y8.16 F3500.00
G1 X12.40 Y7.90 F3500.00
G1 X12.26 Y8.34 F3500.00
G1 X12.26 Y8.34 F3500.00
M300 S50.00 (pen up)
G4 P150 (wait 150ms)

(Polyline consisting of 47 segments.)
G1 X17.94 Y9.05 F3500.00
M300 S30.00 (pen down)
G4 P150 (wait 150ms)
G1 X17.88 Y9.04 F3500.00
G1 X17.95 Y8.71 F3500.00
G1 X18.01 Y8.72 F3500.00
G1 X17.94 Y9.05 F3500.00
M300 S50.00 (pen up)
G4 P150 (wait 150ms)

(Polyline consisting of 47 segments.)
G1 X13.55 Y10.20 F3500.00
M300 S30.00 (pen down)
G4 P150 (wait 150ms)
G1 X13.83 Y10.36 F3500.00
G1 X13.44 Y10.57 F3500.00
G1 X12.92 Y10.98 F3500.00
G1 X13.06 Y11.38 F3500.00
G1 X13.68 Y11.70 F3500.00
G1 X14.40 Y11.63 F3500.00
G1 X14.94 Y11.13 F3500.00
G1 X14.98 Y10.74 F3500.00
G1 X14.34 Y10.48 F3500.00
G1 X13.88 Y10.36 F3500.00
G1 X14.19 Y10.22 F3500.00
G1 X14.57 Y9.97 F3500.00
G1 X15.64 Y10.39 F3500.00
G1 X16.76 Y10.18 F3500.00
G1 X17.12 Y10.01 F3500.00
G1 X17.24 Y10.17 F3500.00
G1 X17.49 Y10.46 F3500.00
G1 X17.84 Y10.41 F3500.00
G1 X18.09 Y10.36 F3500.00
G1 X18.15 Y11.27 F3500.00
G1 X18.15 Y12.11 F3500.00
G1 X17.79 Y12.17 F3500.00
G1 X16.96 Y12.02 F3500.00
G1 X15.54 Y11.88 F3500.00
G1 X14.52 Y12.06 F3500.00
G1 X14.22 Y12.43 F3500.00
G1 X13.95 Y12.71 F3500.00
G1 X13.32 Y12.75 F3500.00
G1 X12.93 Y12.57 F3500.00
G1 X12.86 Y12.49 F3500.00
G1 X12.49 Y12.15 F3500.00
G1 X12.25 Y11.26 F3500.00
G1 X12.46 Y10.27 F3500.00
G1 X12.88 Y9.75 F3500.00
G1 X13.20 Y9.85 F3500.00
G1 X13.55 Y10.20 F3500.00
G1 X13.55 Y10.20 F3500.00
M300 S50.00 (pen up)
G4 P150 (wait 150ms)

(Polyline consisting of 47 segments.)
G1 X16.55 Y10.72 F3500.00
M300 S30.00 (pen down)
G4 P150 (wait 150ms)
G1 X16.03 Y10.76 F3500.00
G1 X15.56 Y10.91 F3500.00
G1 X15.39 Y11.30 F3500.00
G1 X15.73 Y11.62 F3500.00
G1 X16.16 Y11.63 F3500.00
G1 X16.32 Y11.33 F3500.00
G1 X16.66 Y11.48 F3500.00
G1 X17.25 Y11.80 F3500.00
G1 X17.82 Y11.64 F3500.00
G1 X18.03 Y11.31 F3500.00
G1 X17.73 Y10.89 F3500.00
G1 X17.22 Y10.64 F3500.00
G1 X16.55 Y10.72 F3500.00
M300 S50.00 (pen up)
G4 P150 (wait 150ms)

(Polyline consisting of 47 segments.)
G1 X17.65 Y11.01 F3500.00
M300 S30.00 (pen down)
G4 P150 (wait 150ms)
G1 X17.80 Y11.42 F3500.00
G1 X17.30 Y11.59 F3500.00
G1 X17.22 Y11.43 F3500.00
G1 X17.19 Y11.00 F3500.00
G1 X16.72 Y11.07 F3500.00
G1 X16.52 Y11.12 F3500.00
G1 X17.11 Y10.83 F3500.00
G1 X17.65 Y11.01 F3500.00
G1 X17.65 Y11.01 F3500.00
M300 S50.00 (pen up)
G4 P150 (wait 150ms)

(Polyline consisting of 47 segments.)
G1 X16.12 Y11.11 F3500.00
M300 S30.00 (pen down)
G4 P150 (wait 150ms)
G1 X16.00 Y11.48 F3500.00
G1 X15.60 Y11.11 F3500.00
G1 X15.86 Y10.94 F3500.00
G1 X16.12 Y11.11 F3500.00
G1 X16.12 Y11.11 F3500.00
M300 S50.00 (pen up)
G4 P150 (wait 150ms)

(Polyline consisting of 47 segments.)
G1 X14.35 Y9.81 F3500.00
M300 S30.00 (pen down)
G4 P150 (wait 150ms)
G1 X13.90 Y10.06 F3500.00
G1 X13.39 Y9.70 F3500.00
G1 X14.35 Y9.81 F3500.00
M300 S50.00 (pen up)
G4 P150 (wait 150ms)

(Polyline consisting of 47 segments.)
G1 X11.25 Y10.36 F3500.00
M300 S30.00 (pen down)
G4 P150 (wait 150ms)
G1 X10.88 Y11.68 F3500.00
G1 X10.58 Y10.99 F3500.00
G1 X11.24 Y9.84 F3500.00
G1 X11.25 Y10.36 F3500.00
G1 X11.25 Y10.36 F3500.00
M300 S50.00 (pen up)
G4 P150 (wait 150ms)

(Polyline consisting of 47 segments.)
G1 X10.86 Y10.75 F3500.00
M300 S30.00 (pen down)
G4 P150 (wait 150ms)
G1 X10.86 Y11.34 F3500.00
G1 X10.98 Y10.99 F3500.00
G1 X10.95 Y10.63 F3500.00
G1 X10.86 Y10.75 F3500.00
G1 X10.86 Y10.75 F3500.00
M300 S50.00 (pen up)
G4 P150 (wait 150ms)

(Polyline consisting of 47 segments.)
G1 X17.92 Y10.09 F3500.00
M300 S30.00 (pen down)
G4 P150 (wait 150ms)
G1 X17.65 Y10.26 F3500.00
G1 X17.42 Y10.12 F3500.00
G1 X17.69 Y9.95 F3500.00
G1 X17.92 Y10.09 F3500.00
M300 S50.00 (pen up)
G4 P150 (wait 150ms)

(Polyline consisting of 47 segments.)
G1 X14.76 Y10.81 F3500.00
M300 S30.00 (pen down)
G4 P150 (wait 150ms)
G1 X14.73 Y11.15 F3500.00
G1 X14.33 Y11.48 F3500.00
G1 X13.77 Y11.54 F3500.00
G1 X13.26 Y11.30 F3500.00
G1 X13.09 Y11.02 F3500.00
G1 X13.36 Y10.77 F3500.00
G1 X14.76 Y10.81 F3500.00
G1 X14.76 Y10.81 F3500.00
M300 S50.00 (pen up)
G4 P150 (wait 150ms)

(Polyline consisting of 47 segments.)
G1 X13.70 Y11.00 F3500.00
M300 S30.00 (pen down)
G4 P150 (wait 150ms)
G1 X13.73 Y11.35 F3500.00
G1 X14.16 Y11.38 F3500.00
G1 X14.31 Y11.03 F3500.00
G1 X14.02 Y10.84 F3500.00
G1 X13.70 Y11.00 F3500.00
M300 S50.00 (pen up)
G4 P150 (wait 150ms)

(Polyline consisting of 47 segments.)
G1 X10.60 Y12.38 F3500.00
M300 S30.00 (pen down)
G4 P150 (wait 150ms)
G1 X10.53 Y14.33 F3500.00
G1 X10.90 Y16.35 F3500.00
G1 X11.01 Y16.68 F3500.00
G1 X10.70 Y16.30 F3500.00
G1 X9.99 Y14.47 F3500.00
G1 X10.18 Y12.21 F3500.00
G1 X10.39 Y11.60 F3500.00
G1 X10.55 Y11.68 F3500.00
G1 X10.60 Y12.38 F3500.00
M300 S50.00 (pen up)
G4 P150 (wait 150ms)

(Polyline consisting of 47 segments.)
G1 X11.38 Y12.22 F3500.00
M300 S30.00 (pen down)
G4 P150 (wait 150ms)
G1 X11.46 Y13.18 F3500.00
G1 X11.36 Y15.21 F3500.00
G1 X11.69 Y17.23 F3500.00
G1 X11.73 Y17.39 F3500.00
G1 X11.58 Y17.28 F3500.00
G1 X10.85 Y15.38 F3500.00
G1 X10.73 Y13.10 F3500.00
G1 X11.09 Y11.81 F3500.00
G1 X11.38 Y12.22 F3500.00
M300 S50.00 (pen up)
G4 P150 (wait 150ms)

(Polyline consisting of 47 segments.)
G1 X15.10 Y12.14 F3500.00
M300 S30.00 (pen down)
G4 P150 (wait 150ms)
G1 X14.38 Y12.58 F3500.00
G1 X14.67 Y12.14 F3500.00
G1 X15.10 Y12.14 F3500.00
G1 X15.10 Y12.14 F3500.00
M300 S50.00 (pen up)
G4 P150 (wait 150ms)

(Polyline consisting of 47 segments.)
G1 X16.83 Y12.15 F3500.00
M300 S30.00 (pen down)
G4 P150 (wait 150ms)
G1 X17.16 Y12.38 F3500.00
G1 X17.01 Y12.35 F3500.00
G1 X16.11 Y12.35 F3500.00
G1 X14.76 Y12.75 F3500.00
G1 X14.24 Y12.92 F3500.00
G1 X15.02 Y12.45 F3500.00
G1 X16.01 Y12.07 F3500.00
G1 X16.83 Y12.15 F3500.00
G1 X16.83 Y12.15 F3500.00
M300 S50.00 (pen up)
G4 P150 (wait 150ms)

(Polyline consisting of 47 segments.)
G1 X12.31 Y13.51 F3500.00
M300 S30.00 (pen down)
G4 P150 (wait 150ms)
G1 X12.57 Y14.35 F3500.00
G1 X12.68 Y13.89 F3500.00
G1 X12.70 Y13.53 F3500.00
G1 X12.74 Y13.65 F3500.00
G1 X12.88 Y14.00 F3500.00
G1 X12.98 Y13.91 F3500.00
G1 X13.11 Y13.62 F3500.00
G1 X13.22 Y13.51 F3500.00
G1 X13.20 Y13.79 F3500.00
G1 X13.15 Y14.16 F3500.00
G1 X13.62 Y13.72 F3500.00
G1 X15.32 Y12.72 F3500.00
G1 X14.90 Y13.07 F3500.00
G1 X13.77 Y14.11 F3500.00
G1 X12.77 Y15.48 F3500.00
G1 X12.20 Y16.83 F3500.00
G1 X11.91 Y17.33 F3500.00
G1 X11.53 Y14.59 F3500.00
G1 X11.83 Y12.74 F3500.00
G1 X11.87 Y12.49 F3500.00
G1 X11.83 Y12.20 F3500.00
G1 X11.98 Y12.47 F3500.00
G1 X12.31 Y13.51 F3500.00
G1 X12.31 Y13.51 F3500.00
M300 S50.00 (pen up)
G4 P150 (wait 150ms)

(Polyline consisting of 47 segments.)
G1 X18.10 Y12.55 F3500.00
M300 S30.00 (pen down)
G4 P150 (wait 150ms)
G1 X17.48 Y14.06 F3500.00
G1 X16.10 Y16.38 F3500.00
G1 X14.48 Y17.96 F3500.00
G1 X13.78 Y18.33 F3500.00
G1 X13.54 Y18.16 F3500.00
G1 X13.67 Y18.02 F3500.00
G1 X13.74 Y17.89 F3500.00
G1 X14.55 Y15.87 F3500.00
G1 X15.60 Y14.19 F3500.00
G1 X15.63 Y14.14 F3500.00
G1 X16.73 Y12.78 F3500.00
G1 X18.08 Y12.25 F3500.00
G1 X18.10 Y12.55 F3500.00
G1 X18.10 Y12.55 F3500.00
M300 S50.00 (pen up)
G4 P150 (wait 150ms)

(Polyline consisting of 47 segments.)
G1 X13.46 Y12.95 F3500.00
M300 S30.00 (pen down)
G4 P150 (wait 150ms)
G1 X13.75 Y12.90 F3500.00
G1 X13.49 Y13.02 F3500.00
G1 X13.08 Y13.28 F3500.00
G1 X12.72 Y12.97 F3500.00
G1 X12.51 Y12.51 F3500.00
G1 X12.84 Y12.75 F3500.00
G1 X13.46 Y12.95 F3500.00
M300 S50.00 (pen up)
G4 P150 (wait 150ms)

(Polyline consisting of 47 segments.)
G1 X16.20 Y13.01 F3500.00
M300 S30.00 (pen down)
G4 P150 (wait 150ms)
G1 X15.08 Y14.51 F3500.00
G1 X13.39 Y18.04 F3500.00
G1 X13.08 Y18.16 F3500.00
G1 X12.77 Y18.05 F3500.00
G1 X12.69 Y17.96 F3500.00
G1 X12.37 Y17.85 F3500.00
G1 X12.21 Y17.36 F3500.00
G1 X13.58 Y14.58 F3500.00
G1 X15.41 Y13.00 F3500.00
G1 X15.56 Y12.91 F3500.00
G1 X16.48 Y12.47 F3500.00
G1 X16.61 Y12.56 F3500.00
G1 X16.20 Y13.01 F3500.00
G1 X16.20 Y13.01 F3500.00
M300 S50.00 (pen up)
G4 P150 (wait 150ms)

(Polyline consisting of 47 segments.)
G1 X18.49 Y13.32 F3500.00
M300 S30.00 (pen down)
G4 P150 (wait 150ms)
G1 X17.90 Y15.40 F3500.00
G1 X17.12 Y16.76 F3500.00
G1 X17.02 Y16.82 F3500.00
G1 X16.48 Y17.77 F3500.00
G1 X15.67 Y18.52 F3500.00
G1 X14.87 Y18.70 F3500.00
G1 X14.12 Y18.46 F3500.00
G1 X14.61 Y18.12 F3500.00
G1 X16.42 Y16.23 F3500.00
G1 X17.91 Y13.54 F3500.00
G1 X18.37 Y12.70 F3500.00
G1 X18.49 Y13.32 F3500.00
G1 X18.49 Y13.32 F3500.00
M300 S50.00 (pen up)
G4 P150 (wait 150ms)

(Polyline consisting of 47 segments.)
G1 X13.80 Y13.27 F3500.00
M300 S30.00 (pen down)
G4 P150 (wait 150ms)
G1 X13.57 Y13.52 F3500.00
G1 X13.34 Y13.73 F3500.00
G1 X13.53 Y13.48 F3500.00
G1 X13.80 Y13.27 F3500.00
G1 X13.80 Y13.27 F3500.00
M300 S50.00 (pen up)
G4 P150 (wait 150ms)

(Polyline consisting of 47 segments.)
G1 X18.70 Y15.04 F3500.00
M300 S30.00 (pen down)
G4 P150 (wait 150ms)
G1 X18.17 Y16.72 F3500.00
G1 X17.07 Y17.88 F3500.00
G1 X16.33 Y18.31 F3500.00
G1 X16.46 Y18.06 F3500.00
G1 X17.12 Y17.23 F3500.00
G1 X17.56 Y16.81 F3500.00
G1 X17.60 Y16.76 F3500.00
G1 X17.93 Y15.76 F3500.00
G1 X18.47 Y14.32 F3500.00
G1 X18.60 Y13.89 F3500.00
G1 X18.71 Y14.00 F3500.00
G1 X18.70 Y15.04 F3500.00
G1 X18.70 Y15.04 F3500.00
M300 S50.00 (pen up)
G4 P150 (wait 150ms)

(Polyline consisting of 47 segments.)
G1 X9.15 Y1.53 F3500.00
M300 S30.00 (pen down)
G4 P150 (wait 150ms)
G1 X9.27 Y1.64 F3500.00
G1 X9.16 Y1.82 F3500.00
G1 X8.98 Y2.33 F3500.00
G1 X9.27 Y2.92 F3500.00
G1 X9.91 Y3.15 F3500.00
G1 X10.29 Y2.72 F3500.00
G1 X10.43 Y2.48 F3500.00
G1 X10.63 Y2.11 F3500.00
G1 X10.75 Y1.61 F3500.00
G1 X10.73 Y1.42 F3500.00
G1 X10.50 Y1.86 F3500.00
G1 X10.38 Y2.30 F3500.00
G1 X9.91 Y1.94 F3500.00
G1 X9.39 Y1.50 F3500.00
G1 X9.15 Y1.53 F3500.00
G1 X9.15 Y1.53 F3500.00
M300 S50.00 (pen up)
G4 P150 (wait 150ms)

(Polyline consisting of 47 segments.)
G1 X9.74 Y2.18 F3500.00
M300 S30.00 (pen down)
G4 P150 (wait 150ms)
G1 X10.08 Y2.68 F3500.00
G1 X9.77 Y2.95 F3500.00
G1 X9.33 Y2.73 F3500.00
G1 X9.15 Y2.22 F3500.00
G1 X9.28 Y1.98 F3500.00
G1 X9.74 Y2.18 F3500.00
G1 X9.74 Y2.18 F3500.00
M300 S50.00 (pen up)
G4 P150 (wait 150ms)

(Polyline consisting of 47 segments.)
G1 X26.12 Y10.61 F3500.00
M300 S30.00 (pen down)
G4 P150 (wait 150ms)
G1 X26.12 Y19.80 F3500.00
G1 X27.25 Y19.80 F3500.00
G1 X28.39 Y19.80 F3500.00
G1 X28.39 Y10.61 F3500.00
G1 X28.39 Y1.42 F3500.00
G1 X27.25 Y1.42 F3500.00
G1 X26.12 Y1.42 F3500.00
G1 X26.12 Y10.61 F3500.00
M300 S50.00 (pen up)
G4 P150 (wait 150ms)

(Polyline consisting of 47 segments.)
G1 X14.62 Y1.86 F3500.00
M300 S30.00 (pen down)
G4 P150 (wait 150ms)
G1 X13.80 Y2.41 F3500.00
G1 X13.56 Y3.11 F3500.00
G1 X14.19 Y3.50 F3500.00
G1 X15.37 Y2.57 F3500.00
G1 X15.25 Y1.99 F3500.00
G1 X14.62 Y1.86 F3500.00
G1 X14.62 Y1.86 F3500.00
M300 S50.00 (pen up)
G4 P150 (wait 150ms)

(Polyline consisting of 47 segments.)
G1 X15.23 Y2.33 F3500.00
M300 S30.00 (pen down)
G4 P150 (wait 150ms)
G1 X15.16 Y2.47 F3500.00
G1 X15.10 Y2.54 F3500.00
G1 X14.19 Y3.28 F3500.00
G1 X13.72 Y3.05 F3500.00
G1 X13.98 Y2.49 F3500.00
G1 X14.89 Y2.11 F3500.00
G1 X15.23 Y2.33 F3500.00
G1 X15.23 Y2.33 F3500.00
M300 S50.00 (pen up)
G4 P150 (wait 150ms)

(Polyline consisting of 47 segments.)
G1 X15.63 Y3.59 F3500.00
M300 S30.00 (pen down)
G4 P150 (wait 150ms)
G1 X15.35 Y4.32 F3500.00
G1 X15.76 Y4.70 F3500.00
G1 X16.32 Y4.39 F3500.00
G1 X16.60 Y3.75 F3500.00
G1 X16.28 Y3.28 F3500.00
G1 X15.63 Y3.59 F3500.00
G1 X15.63 Y3.59 F3500.00
M300 S50.00 (pen up)
G4 P150 (wait 150ms)

(Polyline consisting of 47 segments.)
G1 X16.44 Y3.60 F3500.00
M300 S30.00 (pen down)
G4 P150 (wait 150ms)
G1 X16.13 Y4.23 F3500.00
G1 X16.04 Y4.31 F3500.00
G1 X15.66 Y4.53 F3500.00
G1 X15.73 Y3.70 F3500.00
G1 X16.44 Y3.60 F3500.00
G1 X16.44 Y3.60 F3500.00
M300 S50.00 (pen up)
G4 P150 (wait 150ms)

(Polyline consisting of 49 segments.)
G1 X-2.65 Y10.61 F3500.00
M300 S30.00 (pen down)
G4 P150 (wait 150ms)
G1 X-2.65 Y19.80 F3500.00
G1 X-1.51 Y19.80 F3500.00
G1 X-0.37 Y19.80 F3500.00
G1 X-0.37 Y10.61 F3500.00
G1 X-0.37 Y1.42 F3500.00
G1 X-1.51 Y1.42 F3500.00
G1 X-2.65 Y1.42 F3500.00
G1 X-2.65 Y10.61 F3500.00
M300 S50.00 (pen up)
G4 P150 (wait 150ms)

(Polyline consisting of 49 segments.)
G1 X5.94 Y1.51 F3500.00
M300 S30.00 (pen down)
G4 P150 (wait 150ms)
G1 X6.33 Y1.87 F3500.00
G1 X9.55 Y4.76 F3500.00
G1 X10.36 Y5.75 F3500.00
G1 X9.85 Y5.70 F3500.00
G1 X9.38 Y5.61 F3500.00
G1 X9.31 Y6.00 F3500.00
G1 X9.40 Y8.18 F3500.00
G1 X10.60 Y9.34 F3500.00
G1 X10.85 Y9.58 F3500.00
G1 X10.18 Y9.40 F3500.00
G1 X8.86 Y8.66 F3500.00
G1 X8.26 Y7.43 F3500.00
G1 X8.49 Y5.48 F3500.00
G1 X8.40 Y5.28 F3500.00
G1 X7.98 Y5.90 F3500.00
G1 X7.72 Y7.20 F3500.00
G1 X8.11 Y8.44 F3500.00
G1 X9.04 Y9.44 F3500.00
G1 X10.42 Y10.01 F3500.00
G1 X10.71 Y10.21 F3500.00
G1 X10.22 Y11.54 F3500.00
G1 X9.82 Y13.84 F3500.00
G1 X9.97 Y15.25 F3500.00
G1 X10.56 Y16.38 F3500.00
G1 X10.87 Y16.69 F3500.00
G1 X10.61 Y16.19 F3500.00
G1 X9.92 Y14.27 F3500.00
G1 X10.25 Y11.91 F3500.00
G1 X10.41 Y11.57 F3500.00
G1 X10.56 Y11.70 F3500.00
G1 X10.59 Y12.59 F3500.00
G1 X10.53 Y14.19 F3500.00
G1 X10.79 Y15.91 F3500.00
G1 X10.94 Y16.77 F3500.00
G1 X11.72 Y17.59 F3500.00
G1 X13.04 Y18.33 F3500.00
G1 X13.85 Y18.63 F3500.00
G1 X15.02 Y18.87 F3500.00
G1 X16.41 Y18.46 F3500.00
G1 X17.64 Y17.62 F3500.00
G1 X18.47 Y16.49 F3500.00
G1 X18.77 Y15.73 F3500.00
G1 X18.82 Y14.55 F3500.00
G1 X18.58 Y12.74 F3500.00
G1 X18.31 Y11.16 F3500.00
G1 X18.15 Y9.77 F3500.00
G1 X18.19 Y8.77 F3500.00
G1 X18.25 Y6.01 F3500.00
G1 X18.14 Y6.70 F3500.00
G1 X18.14 Y7.38 F3500.00
G1 X17.98 Y7.00 F3500.00
G1 X17.63 Y6.41 F3500.00
G1 X17.18 Y6.22 F3500.00
G1 X17.00 Y6.19 F3500.00
G1 X17.31 Y6.11 F3500.00
G1 X18.12 Y5.66 F3500.00
G1 X18.61 Y4.93 F3500.00
G1 X19.24 Y3.10 F3500.00
G1 X19.77 Y1.55 F3500.00
G1 X19.50 Y1.99 F3500.00
G1 X19.24 Y2.49 F3500.00
G1 X19.15 Y2.32 F3500.00
G1 X18.76 Y1.81 F3500.00
G1 X18.41 Y1.94 F3500.00
G1 X17.74 Y2.37 F3500.00
G1 X17.57 Y3.11 F3500.00
G1 X17.84 Y3.38 F3500.00
G1 X18.30 Y3.05 F3500.00
G1 X18.72 Y2.84 F3500.00
G1 X19.02 Y2.92 F3500.00
G1 X18.94 Y3.48 F3500.00
G1 X18.58 Y4.54 F3500.00
G1 X18.41 Y4.90 F3500.00
G1 X18.12 Y4.98 F3500.00
G1 X17.48 Y5.49 F3500.00
G1 X17.14 Y5.93 F3500.00
G1 X16.64 Y6.01 F3500.00
G1 X16.19 Y5.97 F3500.00
G1 X16.16 Y5.70 F3500.00
G1 X16.09 Y5.13 F3500.00
G1 X15.67 Y4.94 F3500.00
G1 X13.91 Y5.74 F3500.00
G1 X12.74 Y6.14 F3500.00
G1 X12.35 Y6.08 F3500.00
G1 X12.47 Y5.91 F3500.00
G1 X12.64 Y5.57 F3500.00
G1 X12.50 Y5.22 F3500.00
G1 X11.69 Y4.96 F3500.00
G1 X11.24 Y5.32 F3500.00
G1 X11.19 Y5.80 F3500.00
G1 X11.25 Y5.95 F3500.00
G1 X11.02 Y5.89 F3500.00
G1 X9.33 Y4.32 F3500.00
G1 X8.19 Y3.08 F3500.00
G1 X8.20 Y2.82 F3500.00
G1 X8.50 Y2.54 F3500.00
G1 X8.26 Y1.98 F3500.00
G1 X7.75 Y1.64 F3500.00
G1 X7.40 Y1.88 F3500.00
G1 X7.36 Y2.27 F3500.00
G1 X7.29 Y2.37 F3500.00
G1 X6.62 Y1.90 F3500.00
G1 X5.94 Y1.51 F3500.00
G1 X5.94 Y1.51 F3500.00
M300 S50.00 (pen up)
G4 P150 (wait 150ms)

(Polyline consisting of 49 segments.)
G1 X8.05 Y1.97 F3500.00
M300 S30.00 (pen down)
G4 P150 (wait 150ms)
G1 X8.31 Y2.36 F3500.00
G1 X8.22 Y2.68 F3500.00
G1 X7.82 Y2.58 F3500.00
G1 X7.46 Y2.47 F3500.00
G1 X7.46 Y2.28 F3500.00
G1 X7.64 Y1.76 F3500.00
G1 X8.05 Y1.97 F3500.00
G1 X8.05 Y1.97 F3500.00
M300 S50.00 (pen up)
G4 P150 (wait 150ms)

(Polyline consisting of 49 segments.)
G1 X19.08 Y2.53 F3500.00
M300 S30.00 (pen down)
G4 P150 (wait 150ms)
G1 X18.94 Y2.73 F3500.00
G1 X18.72 Y2.63 F3500.00
G1 X18.73 Y2.23 F3500.00
G1 X18.81 Y2.00 F3500.00
G1 X18.94 Y2.13 F3500.00
G1 X19.08 Y2.53 F3500.00
G1 X19.08 Y2.53 F3500.00
M300 S50.00 (pen up)
G4 P150 (wait 150ms)

(Polyline consisting of 49 segments.)
G1 X18.56 Y2.19 F3500.00
M300 S30.00 (pen down)
G4 P150 (wait 150ms)
G1 X17.82 Y3.28 F3500.00
G1 X17.73 Y2.90 F3500.00
G1 X18.01 Y2.30 F3500.00
G1 X18.56 Y2.19 F3500.00
M300 S50.00 (pen up)
G4 P150 (wait 150ms)

(Polyline consisting of 49 segments.)
G1 X15.92 Y5.20 F3500.00
M300 S30.00 (pen down)
G4 P150 (wait 150ms)
G1 X15.92 Y5.98 F3500.00
G1 X15.77 Y6.62 F3500.00
G1 X15.43 Y6.93 F3500.00
G1 X14.44 Y7.33 F3500.00
G1 X13.74 Y7.66 F3500.00
G1 X13.70 Y7.38 F3500.00
G1 X13.54 Y6.70 F3500.00
G1 X13.44 Y6.32 F3500.00
G1 X13.62 Y6.10 F3500.00
G1 X15.68 Y5.04 F3500.00
G1 X15.92 Y5.20 F3500.00
G1 X15.92 Y5.20 F3500.00
M300 S50.00 (pen up)
G4 P150 (wait 150ms)

(Polyline consisting of 49 segments.)
G1 X18.25 Y5.24 F3500.00
M300 S30.00 (pen down)
G4 P150 (wait 150ms)
G1 X17.49 Y5.90 F3500.00
G1 X17.72 Y5.37 F3500.00
G1 X18.12 Y5.04 F3500.00
G1 X18.25 Y5.24 F3500.00
G1 X18.25 Y5.24 F3500.00
M300 S50.00 (pen up)
G4 P150 (wait 150ms)

(Polyline consisting of 49 segments.)
G1 X12.40 Y5.31 F3500.00
M300 S30.00 (pen down)
G4 P150 (wait 150ms)
G1 X12.43 Y5.77 F3500.00
G1 X11.73 Y5.94 F3500.00
G1 X11.32 Y5.58 F3500.00
G1 X11.74 Y5.17 F3500.00
G1 X12.40 Y5.31 F3500.00
M300 S50.00 (pen up)
G4 P150 (wait 150ms)

(Polyline consisting of 49 segments.)
G1 X8.13 Y6.45 F3500.00
M300 S30.00 (pen down)
G4 P150 (wait 150ms)
G1 X8.16 Y7.60 F3500.00
G1 X8.56 Y8.53 F3500.00
G1 X9.30 Y9.21 F3500.00
G1 X10.39 Y9.63 F3500.00
G1 X10.95 Y9.84 F3500.00
G1 X10.44 Y9.83 F3500.00
G1 X9.40 Y9.47 F3500.00
G1 X8.59 Y8.86 F3500.00
G1 X8.06 Y8.06 F3500.00
G1 X7.86 Y7.12 F3500.00
G1 X8.17 Y5.82 F3500.00
G1 X8.13 Y6.45 F3500.00
G1 X8.13 Y6.45 F3500.00
M300 S50.00 (pen up)
G4 P150 (wait 150ms)

(Polyline consisting of 49 segments.)
G1 X10.47 Y6.01 F3500.00
M300 S30.00 (pen down)
G4 P150 (wait 150ms)
G1 X11.68 Y6.44 F3500.00
G1 X12.39 Y7.00 F3500.00
G1 X12.67 Y7.35 F3500.00
G1 X12.21 Y7.89 F3500.00
G1 X11.58 Y8.97 F3500.00
G1 X11.36 Y9.52 F3500.00
G1 X10.71 Y9.19 F3500.00
G1 X9.84 Y8.53 F3500.00
G1 X9.40 Y7.76 F3500.00
G1 X9.54 Y5.80 F3500.00
G1 X10.47 Y6.01 F3500.00
M300 S50.00 (pen up)
G4 P150 (wait 150ms)

(Polyline consisting of 49 segments.)
G1 X13.01 Y6.35 F3500.00
M300 S30.00 (pen down)
G4 P150 (wait 150ms)
G1 X13.54 Y7.41 F3500.00
G1 X13.30 Y8.06 F3500.00
G1 X13.00 Y8.31 F3500.00
G1 X12.94 Y7.89 F3500.00
G1 X12.64 Y7.11 F3500.00
G1 X12.05 Y6.48 F3500.00
G1 X11.70 Y6.23 F3500.00
G1 X12.23 Y6.23 F3500.00
G1 X13.01 Y6.35 F3500.00
M300 S50.00 (pen up)
G4 P150 (wait 150ms)

(Polyline consisting of 49 segments.)
G1 X16.70 Y6.31 F3500.00
M300 S30.00 (pen down)
G4 P150 (wait 150ms)
G1 X16.26 Y6.52 F3500.00
G1 X15.98 Y6.45 F3500.00
G1 X16.42 Y6.24 F3500.00
G1 X16.70 Y6.31 F3500.00
M300 S50.00 (pen up)
G4 P150 (wait 150ms)

(Polyline consisting of 49 segments.)
G1 X17.78 Y6.93 F3500.00
M300 S30.00 (pen down)
G4 P150 (wait 150ms)
G1 X17.85 Y8.56 F3500.00
G1 X17.74 Y8.87 F3500.00
G1 X17.13 Y8.12 F3500.00
G1 X16.24 Y7.22 F3500.00
G1 X16.01 Y6.95 F3500.00
G1 X17.17 Y6.48 F3500.00
G1 X17.78 Y6.93 F3500.00
G1 X17.78 Y6.93 F3500.00
M300 S50.00 (pen up)
G4 P150 (wait 150ms)

(Polyline consisting of 49 segments.)
G1 X16.18 Y7.37 F3500.00
M300 S30.00 (pen down)
G4 P150 (wait 150ms)
G1 X17.76 Y9.32 F3500.00
G1 X17.94 Y9.67 F3500.00
G1 X17.40 Y9.80 F3500.00
G1 X16.70 Y9.99 F3500.00
G1 X16.54 Y9.65 F3500.00
G1 X16.49 Y9.29 F3500.00
G1 X16.15 Y9.21 F3500.00
G1 X15.65 Y9.29 F3500.00
G1 X15.46 Y9.60 F3500.00
G1 X15.59 Y9.60 F3500.00
G1 X16.44 Y9.44 F3500.00
G1 X16.41 Y9.90 F3500.00
G1 X16.02 Y10.21 F3500.00
G1 X15.04 Y9.89 F3500.00
G1 X13.70 Y9.53 F3500.00
G1 X12.71 Y9.68 F3500.00
G1 X12.21 Y10.40 F3500.00
G1 X12.08 Y11.40 F3500.00
G1 X12.25 Y12.09 F3500.00
G1 X12.41 Y12.71 F3500.00
G1 X12.45 Y13.18 F3500.00
G1 X12.20 Y12.61 F3500.00
G1 X11.83 Y12.03 F3500.00
G1 X11.94 Y9.92 F3500.00
G1 X12.58 Y8.96 F3500.00
G1 X13.66 Y7.95 F3500.00
G1 X15.56 Y7.11 F3500.00
G1 X16.18 Y7.37 F3500.00
G1 X16.18 Y7.37 F3500.00
M300 S50.00 (pen up)
G4 P150 (wait 150ms)

(Polyline consisting of 49 segments.)
G1 X14.88 Y8.45 F3500.00
M300 S30.00 (pen down)
G4 P150 (wait 150ms)
G1 X14.37 Y8.80 F3500.00
G1 X15.56 Y8.86 F3500.00
G1 X16.88 Y9.01 F3500.00
G1 X17.00 Y8.94 F3500.00
G1 X16.66 Y8.47 F3500.00
G1 X15.86 Y8.08 F3500.00
G1 X14.88 Y8.45 F3500.00
G1 X14.88 Y8.45 F3500.00
M300 S50.00 (pen up)
G4 P150 (wait 150ms)

(Polyline consisting of 49 segments.)
G1 X16.43 Y8.43 F3500.00
M300 S30.00 (pen down)
G4 P150 (wait 150ms)
G1 X16.36 Y8.49 F3500.00
G1 X15.68 Y8.41 F3500.00
G1 X15.41 Y8.31 F3500.00
G1 X16.43 Y8.43 F3500.00
M300 S50.00 (pen up)
G4 P150 (wait 150ms)

(Polyline consisting of 49 segments.)
G1 X15.84 Y8.61 F3500.00
M300 S30.00 (pen down)
G4 P150 (wait 150ms)
G1 X15.53 Y8.60 F3500.00
G1 X15.72 Y8.55 F3500.00
G1 X15.84 Y8.61 F3500.00
G1 X15.84 Y8.61 F3500.00
M300 S50.00 (pen up)
G4 P150 (wait 150ms)

(Polyline consisting of 49 segments.)
G1 X16.42 Y8.71 F3500.00
M300 S30.00 (pen down)
G4 P150 (wait 150ms)
G1 X16.16 Y8.71 F3500.00
G1 X16.29 Y8.66 F3500.00
G1 X16.42 Y8.71 F3500.00
M300 S50.00 (pen up)
G4 P150 (wait 150ms)

(Polyline consisting of 49 segments.)
G1 X12.44 Y8.84 F3500.00
M300 S30.00 (pen down)
G4 P150 (wait 150ms)
G1 X12.19 Y9.02 F3500.00
G1 X12.49 Y8.20 F3500.00
G1 X12.72 Y7.60 F3500.00
G1 X12.75 Y8.02 F3500.00
G1 X12.44 Y8.84 F3500.00
M300 S50.00 (pen up)
G4 P150 (wait 150ms)

(Polyline consisting of 49 segments.)
G1 X12.08 Y8.94 F3500.00
M300 S30.00 (pen down)
G4 P150 (wait 150ms)
G1 X11.62 Y11.03 F3500.00
G1 X11.40 Y11.87 F3500.00
G1 X11.41 Y10.41 F3500.00
G1 X11.89 Y8.64 F3500.00
G1 X12.40 Y7.87 F3500.00
G1 X12.08 Y8.94 F3500.00
G1 X12.08 Y8.94 F3500.00
M300 S50.00 (pen up)
G4 P150 (wait 150ms)

(Polyline consisting of 49 segments.)
G1 X18.11 Y8.50 F3500.00
M300 S30.00 (pen down)
G4 P150 (wait 150ms)
G1 X18.05 Y8.36 F3500.00
G1 X18.12 Y8.29 F3500.00
G1 X18.11 Y8.50 F3500.00
G1 X18.11 Y8.50 F3500.00
M300 S50.00 (pen up)
G4 P150 (wait 150ms)

(Polyline consisting of 49 segments.)
G1 X17.94 Y9.05 F3500.00
M300 S30.00 (pen down)
G4 P150 (wait 150ms)
G1 X17.88 Y9.04 F3500.00
G1 X17.95 Y8.71 F3500.00
G1 X18.01 Y8.72 F3500.00
G1 X17.94 Y9.05 F3500.00
M300 S50.00 (pen up)
G4 P150 (wait 150ms)

(Polyline consisting of 49 segments.)
G1 X13.49 Y10.14 F3500.00
M300 S30.00 (pen down)
G4 P150 (wait 150ms)
G1 X13.95 Y10.27 F3500.00
G1 X14.44 Y10.07 F3500.00
G1 X14.72 Y9.93 F3500.00
G1 X15.25 Y10.14 F3500.00
G1 X16.05 Y10.39 F3500.00
G1 X16.75 Y10.18 F3500.00
G1 X17.16 Y9.95 F3500.00
G1 X17.24 Y10.17 F3500.00
G1 X17.49 Y10.46 F3500.00
G1 X17.85 Y10.41 F3500.00
G1 X18.10 Y10.28 F3500.00
G1 X18.15 Y11.20 F3500.00
G1 X18.15 Y12.11 F3500.00
G1 X17.79 Y12.17 F3500.00
G1 X16.94 Y12.01 F3500.00
G1 X16.04 Y11.87 F3500.00
G1 X15.16 Y11.93 F3500.00
G1 X14.50 Y12.07 F3500.00
G1 X14.22 Y12.46 F3500.00
G1 X13.90 Y12.74 F3500.00
G1 X13.00 Y12.66 F3500.00
G1 X12.37 Y11.96 F3500.00
G1 X12.25 Y11.08 F3500.00
G1 X12.46 Y10.20 F3500.00
G1 X12.89 Y9.75 F3500.00
G1 X13.23 Y9.83 F3500.00
G1 X13.49 Y10.14 F3500.00
G1 X13.49 Y10.14 F3500.00
M300 S50.00 (pen up)
G4 P150 (wait 150ms)

(Polyline consisting of 49 segments.)
G1 X13.61 Y10.50 F3500.00
M300 S30.00 (pen down)
G4 P150 (wait 150ms)
G1 X13.04 Y10.82 F3500.00
G1 X12.82 Y11.06 F3500.00
G1 X13.16 Y11.38 F3500.00
G1 X13.97 Y11.72 F3500.00
G1 X14.74 Y11.38 F3500.00
G1 X15.04 Y10.90 F3500.00
G1 X14.54 Y10.54 F3500.00
G1 X13.61 Y10.50 F3500.00
G1 X13.61 Y10.50 F3500.00
M300 S50.00 (pen up)
G4 P150 (wait 150ms)

(Polyline consisting of 49 segments.)
G1 X14.57 Y10.72 F3500.00
M300 S30.00 (pen down)
G4 P150 (wait 150ms)
G1 X14.82 Y10.99 F3500.00
G1 X14.55 Y11.38 F3500.00
G1 X13.87 Y11.56 F3500.00
G1 X13.29 Y11.30 F3500.00
G1 X13.13 Y10.94 F3500.00
G1 X13.73 Y10.64 F3500.00
G1 X14.57 Y10.72 F3500.00
G1 X14.57 Y10.72 F3500.00
M300 S50.00 (pen up)
G4 P150 (wait 150ms)

(Polyline consisting of 49 segments.)
G1 X13.77 Y10.90 F3500.00
M300 S30.00 (pen down)
G4 P150 (wait 150ms)
G1 X13.87 Y11.42 F3500.00
G1 X14.19 Y11.33 F3500.00
G1 X14.29 Y11.00 F3500.00
G1 X13.77 Y10.90 F3500.00
M300 S50.00 (pen up)
G4 P150 (wait 150ms)

(Polyline consisting of 49 segments.)
G1 X16.59 Y10.76 F3500.00
M300 S30.00 (pen down)
G4 P150 (wait 150ms)
G1 X16.06 Y10.79 F3500.00
G1 X15.62 Y10.87 F3500.00
G1 X15.37 Y11.21 F3500.00
G1 X15.61 Y11.55 F3500.00
G1 X16.05 Y11.67 F3500.00
G1 X16.27 Y11.37 F3500.00
G1 X16.49 Y10.96 F3500.00
G1 X17.07 Y10.83 F3500.00
G1 X17.61 Y10.98 F3500.00
G1 X17.84 Y11.34 F3500.00
G1 X17.30 Y11.59 F3500.00
G1 X17.21 Y11.44 F3500.00
G1 X17.26 Y11.12 F3500.00
G1 X17.00 Y10.94 F3500.00
G1 X16.74 Y11.10 F3500.00
G1 X16.53 Y11.15 F3500.00
G1 X16.39 Y11.13 F3500.00
G1 X17.31 Y11.81 F3500.00
G1 X18.05 Y11.36 F3500.00
G1 X17.20 Y10.61 F3500.00
G1 X16.59 Y10.76 F3500.00
G1 X16.59 Y10.76 F3500.00
M300 S50.00 (pen up)
G4 P150 (wait 150ms)

(Polyline consisting of 49 segments.)
G1 X16.13 Y11.27 F3500.00
M300 S30.00 (pen down)
G4 P150 (wait 150ms)
G1 X15.92 Y11.50 F3500.00
G1 X15.57 Y11.34 F3500.00
G1 X15.58 Y11.08 F3500.00
G1 X15.93 Y10.96 F3500.00
G1 X16.13 Y11.27 F3500.00
M300 S50.00 (pen up)
G4 P150 (wait 150ms)

(Polyline consisting of 49 segments.)
G1 X14.34 Y9.80 F3500.00
M300 S30.00 (pen down)
G4 P150 (wait 150ms)
G1 X14.34 Y9.97 F3500.00
G1 X13.97 Y10.06 F3500.00
G1 X13.39 Y9.70 F3500.00
G1 X14.34 Y9.80 F3500.00
M300 S50.00 (pen up)
G4 P150 (wait 150ms)

(Polyline consisting of 49 segments.)
G1 X11.24 Y10.53 F3500.00
M300 S30.00 (pen down)
G4 P150 (wait 150ms)
G1 X10.87 Y11.70 F3500.00
G1 X10.60 Y11.41 F3500.00
G1 X10.60 Y10.86 F3500.00
G1 X11.21 Y9.84 F3500.00
G1 X11.24 Y10.53 F3500.00
G1 X11.24 Y10.53 F3500.00
M300 S50.00 (pen up)
G4 P150 (wait 150ms)

(Polyline consisting of 49 segments.)
G1 X10.87 Y10.68 F3500.00
M300 S30.00 (pen down)
G4 P150 (wait 150ms)
G1 X10.89 Y11.38 F3500.00
G1 X10.98 Y10.99 F3500.00
G1 X10.87 Y10.68 F3500.00
G1 X10.87 Y10.68 F3500.00
M300 S50.00 (pen up)
G4 P150 (wait 150ms)

(Polyline consisting of 49 segments.)
G1 X17.94 Y10.04 F3500.00
M300 S30.00 (pen down)
G4 P150 (wait 150ms)
G1 X17.51 Y10.27 F3500.00
G1 X17.33 Y10.05 F3500.00
G1 X17.63 Y9.95 F3500.00
G1 X17.94 Y10.04 F3500.00
G1 X17.94 Y10.04 F3500.00
M300 S50.00 (pen up)
G4 P150 (wait 150ms)

(Polyline consisting of 49 segments.)
G1 X11.40 Y12.23 F3500.00
M300 S30.00 (pen down)
G4 P150 (wait 150ms)
G1 X11.46 Y13.24 F3500.00
G1 X11.32 Y14.50 F3500.00
G1 X11.70 Y17.24 F3500.00
G1 X11.50 Y17.20 F3500.00
G1 X11.04 Y16.25 F3500.00
G1 X10.75 Y14.74 F3500.00
G1 X10.68 Y13.18 F3500.00
G1 X10.90 Y12.05 F3500.00
G1 X11.12 Y11.84 F3500.00
G1 X11.40 Y12.23 F3500.00
G1 X11.40 Y12.23 F3500.00
M300 S50.00 (pen up)
G4 P150 (wait 150ms)

(Polyline consisting of 49 segments.)
G1 X15.19 Y12.12 F3500.00
M300 S30.00 (pen down)
G4 P150 (wait 150ms)
G1 X14.42 Y12.58 F3500.00
G1 X14.67 Y12.14 F3500.00
G1 X15.19 Y12.12 F3500.00
G1 X15.19 Y12.12 F3500.00
M300 S50.00 (pen up)
G4 P150 (wait 150ms)

(Polyline consisting of 49 segments.)
G1 X16.90 Y12.15 F3500.00
M300 S30.00 (pen down)
G4 P150 (wait 150ms)
G1 X17.12 Y12.40 F3500.00
G1 X16.92 Y12.38 F3500.00
G1 X16.43 Y12.30 F3500.00
G1 X14.60 Y12.81 F3500.00
G1 X14.22 Y12.94 F3500.00
G1 X15.02 Y12.45 F3500.00
G1 X16.06 Y12.06 F3500.00
G1 X16.90 Y12.15 F3500.00
G1 X16.90 Y12.15 F3500.00
M300 S50.00 (pen up)
G4 P150 (wait 150ms)

(Polyline consisting of 49 segments.)
G1 X12.37 Y13.70 F3500.00
M300 S30.00 (pen down)
G4 P150 (wait 150ms)
G1 X12.57 Y14.37 F3500.00
G1 X12.68 Y13.87 F3500.00
G1 X12.73 Y13.51 F3500.00
G1 X12.87 Y13.93 F3500.00
G1 X13.07 Y13.71 F3500.00
G1 X13.37 Y13.30 F3500.00
G1 X13.31 Y13.55 F3500.00
G1 X13.23 Y13.94 F3500.00
G1 X13.77 Y13.58 F3500.00
G1 X15.34 Y12.69 F3500.00
G1 X14.85 Y13.13 F3500.00
G1 X13.08 Y15.03 F3500.00
G1 X12.09 Y17.22 F3500.00
G1 X12.01 Y17.56 F3500.00
G1 X11.92 Y17.39 F3500.00
G1 X11.54 Y15.10 F3500.00
G1 X11.71 Y12.88 F3500.00
G1 X11.89 Y12.23 F3500.00
G1 X12.07 Y12.65 F3500.00
G1 X12.37 Y13.70 F3500.00
G1 X12.37 Y13.70 F3500.00
M300 S50.00 (pen up)
G4 P150 (wait 150ms)

(Polyline consisting of 49 segments.)
G1 X18.05 Y12.79 F3500.00
M300 S30.00 (pen down)
G4 P150 (wait 150ms)
G1 X16.46 Y15.88 F3500.00
G1 X14.49 Y17.96 F3500.00
G1 X13.57 Y18.30 F3500.00
G1 X14.14 Y16.70 F3500.00
G1 X16.26 Y13.20 F3500.00
G1 X18.07 Y12.25 F3500.00
G1 X18.05 Y12.79 F3500.00
G1 X18.05 Y12.79 F3500.00
M300 S50.00 (pen up)
G4 P150 (wait 150ms)

(Polyline consisting of 49 segments.)
G1 X13.38 Y12.91 F3500.00
M300 S30.00 (pen down)
G4 P150 (wait 150ms)
G1 X13.75 Y12.92 F3500.00
G1 X13.44 Y13.09 F3500.00
G1 X13.00 Y13.44 F3500.00
G1 X12.87 Y13.40 F3500.00
G1 X12.66 Y12.81 F3500.00
G1 X12.45 Y12.44 F3500.00
G1 X12.72 Y12.68 F3500.00
G1 X13.38 Y12.91 F3500.00
G1 X13.38 Y12.91 F3500.00
M300 S50.00 (pen up)
G4 P150 (wait 150ms)

(Polyline consisting of 49 segments.)
G1 X16.14 Y13.10 F3500.00
M300 S30.00 (pen down)
G4 P150 (wait 150ms)
G1 X15.07 Y14.57 F3500.00
G1 X13.96 Y16.77 F3500.00
G1 X13.22 Y18.09 F3500.00
G1 X12.49 Y17.93 F3500.00
G1 X12.20 Y17.35 F3500.00
G1 X12.74 Y15.98 F3500.00
G1 X14.00 Y14.12 F3500.00
G1 X15.36 Y12.98 F3500.00
G1 X16.48 Y12.47 F3500.00
G1 X16.58 Y12.58 F3500.00
G1 X16.14 Y13.10 F3500.00
G1 X16.14 Y13.10 F3500.00
M300 S50.00 (pen up)
G4 P150 (wait 150ms)

(Polyline consisting of 49 segments.)
G1 X18.50 Y13.32 F3500.00
M300 S30.00 (pen down)
G4 P150 (wait 150ms)
G1 X17.42 Y16.48 F3500.00
G1 X16.33 Y17.91 F3500.00
G1 X15.61 Y18.71 F3500.00
G1 X14.99 Y18.70 F3500.00
G1 X14.14 Y18.58 F3500.00
G1 X14.56 Y18.13 F3500.00
G1 X16.30 Y16.38 F3500.00
G1 X17.79 Y13.75 F3500.00
G1 X18.36 Y12.73 F3500.00
G1 X18.50 Y13.32 F3500.00
G1 X18.50 Y13.32 F3500.00
M300 S50.00 (pen up)
G4 P150 (wait 150ms)

(Polyline consisting of 49 segments.)
G1 X14.11 Y13.06 F3500.00
M300 S30.00 (pen down)
G4 P150 (wait 150ms)
G1 X13.73 Y13.40 F3500.00
G1 X13.34 Y13.69 F3500.00
G1 X13.68 Y13.35 F3500.00
G1 X14.11 Y13.06 F3500.00
G1 X14.11 Y13.06 F3500.00
M300 S50.00 (pen up)
G4 P150 (wait 150ms)

(Polyline consisting of 49 segments.)
G1 X18.74 Y14.78 F3500.00
M300 S30.00 (pen down)
G4 P150 (wait 150ms)
G1 X18.52 Y15.94 F3500.00
G1 X18.04 Y16.94 F3500.00
G1 X17.34 Y17.73 F3500.00
G1 X16.44 Y18.27 F3500.00
G1 X16.22 Y18.31 F3500.00
G1 X16.55 Y17.92 F3500.00
G1 X17.26 Y17.03 F3500.00
G1 X18.47 Y14.31 F3500.00
G1 X18.70 Y13.89 F3500.00
G1 X18.74 Y14.78 F3500.00
G1 X18.74 Y14.78 F3500.00
M300 S50.00 (pen up)
G4 P150 (wait 150ms)

(Polyline consisting of 49 segments.)
G1 X9.15 Y1.49 F3500.00
M300 S30.00 (pen down)
G4 P150 (wait 150ms)
G1 X9.33 Y1.72 F3500.00
G1 X9.33 Y1.82 F3500.00
G1 X9.09 Y1.87 F3500.00
G1 X9.01 Y2.16 F3500.00
G1 X9.33 Y2.98 F3500.00
G1 X9.92 Y3.15 F3500.00
G1 X10.29 Y2.71 F3500.00
G1 X10.38 Y2.51 F3500.00
G1 X10.64 Y2.00 F3500.00
G1 X10.72 Y1.42 F3500.00
G1 X10.50 Y1.86 F3500.00
G1 X10.38 Y2.30 F3500.00
G1 X9.91 Y1.94 F3500.00
G1 X9.39 Y1.50 F3500.00
G1 X9.15 Y1.49 F3500.00
G1 X9.15 Y1.49 F3500.00
M300 S50.00 (pen up)
G4 P150 (wait 150ms)

(Polyline consisting of 49 segments.)
G1 X9.86 Y2.28 F3500.00
M300 S30.00 (pen down)
G4 P150 (wait 150ms)
G1 X10.16 Y2.70 F3500.00
G1 X9.97 Y2.95 F3500.00
G1 X9.42 Y2.85 F3500.00
G1 X9.15 Y2.19 F3500.00
G1 X9.36 Y1.97 F3500.00
G1 X9.86 Y2.28 F3500.00
M300 S50.00 (pen up)
G4 P150 (wait 150ms)

(Polyline consisting of 49 segments.)
G1 X26.12 Y10.61 F3500.00
M300 S30.00 (pen down)
G4 P150 (wait 150ms)
G1 X26.12 Y19.80 F3500.00
G1 X27.25 Y19.80 F3500.00
G1 X28.39 Y19.80 F3500.00
G1 X28.39 Y10.61 F3500.00
G1 X28.39 Y1.42 F3500.00
G1 X27.25 Y1.42 F3500.00
G1 X26.12 Y1.42 F3500.00
G1 X26.12 Y10.61 F3500.00
M300 S50.00 (pen up)
G4 P150 (wait 150ms)

(Polyline consisting of 49 segments.)
G1 X14.21 Y2.09 F3500.00
M300 S30.00 (pen down)
G4 P150 (wait 150ms)
G1 X13.68 Y2.60 F3500.00
G1 X13.60 Y3.14 F3500.00
G1 X13.91 Y3.41 F3500.00
G1 X14.40 Y3.37 F3500.00
G1 X15.33 Y2.57 F3500.00
G1 X15.25 Y2.05 F3500.00
G1 X14.79 Y1.87 F3500.00
G1 X14.21 Y2.09 F3500.00
G1 X14.21 Y2.09 F3500.00
M300 S50.00 (pen up)
G4 P150 (wait 150ms)

(Polyline consisting of 49 segments.)
G1 X15.21 Y2.24 F3500.00
M300 S30.00 (pen down)
G4 P150 (wait 150ms)
G1 X14.88 Y2.93 F3500.00
G1 X14.03 Y3.26 F3500.00
G1 X13.72 Y2.98 F3500.00
G1 X14.06 Y2.42 F3500.00
G1 X14.75 Y2.07 F3500.00
G1 X15.21 Y2.24 F3500.00
M300 S50.00 (pen up)
G4 P150 (wait 150ms)

(Polyline consisting of 49 segments.)
G1 X15.66 Y3.60 F3500.00
M300 S30.00 (pen down)
G4 P150 (wait 150ms)
G1 X15.37 Y4.13 F3500.00
G1 X15.48 Y4.57 F3500.00
G1 X15.88 Y4.68 F3500.00
G1 X16.33 Y4.36 F3500.00
G1 X16.59 Y3.80 F3500.00
G1 X16.50 Y3.40 F3500.00
G1 X16.15 Y3.29 F3500.00
G1 X15.66 Y3.60 F3500.00
M300 S50.00 (pen up)
G4 P150 (wait 150ms)

(Polyline consisting of 49 segments.)
G1 X16.49 Y3.79 F3500.00
M300 S30.00 (pen down)
G4 P150 (wait 150ms)
G1 X15.78 Y4.59 F3500.00
G1 X15.56 Y4.37 F3500.00
G1 X15.60 Y3.93 F3500.00
G1 X16.14 Y3.48 F3500.00
G1 X16.49 Y3.79 F3500.00
M300 S50.00 (pen up)
G4 P150 (wait 150ms)

(Polyline consisting of 44 segments.)
G1 X-2.65 Y10.61 F3500.00
M300 S30.00 (pen down)
G4 P150 (wait 150ms)
G1 X-2.65 Y19.80 F3500.00
G1 X-1.51 Y19.80 F3500.00
G1 X-0.37 Y19.80 F3500.00
G1 X-0.37 Y10.61 F3500.00
G1 X-0.37 Y1.42 F3500.00
G1 X-1.51 Y1.42 F3500.00
G1 X-2.65 Y1.42 F3500.00
G1 X-2.65 Y10.61 F3500.00
M300 S50.00 (pen up)
G4 P150 (wait 150ms)

(Polyline consisting of 44 segments.)
G1 X5.94 Y1.49 F3500.00
M300 S30.00 (pen down)
G4 P150 (wait 150ms)
G1 X7.89 Y2.82 F3500.00
G1 X8.35 Y2.74 F3500.00
G1 X8.53 Y2.45 F3500.00
G1 X7.74 Y1.64 F3500.00
G1 X7.40 Y1.87 F3500.00
G1 X7.40 Y2.32 F3500.00
G1 X7.41 Y2.50 F3500.00
G1 X6.99 Y2.20 F3500.00
G1 X5.94 Y1.49 F3500.00
G1 X5.94 Y1.49 F3500.00
M300 S50.00 (pen up)
G4 P150 (wait 150ms)

(Polyline consisting of 44 segments.)
G1 X8.16 Y2.09 F3500.00
M300 S30.00 (pen down)
G4 P150 (wait 150ms)
G1 X8.39 Y2.55 F3500.00
G1 X7.90 Y2.66 F3500.00
G1 X7.49 Y2.15 F3500.00
G1 X7.68 Y1.75 F3500.00
G1 X8.16 Y2.09 F3500.00
M300 S50.00 (pen up)
G4 P150 (wait 150ms)

(Polyline consisting of 44 segments.)
G1 X9.31 Y1.66 F3500.00
M300 S30.00 (pen down)
G4 P150 (wait 150ms)
G1 X9.33 Y1.82 F3500.00
G1 X9.06 Y1.90 F3500.00
G1 X9.02 Y2.28 F3500.00
G1 X9.50 Y3.08 F3500.00
G1 X10.02 Y3.09 F3500.00
G1 X10.29 Y2.73 F3500.00
G1 X10.38 Y2.51 F3500.00
G1 X10.64 Y2.00 F3500.00
G1 X10.71 Y1.42 F3500.00
G1 X10.55 Y1.80 F3500.00
G1 X10.40 Y2.23 F3500.00
G1 X9.79 Y1.86 F3500.00
G1 X9.22 Y1.44 F3500.00
G1 X9.31 Y1.66 F3500.00
G1 X9.31 Y1.66 F3500.00
M300 S50.00 (pen up)
G4 P150 (wait 150ms)

(Polyline consisting of 44 segments.)
G1 X9.88 Y2.29 F3500.00
M300 S30.00 (pen down)
G4 P150 (wait 150ms)
G1 X10.17 Y2.70 F3500.00
G1 X9.97 Y2.95 F3500.00
G1 X9.42 Y2.85 F3500.00
G1 X9.15 Y2.19 F3500.00
G1 X9.38 Y1.97 F3500.00
G1 X9.88 Y2.29 F3500.00
G1 X9.88 Y2.29 F3500.00
M300 S50.00 (pen up)
G4 P150 (wait 150ms)

(Polyline consisting of 44 segments.)
G1 X19.49 Y2.01 F3500.00
M300 S30.00 (pen down)
G4 P150 (wait 150ms)
G1 X19.25 Y2.62 F3500.00
G1 X19.12 Y2.23 F3500.00
G1 X18.93 Y1.79 F3500.00
G1 X18.75 Y1.84 F3500.00
G1 X18.40 Y1.97 F3500.00
G1 X17.75 Y2.38 F3500.00
G1 X17.58 Y3.18 F3500.00
G1 X17.86 Y3.38 F3500.00
G1 X18.29 Y3.05 F3500.00
G1 X18.77 Y2.84 F3500.00
G1 X19.08 Y2.89 F3500.00
G1 X18.99 Y3.35 F3500.00
G1 X18.62 Y4.46 F3500.00
G1 X18.24 Y4.97 F3500.00
G1 X17.79 Y5.08 F3500.00
G1 X17.37 Y5.62 F3500.00
G1 X17.12 Y5.96 F3500.00
G1 X16.64 Y6.01 F3500.00
G1 X16.19 Y5.97 F3500.00
G1 X16.16 Y5.70 F3500.00
G1 X16.07 Y5.14 F3500.00
G1 X15.69 Y4.92 F3500.00
G1 X13.67 Y5.88 F3500.00
G1 X12.74 Y6.15 F3500.00
G1 X12.34 Y6.08 F3500.00
G1 X12.45 Y5.94 F3500.00
G1 X12.65 Y5.57 F3500.00
G1 X12.39 Y5.15 F3500.00
G1 X11.99 Y4.93 F3500.00
G1 X11.53 Y5.08 F3500.00
G1 X11.18 Y5.46 F3500.00
G1 X11.23 Y5.88 F3500.00
G1 X11.18 Y5.98 F3500.00
G1 X10.90 Y5.90 F3500.00
G1 X9.49 Y4.50 F3500.00
G1 X7.92 Y2.96 F3500.00
G1 X9.15 Y4.35 F3500.00
G1 X10.63 Y5.87 F3500.00
G1 X10.04 Y5.76 F3500.00
G1 X9.39 Y5.72 F3500.00
G1 X9.35 Y8.02 F3500.00
G1 X9.84 Y8.74 F3500.00
G1 X10.67 Y9.35 F3500.00
G1 X10.97 Y9.59 F3500.00
G1 X9.34 Y9.07 F3500.00
G1 X8.72 Y8.54 F3500.00
G1 X8.33 Y7.79 F3500.00
G1 X8.37 Y5.85 F3500.00
G1 X8.46 Y5.28 F3500.00
G1 X8.25 Y5.41 F3500.00
G1 X7.76 Y6.55 F3500.00
G1 X7.81 Y7.72 F3500.00
G1 X8.35 Y8.79 F3500.00
G1 X9.35 Y9.61 F3500.00
G1 X10.38 Y10.01 F3500.00
G1 X10.73 Y10.11 F3500.00
G1 X10.65 Y10.38 F3500.00
G1 X10.17 Y11.66 F3500.00
G1 X9.83 Y13.78 F3500.00
G1 X10.06 Y15.47 F3500.00
G1 X10.88 Y16.69 F3500.00
G1 X10.72 Y16.38 F3500.00
G1 X9.92 Y14.22 F3500.00
G1 X10.28 Y11.77 F3500.00
G1 X10.40 Y11.52 F3500.00
G1 X10.58 Y11.66 F3500.00
G1 X10.62 Y12.41 F3500.00
G1 X10.53 Y14.00 F3500.00
G1 X10.79 Y15.86 F3500.00
G1 X10.95 Y16.76 F3500.00
G1 X11.73 Y17.58 F3500.00
G1 X13.14 Y18.37 F3500.00
G1 X14.16 Y18.71 F3500.00
G1 X15.13 Y18.88 F3500.00
G1 X16.36 Y18.46 F3500.00
G1 X17.64 Y17.63 F3500.00
G1 X18.48 Y16.43 F3500.00
G1 X18.82 Y14.50 F3500.00
G1 X18.58 Y12.74 F3500.00
G1 X18.31 Y11.21 F3500.00
G1 X18.16 Y9.82 F3500.00
G1 X18.19 Y8.71 F3500.00
G1 X18.25 Y6.01 F3500.00
G1 X18.15 Y6.70 F3500.00
G1 X18.14 Y7.38 F3500.00
G1 X17.96 Y6.94 F3500.00
G1 X17.57 Y6.34 F3500.00
G1 X16.98 Y6.28 F3500.00
G1 X16.23 Y6.55 F3500.00
G1 X15.91 Y6.75 F3500.00
G1 X15.95 Y6.46 F3500.00
G1 X16.09 Y6.21 F3500.00
G1 X16.72 Y6.15 F3500.00
G1 X18.02 Y5.76 F3500.00
G1 X18.72 Y4.59 F3500.00
G1 X19.36 Y2.75 F3500.00
G1 X19.76 Y1.49 F3500.00
G1 X19.49 Y2.01 F3500.00
G1 X19.49 Y2.01 F3500.00
M300 S50.00 (pen up)
G4 P150 (wait 150ms)

(Polyline consisting of 44 segments.)
G1 X19.08 Y2.53 F3500.00
M300 S30.00 (pen down)
G4 P150 (wait 150ms)
G1 X18.94 Y2.73 F3500.00
G1 X18.72 Y2.63 F3500.00
G1 X18.73 Y2.23 F3500.00
G1 X18.81 Y2.00 F3500.00
G1 X18.94 Y2.13 F3500.00
G1 X19.08 Y2.53 F3500.00
G1 X19.08 Y2.53 F3500.00
M300 S50.00 (pen up)
G4 P150 (wait 150ms)

(Polyline consisting of 44 segments.)
G1 X18.56 Y2.19 F3500.00
M300 S30.00 (pen down)
G4 P150 (wait 150ms)
G1 X17.82 Y3.28 F3500.00
G1 X17.73 Y2.90 F3500.00
G1 X18.01 Y2.30 F3500.00
G1 X18.56 Y2.19 F3500.00
G1 X18.56 Y2.19 F3500.00
M300 S50.00 (pen up)
G4 P150 (wait 150ms)

(Polyline consisting of 44 segments.)
G1 X15.99 Y5.30 F3500.00
M300 S30.00 (pen down)
G4 P150 (wait 150ms)
G1 X15.94 Y6.01 F3500.00
G1 X15.77 Y6.71 F3500.00
G1 X15.47 Y6.97 F3500.00
G1 X14.48 Y7.32 F3500.00
G1 X13.74 Y7.66 F3500.00
G1 X13.69 Y7.41 F3500.00
G1 X13.54 Y6.73 F3500.00
G1 X13.62 Y6.10 F3500.00
G1 X15.68 Y5.03 F3500.00
G1 X15.99 Y5.30 F3500.00
M300 S50.00 (pen up)
G4 P150 (wait 150ms)

(Polyline consisting of 44 segments.)
G1 X18.28 Y5.10 F3500.00
M300 S30.00 (pen down)
G4 P150 (wait 150ms)
G1 X18.06 Y5.56 F3500.00
G1 X17.48 Y5.90 F3500.00
G1 X17.73 Y5.35 F3500.00
G1 X18.28 Y5.10 F3500.00
M300 S50.00 (pen up)
G4 P150 (wait 150ms)

(Polyline consisting of 44 segments.)
G1 X12.40 Y5.32 F3500.00
M300 S30.00 (pen down)
G4 P150 (wait 150ms)
G1 X12.52 Y5.62 F3500.00
G1 X12.20 Y5.89 F3500.00
G1 X11.65 Y5.95 F3500.00
G1 X11.34 Y5.64 F3500.00
G1 X11.71 Y5.18 F3500.00
G1 X12.40 Y5.32 F3500.00
M300 S50.00 (pen up)
G4 P150 (wait 150ms)

(Polyline consisting of 44 segments.)
G1 X8.16 Y6.87 F3500.00
M300 S30.00 (pen down)
G4 P150 (wait 150ms)
G1 X8.45 Y8.40 F3500.00
G1 X9.24 Y9.15 F3500.00
G1 X10.40 Y9.63 F3500.00
G1 X10.93 Y9.86 F3500.00
G1 X10.23 Y9.78 F3500.00
G1 X8.51 Y8.77 F3500.00
G1 X8.04 Y8.01 F3500.00
G1 X7.86 Y7.11 F3500.00
G1 X8.15 Y5.80 F3500.00
G1 X8.16 Y6.87 F3500.00
G1 X8.16 Y6.87 F3500.00
M300 S50.00 (pen up)
G4 P150 (wait 150ms)

(Polyline consisting of 44 segments.)
G1 X10.48 Y6.02 F3500.00
M300 S30.00 (pen down)
G4 P150 (wait 150ms)
G1 X11.78 Y6.50 F3500.00
G1 X12.49 Y7.10 F3500.00
G1 X12.59 Y7.41 F3500.00
G1 X12.31 Y7.76 F3500.00
G1 X11.68 Y8.79 F3500.00
G1 X11.36 Y9.50 F3500.00
G1 X9.94 Y8.66 F3500.00
G1 X9.42 Y7.74 F3500.00
G1 X9.42 Y6.30 F3500.00
G1 X9.55 Y5.80 F3500.00
G1 X10.48 Y6.02 F3500.00
G1 X10.48 Y6.02 F3500.00
M300 S50.00 (pen up)
G4 P150 (wait 150ms)

(Polyline consisting of 44 segments.)
G1 X13.29 Y6.54 F3500.00
M300 S30.00 (pen down)
G4 P150 (wait 150ms)
G1 X13.55 Y7.29 F3500.00
G1 X13.32 Y8.04 F3500.00
G1 X13.03 Y8.29 F3500.00
G1 X12.90 Y7.79 F3500.00
G1 X12.59 Y7.03 F3500.00
G1 X12.03 Y6.47 F3500.00
G1 X11.68 Y6.21 F3500.00
G1 X12.39 Y6.25 F3500.00
G1 X13.29 Y6.54 F3500.00
G1 X13.29 Y6.54 F3500.00
M300 S50.00 (pen up)
G4 P150 (wait 150ms)

(Polyline consisting of 44 segments.)
G1 X17.63 Y6.61 F3500.00
M300 S30.00 (pen down)
G4 P150 (wait 150ms)
G1 X17.93 Y7.39 F3500.00
G1 X17.92 Y8.32 F3500.00
G1 X17.74 Y8.85 F3500.00
G1 X17.11 Y8.16 F3500.00
G1 X16.26 Y7.26 F3500.00
G1 X16.00 Y6.96 F3500.00
G1 X16.31 Y6.67 F3500.00
G1 X17.05 Y6.46 F3500.00
G1 X17.63 Y6.61 F3500.00
M300 S50.00 (pen up)
G4 P150 (wait 150ms)

(Polyline consisting of 44 segments.)
G1 X16.12 Y7.32 F3500.00
M300 S30.00 (pen down)
G4 P150 (wait 150ms)
G1 X17.24 Y8.51 F3500.00
G1 X17.94 Y9.70 F3500.00
G1 X17.75 Y9.77 F3500.00
G1 X16.70 Y10.00 F3500.00
G1 X16.54 Y9.65 F3500.00
G1 X16.49 Y9.29 F3500.00
G1 X16.15 Y9.21 F3500.00
G1 X15.65 Y9.29 F3500.00
G1 X15.46 Y9.61 F3500.00
G1 X15.60 Y9.56 F3500.00
G1 X16.09 Y9.35 F3500.00
G1 X16.45 Y9.50 F3500.00
G1 X16.39 Y10.00 F3500.00
G1 X16.05 Y10.26 F3500.00
G1 X15.04 Y9.89 F3500.00
G1 X13.70 Y9.54 F3500.00
G1 X12.71 Y9.67 F3500.00
G1 X12.26 Y10.30 F3500.00
G1 X12.05 Y11.13 F3500.00
G1 X12.21 Y11.90 F3500.00
G1 X12.41 Y12.80 F3500.00
G1 X12.45 Y13.29 F3500.00
G1 X12.24 Y12.71 F3500.00
G1 X11.88 Y12.07 F3500.00
G1 X11.76 Y11.01 F3500.00
G1 X12.08 Y9.57 F3500.00
G1 X12.21 Y9.08 F3500.00
G1 X12.49 Y8.20 F3500.00
G1 X12.75 Y7.60 F3500.00
G1 X12.76 Y8.05 F3500.00
G1 X12.51 Y8.75 F3500.00
G1 X12.25 Y9.11 F3500.00
G1 X12.75 Y8.73 F3500.00
G1 X14.70 Y7.38 F3500.00
G1 X15.53 Y7.13 F3500.00
G1 X16.12 Y7.32 F3500.00
G1 X16.12 Y7.32 F3500.00
M300 S50.00 (pen up)
G4 P150 (wait 150ms)

(Polyline consisting of 44 segments.)
G1 X15.20 Y8.25 F3500.00
M300 S30.00 (pen down)
G4 P150 (wait 150ms)
G1 X14.63 Y8.63 F3500.00
G1 X14.37 Y8.85 F3500.00
G1 X15.43 Y8.86 F3500.00
G1 X16.75 Y8.97 F3500.00
G1 X17.00 Y8.94 F3500.00
G1 X16.64 Y8.46 F3500.00
G1 X15.97 Y8.10 F3500.00
G1 X15.20 Y8.25 F3500.00
G1 X15.20 Y8.25 F3500.00
M300 S50.00 (pen up)
G4 P150 (wait 150ms)

(Polyline consisting of 44 segments.)
G1 X16.43 Y8.43 F3500.00
M300 S30.00 (pen down)
G4 P150 (wait 150ms)
G1 X16.29 Y8.49 F3500.00
G1 X15.61 Y8.42 F3500.00
G1 X15.41 Y8.31 F3500.00
G1 X16.43 Y8.43 F3500.00
G1 X16.43 Y8.43 F3500.00
M300 S50.00 (pen up)
G4 P150 (wait 150ms)

(Polyline consisting of 44 segments.)
G1 X16.29 Y8.64 F3500.00
M300 S30.00 (pen down)
G4 P150 (wait 150ms)
G1 X15.92 Y8.67 F3500.00
G1 X15.26 Y8.57 F3500.00
G1 X16.29 Y8.64 F3500.00
G1 X16.29 Y8.64 F3500.00
M300 S50.00 (pen up)
G4 P150 (wait 150ms)

(Polyline consisting of 44 segments.)
G1 X12.10 Y8.92 F3500.00
M300 S30.00 (pen down)
G4 P150 (wait 150ms)
G1 X11.54 Y12.49 F3500.00
G1 X11.52 Y12.98 F3500.00
G1 X11.37 Y15.01 F3500.00
G1 X11.70 Y17.24 F3500.00
G1 X11.50 Y17.20 F3500.00
G1 X11.04 Y16.21 F3500.00
G1 X10.69 Y14.50 F3500.00
G1 X10.77 Y12.37 F3500.00
G1 X11.01 Y11.85 F3500.00
G1 X11.31 Y12.00 F3500.00
G1 X11.36 Y11.65 F3500.00
G1 X11.74 Y8.97 F3500.00
G1 X12.42 Y7.80 F3500.00
G1 X12.10 Y8.92 F3500.00
G1 X12.10 Y8.92 F3500.00
M300 S50.00 (pen up)
G4 P150 (wait 150ms)

(Polyline consisting of 44 segments.)
G1 X18.05 Y8.75 F3500.00
M300 S30.00 (pen down)
G4 P150 (wait 150ms)
G1 X17.89 Y9.17 F3500.00
G1 X17.96 Y8.66 F3500.00
G1 X18.12 Y8.24 F3500.00
G1 X18.05 Y8.75 F3500.00
M300 S50.00 (pen up)
G4 P150 (wait 150ms)

(Polyline consisting of 44 segments.)
G1 X13.39 Y9.97 F3500.00
M300 S30.00 (pen down)
G4 P150 (wait 150ms)
G1 X14.03 Y10.24 F3500.00
G1 X14.52 Y10.01 F3500.00
G1 X15.24 Y10.12 F3500.00
G1 X16.02 Y10.38 F3500.00
G1 X16.71 Y10.16 F3500.00
G1 X17.15 Y9.97 F3500.00
G1 X17.53 Y10.46 F3500.00
G1 X17.95 Y10.33 F3500.00
G1 X18.12 Y10.29 F3500.00
G1 X18.15 Y11.13 F3500.00
G1 X18.15 Y12.11 F3500.00
G1 X17.77 Y12.18 F3500.00
G1 X17.07 Y12.06 F3500.00
G1 X16.29 Y11.90 F3500.00
G1 X15.23 Y11.91 F3500.00
G1 X14.49 Y12.08 F3500.00
G1 X14.22 Y12.52 F3500.00
G1 X13.95 Y12.75 F3500.00
G1 X13.32 Y12.76 F3500.00
G1 X12.70 Y12.44 F3500.00
G1 X12.32 Y11.82 F3500.00
G1 X12.22 Y11.02 F3500.00
G1 X12.44 Y10.20 F3500.00
G1 X13.04 Y9.62 F3500.00
G1 X13.39 Y9.97 F3500.00
G1 X13.39 Y9.97 F3500.00
M300 S50.00 (pen up)
G4 P150 (wait 150ms)

(Polyline consisting of 44 segments.)
G1 X13.61 Y10.51 F3500.00
M300 S30.00 (pen down)
G4 P150 (wait 150ms)
G1 X13.05 Y10.81 F3500.00
G1 X12.84 Y11.03 F3500.00
G1 X13.16 Y11.37 F3500.00
G1 X13.94 Y11.70 F3500.00
G1 X14.61 Y11.50 F3500.00
G1 X14.99 Y10.97 F3500.00
G1 X14.71 Y10.63 F3500.00
G1 X13.61 Y10.51 F3500.00
G1 X13.61 Y10.51 F3500.00
M300 S50.00 (pen up)
G4 P150 (wait 150ms)

(Polyline consisting of 44 segments.)
G1 X14.57 Y10.72 F3500.00
M300 S30.00 (pen down)
G4 P150 (wait 150ms)
G1 X14.84 Y10.98 F3500.00
G1 X13.99 Y11.59 F3500.00
G1 X13.08 Y11.08 F3500.00
G1 X13.60 Y10.67 F3500.00
G1 X14.57 Y10.72 F3500.00
M300 S50.00 (pen up)
G4 P150 (wait 150ms)

(Polyline consisting of 44 segments.)
G1 X13.77 Y10.90 F3500.00
M300 S30.00 (pen down)
G4 P150 (wait 150ms)
G1 X13.87 Y11.42 F3500.00
G1 X14.18 Y11.34 F3500.00
G1 X14.26 Y11.01 F3500.00
G1 X13.77 Y10.90 F3500.00
G1 X13.77 Y10.90 F3500.00
M300 S50.00 (pen up)
G4 P150 (wait 150ms)

(Polyline consisting of 44 segments.)
G1 X16.59 Y10.76 F3500.00
M300 S30.00 (pen down)
G4 P150 (wait 150ms)
G1 X16.06 Y10.79 F3500.00
G1 X15.62 Y10.87 F3500.00
G1 X15.37 Y11.21 F3500.00
G1 X15.61 Y11.55 F3500.00
G1 X16.05 Y11.67 F3500.00
G1 X16.27 Y11.37 F3500.00
G1 X16.49 Y10.96 F3500.00
G1 X17.07 Y10.83 F3500.00
G1 X17.61 Y10.98 F3500.00
G1 X17.84 Y11.34 F3500.00
G1 X17.16 Y11.63 F3500.00
G1 X17.18 Y11.43 F3500.00
G1 X17.23 Y11.11 F3500.00
G1 X16.95 Y10.94 F3500.00
G1 X16.74 Y11.10 F3500.00
G1 X16.53 Y11.15 F3500.00
G1 X16.39 Y11.13 F3500.00
G1 X16.62 Y11.46 F3500.00
G1 X17.16 Y11.76 F3500.00
G1 X17.71 Y11.66 F3500.00
G1 X17.98 Y11.29 F3500.00
G1 X17.66 Y10.83 F3500.00
G1 X17.21 Y10.63 F3500.00
G1 X16.59 Y10.76 F3500.00
G1 X16.59 Y10.76 F3500.00
M300 S50.00 (pen up)
G4 P150 (wait 150ms)

(Polyline consisting of 44 segments.)
G1 X16.18 Y11.27 F3500.00
M300 S30.00 (pen down)
G4 P150 (wait 150ms)
G1 X16.05 Y11.54 F3500.00
G1 X15.69 Y11.42 F3500.00
G1 X15.42 Y11.23 F3500.00
G1 X15.66 Y11.03 F3500.00
G1 X16.02 Y10.93 F3500.00
G1 X16.18 Y11.27 F3500.00
G1 X16.18 Y11.27 F3500.00
M300 S50.00 (pen up)
G4 P150 (wait 150ms)

(Polyline consisting of 44 segments.)
G1 X14.04 Y9.69 F3500.00
M300 S30.00 (pen down)
G4 P150 (wait 150ms)
G1 X14.41 Y9.85 F3500.00
G1 X14.20 Y10.05 F3500.00
G1 X13.72 Y10.08 F3500.00
G1 X13.38 Y9.83 F3500.00
G1 X13.41 Y9.63 F3500.00
G1 X14.04 Y9.69 F3500.00
G1 X14.04 Y9.69 F3500.00
M300 S50.00 (pen up)
G4 P150 (wait 150ms)

(Polyline consisting of 44 segments.)
G1 X11.27 Y10.36 F3500.00
M300 S30.00 (pen down)
G4 P150 (wait 150ms)
G1 X10.92 Y11.70 F3500.00
G1 X10.61 Y11.42 F3500.00
G1 X10.70 Y10.63 F3500.00
G1 X11.29 Y9.73 F3500.00
G1 X11.27 Y10.36 F3500.00
G1 X11.27 Y10.36 F3500.00
M300 S50.00 (pen up)
G4 P150 (wait 150ms)

(Polyline consisting of 44 segments.)
G1 X10.87 Y10.68 F3500.00
M300 S30.00 (pen down)
G4 P150 (wait 150ms)
G1 X10.88 Y11.30 F3500.00
G1 X10.98 Y10.98 F3500.00
G1 X10.87 Y10.68 F3500.00
G1 X10.87 Y10.68 F3500.00
M300 S50.00 (pen up)
G4 P150 (wait 150ms)

(Polyline consisting of 44 segments.)
G1 X17.94 Y10.05 F3500.00
M300 S30.00 (pen down)
G4 P150 (wait 150ms)
G1 X17.79 Y10.28 F3500.00
G1 X17.48 Y10.28 F3500.00
G1 X17.34 Y10.04 F3500.00
G1 X17.63 Y9.95 F3500.00
G1 X17.94 Y10.05 F3500.00
M300 S50.00 (pen up)
G4 P150 (wait 150ms)

(Polyline consisting of 44 segments.)
G1 X15.19 Y12.13 F3500.00
M300 S30.00 (pen down)
G4 P150 (wait 150ms)
G1 X14.36 Y12.55 F3500.00
G1 X14.52 Y12.26 F3500.00
G1 X15.19 Y12.13 F3500.00
G1 X15.19 Y12.13 F3500.00
M300 S50.00 (pen up)
G4 P150 (wait 150ms)

(Polyline consisting of 44 segments.)
G1 X16.90 Y12.15 F3500.00
M300 S30.00 (pen down)
G4 P150 (wait 150ms)
G1 X17.12 Y12.40 F3500.00
G1 X16.92 Y12.39 F3500.00
G1 X14.70 Y12.78 F3500.00
G1 X14.24 Y12.91 F3500.00
G1 X14.97 Y12.45 F3500.00
G1 X16.02 Y12.06 F3500.00
G1 X16.90 Y12.15 F3500.00
G1 X16.90 Y12.15 F3500.00
M300 S50.00 (pen up)
G4 P150 (wait 150ms)

(Polyline consisting of 44 segments.)
G1 X12.37 Y13.67 F3500.00
M300 S30.00 (pen down)
G4 P150 (wait 150ms)
G1 X12.58 Y14.36 F3500.00
G1 X12.68 Y13.83 F3500.00
G1 X12.74 Y13.51 F3500.00
G1 X12.88 Y13.93 F3500.00
G1 X12.98 Y13.88 F3500.00
G1 X13.50 Y13.29 F3500.00
G1 X13.85 Y13.17 F3500.00
G1 X14.10 Y13.06 F3500.00
G1 X13.75 Y13.39 F3500.00
G1 X13.45 Y13.49 F3500.00
G1 X13.35 Y13.50 F3500.00
G1 X13.22 Y14.00 F3500.00
G1 X13.71 Y13.61 F3500.00
G1 X14.45 Y13.06 F3500.00
G1 X15.56 Y12.62 F3500.00
G1 X14.89 Y13.12 F3500.00
G1 X13.25 Y14.77 F3500.00
G1 X12.19 Y16.88 F3500.00
G1 X11.96 Y17.66 F3500.00
G1 X11.85 Y17.23 F3500.00
G1 X11.50 Y14.66 F3500.00
G1 X11.69 Y12.91 F3500.00
G1 X11.88 Y12.20 F3500.00
G1 X12.06 Y12.64 F3500.00
G1 X12.37 Y13.67 F3500.00
G1 X12.37 Y13.67 F3500.00
M300 S50.00 (pen up)
G4 P150 (wait 150ms)

(Polyline consisting of 44 segments.)
G1 X18.11 Y12.66 F3500.00
M300 S30.00 (pen down)
G4 P150 (wait 150ms)
G1 X16.64 Y15.64 F3500.00
G1 X14.83 Y17.73 F3500.00
G1 X14.01 Y18.29 F3500.00
G1 X13.54 Y18.26 F3500.00
G1 X15.60 Y14.00 F3500.00
G1 X16.43 Y13.01 F3500.00
G1 X18.07 Y12.25 F3500.00
G1 X18.11 Y12.66 F3500.00
M300 S50.00 (pen up)
G4 P150 (wait 150ms)

(Polyline consisting of 44 segments.)
G1 X13.34 Y12.88 F3500.00
M300 S30.00 (pen down)
G4 P150 (wait 150ms)
G1 X13.83 Y12.94 F3500.00
G1 X13.49 Y13.09 F3500.00
G1 X13.01 Y13.43 F3500.00
G1 X12.88 Y13.45 F3500.00
G1 X12.67 Y12.86 F3500.00
G1 X12.52 Y12.53 F3500.00
G1 X12.67 Y12.63 F3500.00
G1 X13.34 Y12.88 F3500.00
G1 X13.34 Y12.88 F3500.00
M300 S50.00 (pen up)
G4 P150 (wait 150ms)

(Polyline consisting of 44 segments.)
G1 X16.16 Y13.10 F3500.00
M300 S30.00 (pen down)
G4 P150 (wait 150ms)
G1 X15.06 Y14.60 F3500.00
G1 X13.96 Y16.76 F3500.00
G1 X13.22 Y18.10 F3500.00
G1 X12.48 Y17.94 F3500.00
G1 X12.20 Y17.36 F3500.00
G1 X12.82 Y15.75 F3500.00
G1 X13.84 Y14.24 F3500.00
G1 X15.27 Y13.02 F3500.00
G1 X16.48 Y12.47 F3500.00
G1 X16.62 Y12.56 F3500.00
G1 X16.16 Y13.10 F3500.00
G1 X16.16 Y13.10 F3500.00
M300 S50.00 (pen up)
G4 P150 (wait 150ms)

(Polyline consisting of 44 segments.)
G1 X18.56 Y13.20 F3500.00
M300 S30.00 (pen down)
G4 P150 (wait 150ms)
G1 X17.76 Y15.81 F3500.00
G1 X16.15 Y18.13 F3500.00
G1 X15.58 Y18.62 F3500.00
G1 X15.02 Y18.70 F3500.00
G1 X14.01 Y18.50 F3500.00
G1 X14.48 Y18.17 F3500.00
G1 X15.67 Y17.09 F3500.00
G1 X16.88 Y15.55 F3500.00
G1 X17.80 Y13.71 F3500.00
G1 X18.43 Y12.76 F3500.00
G1 X18.56 Y13.20 F3500.00
G1 X18.56 Y13.20 F3500.00
M300 S50.00 (pen up)
G4 P150 (wait 150ms)

(Polyline consisting of 44 segments.)
G1 X18.74 Y14.70 F3500.00
M300 S30.00 (pen down)
G4 P150 (wait 150ms)
G1 X18.13 Y16.81 F3500.00
G1 X16.60 Y18.20 F3500.00
G1 X16.06 Y18.48 F3500.00
G1 X16.51 Y17.96 F3500.00
G1 X17.71 Y16.20 F3500.00
G1 X18.46 Y14.30 F3500.00
G1 X18.70 Y13.80 F3500.00
G1 X18.74 Y14.70 F3500.00
M300 S50.00 (pen up)
G4 P150 (wait 150ms)

(Polyline consisting of 44 segments.)
G1 X26.12 Y10.61 F3500.00
M300 S30.00 (pen down)
G4 P150 (wait 150ms)
G1 X26.12 Y19.80 F3500.00
G1 X27.25 Y19.80 F3500.00
G1 X28.39 Y19.80 F3500.00
G1 X28.39 Y10.61 F3500.00
G1 X28.39 Y1.42 F3500.00
G1 X27.25 Y1.42 F3500.00
G1 X26.12 Y1.42 F3500.00
G1 X26.12 Y10.61 F3500.00
M300 S50.00 (pen up)
G4 P150 (wait 150ms)

(Polyline consisting of 44 segments.)
G1 X14.37 Y2.01 F3500.00
M300 S30.00 (pen down)
G4 P150 (wait 150ms)
G1 X13.77 Y2.51 F3500.00
G1 X13.57 Y3.07 F3500.00
G1 X13.89 Y3.40 F3500.00
G1 X14.48 Y3.34 F3500.00
G1 X15.28 Y2.63 F3500.00
G1 X15.35 Y2.25 F3500.00
G1 X15.15 Y1.97 F3500.00
G1 X14.37 Y2.01 F3500.00
M300 S50.00 (pen up)
G4 P150 (wait 150ms)

(Polyline consisting of 44 segments.)
G1 X15.21 Y2.23 F3500.00
M300 S30.00 (pen down)
G4 P150 (wait 150ms)
G1 X14.91 Y2.90 F3500.00
G1 X14.09 Y3.28 F3500.00
G1 X13.76 Y3.17 F3500.00
G1 X13.74 Y2.79 F3500.00
G1 X14.47 Y2.16 F3500.00
G1 X14.93 Y2.07 F3500.00
G1 X15.21 Y2.23 F3500.00
M300 S50.00 (pen up)
G4 P150 (wait 150ms)

(Polyline consisting of 44 segments.)
G1 X15.66 Y3.60 F3500.00
M300 S30.00 (pen down)
G4 P150 (wait 150ms)
G1 X15.37 Y4.33 F3500.00
G1 X15.83 Y4.70 F3500.00
G1 X16.32 Y4.37 F3500.00
G1 X16.60 Y3.78 F3500.00
G1 X16.30 Y3.30 F3500.00
G1 X15.66 Y3.60 F3500.00
M300 S50.00 (pen up)
G4 P150 (wait 150ms)

(Polyline consisting of 44 segments.)
G1 X16.37 Y3.52 F3500.00
M300 S30.00 (pen down)
G4 P150 (wait 150ms)
G1 X16.48 Y3.82 F3500.00
G1 X16.23 Y4.26 F3500.00
G1 X15.79 Y4.58 F3500.00
G1 X15.51 Y4.38 F3500.00
G1 X15.90 Y3.56 F3500.00
G1 X16.37 Y3.52 F3500.00
G1 X16.37 Y3.52 F3500.00
M300 S50.00 (pen up)
G4 P150 (wait 150ms)

(Polyline consisting of 44 segments.)
G1 X-2.65 Y10.61 F3500.00
M300 S30.00 (pen down)
G4 P150 (wait 150ms)
G1 X-2.65 Y19.80 F3500.00
G1 X-1.51 Y19.80 F3500.00
G1 X-0.37 Y19.80 F3500.00
G1 X-0.37 Y10.61 F3500.00
G1 X-0.37 Y1.42 F3500.00
G1 X-1.51 Y1.42 F3500.00
G1 X-2.65 Y1.42 F3500.00
G1 X-2.65 Y10.61 F3500.00
M300 S50.00 (pen up)
G4 P150 (wait 150ms)

(Polyline consisting of 44 segments.)
G1 X9.30 Y1.64 F3500.00
M300 S30.00 (pen down)
G4 P150 (wait 150ms)
G1 X9.43 Y1.83 F3500.00
G1 X9.27 Y1.86 F3500.00
G1 X9.04 Y2.24 F3500.00
G1 X9.27 Y2.87 F3500.00
G1 X9.76 Y3.17 F3500.00
G1 X10.29 Y2.68 F3500.00
G1 X10.39 Y2.49 F3500.00
G1 X10.65 Y1.93 F3500.00
G1 X10.70 Y1.47 F3500.00
G1 X10.54 Y1.86 F3500.00
G1 X10.40 Y2.24 F3500.00
G1 X9.76 Y1.85 F3500.00
G1 X9.20 Y1.44 F3500.00
G1 X9.30 Y1.64 F3500.00
G1 X9.30 Y1.64 F3500.00
M300 S50.00 (pen up)
G4 P150 (wait 150ms)

(Polyline consisting of 44 segments.)
G1 X9.86 Y2.25 F3500.00
M300 S30.00 (pen down)
G4 P150 (wait 150ms)
G1 X10.17 Y2.68 F3500.00
G1 X9.92 Y2.97 F3500.00
G1 X9.40 Y2.84 F3500.00
G1 X9.14 Y2.28 F3500.00
G1 X9.35 Y1.97 F3500.00
G1 X9.86 Y2.25 F3500.00
M300 S50.00 (pen up)
G4 P150 (wait 150ms)

(Polyline consisting of 44 segments.)
G1 X26.12 Y10.61 F3500.00
M300 S30.00 (pen down)
G4 P150 (wait 150ms)
G1 X26.12 Y19.80 F3500.00
G1 X27.25 Y19.80 F3500.00
G1 X28.39 Y19.80 F3500.00
G1 X28.39 Y10.61 F3500.00
G1 X28.39 Y1.42 F3500.00
G1 X27.25 Y1.42 F3500.00
G1 X26.12 Y1.42 F3500.00
G1 X26.12 Y10.61 F3500.00
M300 S50.00 (pen up)
G4 P150 (wait 150ms)

(Polyline consisting of 44 segments.)
G1 X6.41 Y1.91 F3500.00
M300 S30.00 (pen down)
G4 P150 (wait 150ms)
G1 X9.51 Y4.71 F3500.00
G1 X10.48 Y5.87 F3500.00
G1 X9.84 Y5.74 F3500.00
G1 X9.37 Y5.66 F3500.00
G1 X9.30 Y6.39 F3500.00
G1 X9.44 Y8.17 F3500.00
G1 X10.55 Y9.26 F3500.00
G1 X11.00 Y9.60 F3500.00
G1 X10.34 Y9.48 F3500.00
G1 X8.76 Y8.62 F3500.00
G1 X8.25 Y7.40 F3500.00
G1 X8.37 Y5.84 F3500.00
G1 X8.51 Y5.28 F3500.00
G1 X8.30 Y5.42 F3500.00
G1 X7.76 Y6.51 F3500.00
G1 X7.85 Y7.86 F3500.00
G1 X8.79 Y9.23 F3500.00
G1 X10.52 Y10.00 F3500.00
G1 X10.74 Y10.10 F3500.00
G1 X10.66 Y10.37 F3500.00
G1 X10.17 Y11.70 F3500.00
G1 X9.82 Y13.84 F3500.00
G1 X10.10 Y15.56 F3500.00
G1 X11.43 Y17.29 F3500.00
G1 X13.08 Y18.33 F3500.00
G1 X13.71 Y18.55 F3500.00
G1 X15.04 Y18.85 F3500.00
G1 X16.66 Y18.31 F3500.00
G1 X17.79 Y17.48 F3500.00
G1 X18.55 Y16.32 F3500.00
G1 X18.82 Y14.49 F3500.00
G1 X18.57 Y12.74 F3500.00
G1 X18.31 Y11.32 F3500.00
G1 X18.15 Y9.89 F3500.00
G1 X18.14 Y8.96 F3500.00
G1 X18.27 Y6.08 F3500.00
G1 X18.14 Y6.69 F3500.00
G1 X18.13 Y7.38 F3500.00
G1 X17.95 Y6.94 F3500.00
G1 X17.56 Y6.34 F3500.00
G1 X16.99 Y6.28 F3500.00
G1 X16.23 Y6.56 F3500.00
G1 X15.91 Y6.77 F3500.00
G1 X15.95 Y6.45 F3500.00
G1 X16.08 Y6.16 F3500.00
G1 X16.72 Y6.12 F3500.00
G1 X18.05 Y5.74 F3500.00
G1 X18.83 Y4.24 F3500.00
G1 X19.46 Y2.47 F3500.00
G1 X19.75 Y1.55 F3500.00
G1 X19.26 Y2.62 F3500.00
G1 X19.19 Y2.51 F3500.00
G1 X19.01 Y1.98 F3500.00
G1 X18.74 Y1.85 F3500.00
G1 X18.41 Y1.97 F3500.00
G1 X17.77 Y2.35 F3500.00
G1 X17.59 Y3.12 F3500.00
G1 X17.86 Y3.38 F3500.00
G1 X18.28 Y3.05 F3500.00
G1 X18.73 Y2.81 F3500.00
G1 X19.06 Y2.87 F3500.00
G1 X18.99 Y3.35 F3500.00
G1 X18.62 Y4.46 F3500.00
G1 X18.43 Y4.93 F3500.00
G1 X18.20 Y4.96 F3500.00
G1 X17.63 Y5.26 F3500.00
G1 X17.26 Y5.82 F3500.00
G1 X16.66 Y6.01 F3500.00
G1 X16.12 Y6.01 F3500.00
G1 X16.16 Y5.65 F3500.00
G1 X16.05 Y5.13 F3500.00
G1 X15.63 Y4.92 F3500.00
G1 X13.85 Y5.79 F3500.00
G1 X12.74 Y6.16 F3500.00
G1 X12.35 Y6.08 F3500.00
G1 X12.45 Y5.94 F3500.00
G1 X12.66 Y5.57 F3500.00
G1 X12.47 Y5.20 F3500.00
G1 X12.05 Y4.99 F3500.00
G1 X11.54 Y5.07 F3500.00
G1 X11.19 Y5.41 F3500.00
G1 X11.22 Y5.80 F3500.00
G1 X11.23 Y6.02 F3500.00
G1 X10.92 Y5.88 F3500.00
G1 X9.86 Y4.90 F3500.00
G1 X8.51 Y3.49 F3500.00
G1 X7.97 Y2.96 F3500.00
G1 X8.05 Y2.84 F3500.00
G1 X8.41 Y2.68 F3500.00
G1 X8.48 Y2.30 F3500.00
G1 X7.68 Y1.64 F3500.00
G1 X7.40 Y1.88 F3500.00
G1 X7.40 Y2.32 F3500.00
G1 X7.39 Y2.48 F3500.00
G1 X6.76 Y2.02 F3500.00
G1 X6.01 Y1.53 F3500.00
G1 X6.41 Y1.91 F3500.00
G1 X6.41 Y1.91 F3500.00
M300 S50.00 (pen up)
G4 P150 (wait 150ms)

(Polyline consisting of 44 segments.)
G1 X8.02 Y1.89 F3500.00
M300 S30.00 (pen down)
G4 P150 (wait 150ms)
G1 X8.36 Y2.64 F3500.00
G1 X7.99 Y2.69 F3500.00
G1 X7.76 Y2.76 F3500.00
G1 X7.69 Y2.77 F3500.00
G1 X7.55 Y1.85 F3500.00
G1 X8.02 Y1.89 F3500.00
G1 X8.02 Y1.89 F3500.00
M300 S50.00 (pen up)
G4 P150 (wait 150ms)

(Polyline consisting of 44 segments.)
G1 X19.08 Y2.53 F3500.00
M300 S30.00 (pen down)
G4 P150 (wait 150ms)
G1 X18.94 Y2.73 F3500.00
G1 X18.71 Y2.62 F3500.00
G1 X18.72 Y2.21 F3500.00
G1 X18.80 Y1.98 F3500.00
G1 X18.93 Y2.12 F3500.00
G1 X19.08 Y2.53 F3500.00
G1 X19.08 Y2.53 F3500.00
M300 S50.00 (pen up)
G4 P150 (wait 150ms)

(Polyline consisting of 44 segments.)
G1 X18.56 Y2.21 F3500.00
M300 S30.00 (pen down)
G4 P150 (wait 150ms)
G1 X17.81 Y3.28 F3500.00
G1 X17.81 Y2.45 F3500.00
G1 X18.26 Y2.13 F3500.00
G1 X18.56 Y2.21 F3500.00
G1 X18.56 Y2.21 F3500.00
M300 S50.00 (pen up)
G4 P150 (wait 150ms)

(Polyline consisting of 44 segments.)
G1 X12.50 Y5.40 F3500.00
M300 S30.00 (pen down)
G4 P150 (wait 150ms)
G1 X12.37 Y5.80 F3500.00
G1 X11.91 Y6.01 F3500.00
G1 X11.45 Y5.84 F3500.00
G1 X11.33 Y5.45 F3500.00
G1 X11.91 Y5.11 F3500.00
G1 X12.50 Y5.40 F3500.00
M300 S50.00 (pen up)
G4 P150 (wait 150ms)

(Polyline consisting of 44 segments.)
G1 X15.98 Y5.19 F3500.00
M300 S30.00 (pen down)
G4 P150 (wait 150ms)
G1 X16.04 Y5.60 F3500.00
G1 X15.86 Y6.42 F3500.00
G1 X15.46 Y7.00 F3500.00
G1 X13.83 Y7.62 F3500.00
G1 X13.70 Y7.45 F3500.00
G1 X13.53 Y6.77 F3500.00
G1 X13.41 Y6.35 F3500.00
G1 X13.61 Y6.11 F3500.00
G1 X15.66 Y5.03 F3500.00
G1 X15.98 Y5.19 F3500.00
G1 X15.98 Y5.19 F3500.00
M300 S50.00 (pen up)
G4 P150 (wait 150ms)

(Polyline consisting of 44 segments.)
G1 X18.31 Y5.14 F3500.00
M300 S30.00 (pen down)
G4 P150 (wait 150ms)
G1 X17.53 Y5.94 F3500.00
G1 X17.44 Y5.76 F3500.00
G1 X17.92 Y5.13 F3500.00
G1 X18.31 Y5.14 F3500.00
M300 S50.00 (pen up)
G4 P150 (wait 150ms)

(Polyline consisting of 44 segments.)
G1 X8.20 Y6.09 F3500.00
M300 S30.00 (pen down)
G4 P150 (wait 150ms)
G1 X8.13 Y7.22 F3500.00
G1 X8.30 Y8.08 F3500.00
G1 X8.71 Y8.74 F3500.00
G1 X10.39 Y9.61 F3500.00
G1 X11.02 Y9.87 F3500.00
G1 X10.40 Y9.85 F3500.00
G1 X9.15 Y9.33 F3500.00
G1 X8.26 Y8.44 F3500.00
G1 X7.84 Y7.35 F3500.00
G1 X7.99 Y6.20 F3500.00
G1 X8.24 Y5.71 F3500.00
G1 X8.20 Y6.09 F3500.00
G1 X8.20 Y6.09 F3500.00
M300 S50.00 (pen up)
G4 P150 (wait 150ms)

(Polyline consisting of 44 segments.)
G1 X10.93 Y6.12 F3500.00
M300 S30.00 (pen down)
G4 P150 (wait 150ms)
G1 X11.98 Y6.26 F3500.00
G1 X13.12 Y6.41 F3500.00
G1 X13.55 Y7.33 F3500.00
G1 X13.56 Y7.78 F3500.00
G1 X13.30 Y8.07 F3500.00
G1 X12.98 Y8.32 F3500.00
G1 X12.91 Y7.87 F3500.00
G1 X12.62 Y7.09 F3500.00
G1 X11.78 Y6.37 F3500.00
G1 X12.02 Y6.60 F3500.00
G1 X12.50 Y7.05 F3500.00
G1 X12.60 Y7.36 F3500.00
G1 X12.26 Y7.83 F3500.00
G1 X11.62 Y8.92 F3500.00
G1 X11.30 Y9.52 F3500.00
G1 X10.01 Y8.72 F3500.00
G1 X9.42 Y7.77 F3500.00
G1 X9.42 Y6.30 F3500.00
G1 X9.49 Y5.78 F3500.00
G1 X9.91 Y5.86 F3500.00
G1 X10.93 Y6.12 F3500.00
G1 X10.93 Y6.12 F3500.00
M300 S50.00 (pen up)
G4 P150 (wait 150ms)

(Polyline consisting of 44 segments.)
G1 X17.77 Y6.87 F3500.00
M300 S30.00 (pen down)
G4 P150 (wait 150ms)
G1 X17.93 Y8.35 F3500.00
G1 X17.78 Y8.86 F3500.00
G1 X15.98 Y6.92 F3500.00
G1 X16.89 Y6.45 F3500.00
G1 X17.43 Y6.48 F3500.00
G1 X17.77 Y6.87 F3500.00
G1 X17.77 Y6.87 F3500.00
M300 S50.00 (pen up)
G4 P150 (wait 150ms)

(Polyline consisting of 44 segments.)
G1 X16.08 Y7.27 F3500.00
M300 S30.00 (pen down)
G4 P150 (wait 150ms)
G1 X17.20 Y8.45 F3500.00
G1 X17.94 Y9.72 F3500.00
G1 X17.73 Y9.79 F3500.00
G1 X16.54 Y10.06 F3500.00
G1 X16.54 Y9.65 F3500.00
G1 X16.49 Y9.29 F3500.00
G1 X16.15 Y9.21 F3500.00
G1 X15.65 Y9.29 F3500.00
G1 X15.46 Y9.61 F3500.00
G1 X15.61 Y9.55 F3500.00
G1 X16.10 Y9.33 F3500.00
G1 X16.45 Y9.50 F3500.00
G1 X16.40 Y9.99 F3500.00
G1 X16.11 Y10.27 F3500.00
G1 X15.58 Y10.13 F3500.00
G1 X13.42 Y9.52 F3500.00
G1 X12.56 Y9.82 F3500.00
G1 X12.05 Y11.21 F3500.00
G1 X12.21 Y11.87 F3500.00
G1 X12.44 Y13.07 F3500.00
G1 X12.56 Y13.13 F3500.00
G1 X12.65 Y13.07 F3500.00
G1 X12.57 Y13.39 F3500.00
G1 X12.36 Y13.11 F3500.00
G1 X11.82 Y12.10 F3500.00
G1 X11.95 Y9.90 F3500.00
G1 X12.81 Y8.68 F3500.00
G1 X14.34 Y7.56 F3500.00
G1 X15.38 Y7.14 F3500.00
G1 X16.08 Y7.27 F3500.00
G1 X16.08 Y7.27 F3500.00
M300 S50.00 (pen up)
G4 P150 (wait 150ms)

(Polyline consisting of 44 segments.)
G1 X15.22 Y8.25 F3500.00
M300 S30.00 (pen down)
G4 P150 (wait 150ms)
G1 X14.67 Y8.63 F3500.00
G1 X14.40 Y8.85 F3500.00
G1 X15.42 Y8.84 F3500.00
G1 X16.73 Y8.95 F3500.00
G1 X17.00 Y8.99 F3500.00
G1 X16.85 Y8.66 F3500.00
G1 X16.11 Y8.15 F3500.00
G1 X15.22 Y8.25 F3500.00
G1 X15.22 Y8.25 F3500.00
M300 S50.00 (pen up)
G4 P150 (wait 150ms)

(Polyline consisting of 44 segments.)
G1 X16.34 Y8.37 F3500.00
M300 S30.00 (pen down)
G4 P150 (wait 150ms)
G1 X16.48 Y8.51 F3500.00
G1 X16.29 Y8.49 F3500.00
G1 X15.61 Y8.42 F3500.00
G1 X15.41 Y8.31 F3500.00
G1 X16.34 Y8.37 F3500.00
M300 S50.00 (pen up)
G4 P150 (wait 150ms)

(Polyline consisting of 44 segments.)
G1 X16.34 Y8.64 F3500.00
M300 S30.00 (pen down)
G4 P150 (wait 150ms)
G1 X16.56 Y8.71 F3500.00
G1 X16.39 Y8.73 F3500.00
G1 X15.67 Y8.65 F3500.00
G1 X15.20 Y8.56 F3500.00
G1 X15.61 Y8.56 F3500.00
G1 X16.34 Y8.64 F3500.00
G1 X16.34 Y8.64 F3500.00
M300 S50.00 (pen up)
G4 P150 (wait 150ms)

(Polyline consisting of 44 segments.)
G1 X18.22 Y7.90 F3500.00
M300 S30.00 (pen down)
G4 P150 (wait 150ms)
G1 X18.17 Y7.76 F3500.00
G1 X18.22 Y7.63 F3500.00
G1 X18.22 Y7.90 F3500.00
G1 X18.22 Y7.90 F3500.00
M300 S50.00 (pen up)
G4 P150 (wait 150ms)

(Polyline consisting of 44 segments.)
G1 X12.77 Y8.07 F3500.00
M300 S30.00 (pen down)
G4 P150 (wait 150ms)
G1 X12.45 Y8.86 F3500.00
G1 X12.20 Y9.14 F3500.00
G1 X12.20 Y8.97 F3500.00
G1 X12.73 Y7.66 F3500.00
G1 X12.77 Y8.07 F3500.00
G1 X12.77 Y8.07 F3500.00
M300 S50.00 (pen up)
G4 P150 (wait 150ms)

(Polyline consisting of 44 segments.)
G1 X12.25 Y8.43 F3500.00
M300 S30.00 (pen down)
G4 P150 (wait 150ms)
G1 X11.61 Y11.46 F3500.00
G1 X11.45 Y12.14 F3500.00
G1 X11.32 Y11.16 F3500.00
G1 X11.55 Y9.62 F3500.00
G1 X12.07 Y8.29 F3500.00
G1 X12.43 Y7.81 F3500.00
G1 X12.25 Y8.43 F3500.00
M300 S50.00 (pen up)
G4 P150 (wait 150ms)

(Polyline consisting of 44 segments.)
G1 X18.10 Y8.63 F3500.00
M300 S30.00 (pen down)
G4 P150 (wait 150ms)
G1 X17.92 Y9.15 F3500.00
G1 X17.88 Y8.96 F3500.00
G1 X18.01 Y8.39 F3500.00
G1 X18.12 Y8.15 F3500.00
G1 X18.10 Y8.63 F3500.00
G1 X18.10 Y8.63 F3500.00
M300 S50.00 (pen up)
G4 P150 (wait 150ms)

(Polyline consisting of 44 segments.)
G1 X13.33 Y9.90 F3500.00
M300 S30.00 (pen down)
G4 P150 (wait 150ms)
G1 X13.77 Y10.24 F3500.00
G1 X14.36 Y10.08 F3500.00
G1 X14.71 Y9.86 F3500.00
G1 X15.25 Y10.13 F3500.00
G1 X16.03 Y10.38 F3500.00
G1 X16.71 Y10.16 F3500.00
G1 X17.16 Y9.97 F3500.00
G1 X17.31 Y10.25 F3500.00
G1 X17.59 Y10.49 F3500.00
G1 X17.96 Y10.32 F3500.00
G1 X18.12 Y10.30 F3500.00
G1 X18.15 Y11.13 F3500.00
G1 X18.15 Y12.11 F3500.00
G1 X17.79 Y12.17 F3500.00
G1 X16.90 Y12.02 F3500.00
G1 X15.93 Y11.88 F3500.00
G1 X15.13 Y11.94 F3500.00
G1 X14.56 Y12.02 F3500.00
G1 X14.26 Y12.39 F3500.00
G1 X14.05 Y12.72 F3500.00
G1 X13.52 Y12.80 F3500.00
G1 X12.73 Y12.47 F3500.00
G1 X12.27 Y11.68 F3500.00
G1 X12.23 Y10.72 F3500.00
G1 X12.69 Y9.90 F3500.00
G1 X13.07 Y9.64 F3500.00
G1 X13.33 Y9.90 F3500.00
G1 X13.33 Y9.90 F3500.00
M300 S50.00 (pen up)
G4 P150 (wait 150ms)

(Polyline consisting of 44 segments.)
G1 X13.26 Y10.67 F3500.00
M300 S30.00 (pen down)
G4 P150 (wait 150ms)
G1 X12.97 Y11.07 F3500.00
G1 X13.21 Y11.45 F3500.00
G1 X13.77 Y11.68 F3500.00
G1 X14.46 Y11.60 F3500.00
G1 X15.04 Y10.79 F3500.00
G1 X14.72 Y10.62 F3500.00
G1 X13.26 Y10.67 F3500.00
M300 S50.00 (pen up)
G4 P150 (wait 150ms)

(Polyline consisting of 44 segments.)
G1 X14.57 Y10.72 F3500.00
M300 S30.00 (pen down)
G4 P150 (wait 150ms)
G1 X14.84 Y10.98 F3500.00
G1 X13.99 Y11.59 F3500.00
G1 X13.08 Y11.11 F3500.00
G1 X13.60 Y10.67 F3500.00
G1 X14.57 Y10.72 F3500.00
G1 X14.57 Y10.72 F3500.00
M300 S50.00 (pen up)
G4 P150 (wait 150ms)

(Polyline consisting of 44 segments.)
G1 X13.77 Y10.90 F3500.00
M300 S30.00 (pen down)
G4 P150 (wait 150ms)
G1 X13.84 Y11.41 F3500.00
G1 X14.18 Y11.32 F3500.00
G1 X14.23 Y11.00 F3500.00
G1 X13.77 Y10.90 F3500.00
M300 S50.00 (pen up)
G4 P150 (wait 150ms)

(Polyline consisting of 44 segments.)
G1 X16.62 Y10.73 F3500.00
M300 S30.00 (pen down)
G4 P150 (wait 150ms)
G1 X16.29 Y10.93 F3500.00
G1 X16.70 Y10.87 F3500.00
G1 X17.29 Y10.79 F3500.00
G1 X17.84 Y11.34 F3500.00
G1 X17.12 Y11.64 F3500.00
G1 X17.09 Y11.52 F3500.00
G1 X17.05 Y10.97 F3500.00
G1 X16.75 Y11.08 F3500.00
G1 X16.51 Y11.13 F3500.00
G1 X16.39 Y11.13 F3500.00
G1 X17.13 Y11.76 F3500.00
G1 X17.66 Y11.69 F3500.00
G1 X17.94 Y11.32 F3500.00
G1 X17.53 Y10.76 F3500.00
G1 X16.62 Y10.73 F3500.00
G1 X16.62 Y10.73 F3500.00
M300 S50.00 (pen up)
G4 P150 (wait 150ms)

(Polyline consisting of 44 segments.)
G1 X15.56 Y10.92 F3500.00
M300 S30.00 (pen down)
G4 P150 (wait 150ms)
G1 X15.39 Y11.29 F3500.00
G1 X15.71 Y11.61 F3500.00
G1 X16.23 Y11.56 F3500.00
G1 X16.18 Y10.93 F3500.00
G1 X15.93 Y10.73 F3500.00
G1 X15.56 Y10.92 F3500.00
G1 X15.56 Y10.92 F3500.00
M300 S50.00 (pen up)
G4 P150 (wait 150ms)

(Polyline consisting of 44 segments.)
G1 X16.18 Y11.27 F3500.00
M300 S30.00 (pen down)
G4 P150 (wait 150ms)
G1 X16.05 Y11.54 F3500.00
G1 X15.69 Y11.42 F3500.00
G1 X15.42 Y11.23 F3500.00
G1 X15.66 Y11.03 F3500.00
G1 X16.02 Y10.93 F3500.00
G1 X16.18 Y11.27 F3500.00
G1 X16.18 Y11.27 F3500.00
M300 S50.00 (pen up)
G4 P150 (wait 150ms)

(Polyline consisting of 44 segments.)
G1 X14.10 Y9.69 F3500.00
M300 S30.00 (pen down)
G4 P150 (wait 150ms)
G1 X14.41 Y9.86 F3500.00
G1 X14.17 Y10.06 F3500.00
G1 X13.68 Y10.07 F3500.00
G1 X13.35 Y9.80 F3500.00
G1 X13.49 Y9.63 F3500.00
G1 X14.10 Y9.69 F3500.00
M300 S50.00 (pen up)
G4 P150 (wait 150ms)

(Polyline consisting of 44 segments.)
G1 X11.24 Y10.77 F3500.00
M300 S30.00 (pen down)
G4 P150 (wait 150ms)
G1 X10.93 Y11.68 F3500.00
G1 X10.60 Y11.45 F3500.00
G1 X10.61 Y10.80 F3500.00
G1 X11.29 Y9.80 F3500.00
G1 X11.24 Y10.77 F3500.00
G1 X11.24 Y10.77 F3500.00
M300 S50.00 (pen up)
G4 P150 (wait 150ms)

(Polyline consisting of 44 segments.)
G1 X10.87 Y10.79 F3500.00
M300 S30.00 (pen down)
G4 P150 (wait 150ms)
G1 X10.88 Y11.30 F3500.00
G1 X10.96 Y11.04 F3500.00
G1 X10.95 Y10.72 F3500.00
G1 X10.87 Y10.79 F3500.00
M300 S50.00 (pen up)
G4 P150 (wait 150ms)

(Polyline consisting of 44 segments.)
G1 X17.94 Y10.05 F3500.00
M300 S30.00 (pen down)
G4 P150 (wait 150ms)
G1 X17.79 Y10.28 F3500.00
G1 X17.48 Y10.28 F3500.00
G1 X17.34 Y10.04 F3500.00
G1 X17.63 Y9.95 F3500.00
G1 X17.94 Y10.05 F3500.00
M300 S50.00 (pen up)
G4 P150 (wait 150ms)

(Polyline consisting of 44 segments.)
G1 X10.62 Y12.50 F3500.00
M300 S30.00 (pen down)
G4 P150 (wait 150ms)
G1 X10.53 Y14.07 F3500.00
G1 X10.80 Y15.85 F3500.00
G1 X10.97 Y16.70 F3500.00
G1 X10.56 Y16.15 F3500.00
G1 X9.90 Y14.11 F3500.00
G1 X10.34 Y11.61 F3500.00
G1 X10.58 Y11.64 F3500.00
G1 X10.62 Y12.50 F3500.00
M300 S50.00 (pen up)
G4 P150 (wait 150ms)

(Polyline consisting of 44 segments.)
G1 X11.45 Y13.40 F3500.00
M300 S30.00 (pen down)
G4 P150 (wait 150ms)
G1 X11.36 Y14.88 F3500.00
G1 X11.57 Y16.63 F3500.00
G1 X11.69 Y17.36 F3500.00
G1 X11.45 Y17.17 F3500.00
G1 X10.83 Y15.41 F3500.00
G1 X10.64 Y13.09 F3500.00
G1 X10.94 Y11.89 F3500.00
G1 X11.15 Y11.84 F3500.00
G1 X11.39 Y12.17 F3500.00
G1 X11.45 Y13.40 F3500.00
M300 S50.00 (pen up)
G4 P150 (wait 150ms)

(Polyline consisting of 44 segments.)
G1 X17.06 Y12.22 F3500.00
M300 S30.00 (pen down)
G4 P150 (wait 150ms)
G1 X17.12 Y12.41 F3500.00
G1 X16.92 Y12.38 F3500.00
G1 X16.18 Y12.37 F3500.00
G1 X14.95 Y12.68 F3500.00
G1 X13.97 Y13.23 F3500.00
G1 X13.46 Y13.47 F3500.00
G1 X13.35 Y13.50 F3500.00
G1 X13.18 Y13.88 F3500.00
G1 X13.47 Y13.79 F3500.00
G1 X15.06 Y12.78 F3500.00
G1 X15.48 Y12.67 F3500.00
G1 X14.71 Y13.28 F3500.00
G1 X13.16 Y14.92 F3500.00
G1 X12.15 Y17.05 F3500.00
G1 X11.92 Y17.54 F3500.00
G1 X11.67 Y16.52 F3500.00
G1 X11.49 Y14.48 F3500.00
G1 X11.71 Y12.80 F3500.00
G1 X11.91 Y12.20 F3500.00
G1 X12.07 Y12.58 F3500.00
G1 X12.35 Y13.56 F3500.00
G1 X12.56 Y14.25 F3500.00
G1 X12.68 Y13.67 F3500.00
G1 X12.58 Y12.69 F3500.00
G1 X12.46 Y12.47 F3500.00
G1 X12.63 Y12.61 F3500.00
G1 X13.35 Y12.90 F3500.00
G1 X13.68 Y13.00 F3500.00
G1 X13.20 Y13.29 F3500.00
G1 X12.84 Y13.37 F3500.00
G1 X12.78 Y13.54 F3500.00
G1 X12.85 Y13.87 F3500.00
G1 X13.11 Y13.55 F3500.00
G1 X13.43 Y13.27 F3500.00
G1 X13.92 Y13.09 F3500.00
G1 X15.92 Y12.04 F3500.00
G1 X17.06 Y12.22 F3500.00
G1 X17.06 Y12.22 F3500.00
M300 S50.00 (pen up)
G4 P150 (wait 150ms)

(Polyline consisting of 44 segments.)
G1 X15.25 Y12.12 F3500.00
M300 S30.00 (pen down)
G4 P150 (wait 150ms)
G1 X14.79 Y12.45 F3500.00
G1 X14.32 Y12.53 F3500.00
G1 X14.55 Y12.20 F3500.00
G1 X15.25 Y12.12 F3500.00
M300 S50.00 (pen up)
G4 P150 (wait 150ms)

(Polyline consisting of 44 segments.)
G1 X18.41 Y12.70 F3500.00
M300 S30.00 (pen down)
G4 P150 (wait 150ms)
G1 X18.49 Y13.72 F3500.00
G1 X17.21 Y16.77 F3500.00
G1 X15.95 Y18.35 F3500.00
G1 X14.91 Y18.70 F3500.00
G1 X14.01 Y18.46 F3500.00
G1 X14.59 Y18.07 F3500.00
G1 X16.80 Y15.66 F3500.00
G1 X18.23 Y12.57 F3500.00
G1 X17.90 Y13.20 F3500.00
G1 X16.67 Y15.60 F3500.00
G1 X15.14 Y17.46 F3500.00
G1 X13.65 Y18.34 F3500.00
G1 X13.55 Y18.06 F3500.00
G1 X13.98 Y16.99 F3500.00
G1 X15.75 Y13.79 F3500.00
G1 X17.06 Y12.62 F3500.00
G1 X18.01 Y12.27 F3500.00
G1 X18.41 Y12.70 F3500.00
M300 S50.00 (pen up)
G4 P150 (wait 150ms)

(Polyline consisting of 44 segments.)
G1 X16.16 Y13.11 F3500.00
M300 S30.00 (pen down)
G4 P150 (wait 150ms)
G1 X15.06 Y14.61 F3500.00
G1 X13.94 Y16.80 F3500.00
G1 X13.28 Y18.25 F3500.00
G1 X12.96 Y18.15 F3500.00
G1 X12.15 Y17.58 F3500.00
G1 X13.07 Y15.28 F3500.00
G1 X14.78 Y13.37 F3500.00
G1 X16.47 Y12.47 F3500.00
G1 X16.60 Y12.57 F3500.00
G1 X16.16 Y13.11 F3500.00
M300 S50.00 (pen up)
G4 P150 (wait 150ms)

(Polyline consisting of 44 segments.)
G1 X18.77 Y14.42 F3500.00
M300 S30.00 (pen down)
G4 P150 (wait 150ms)
G1 X18.63 Y15.64 F3500.00
G1 X18.22 Y16.68 F3500.00
G1 X17.53 Y17.55 F3500.00
G1 X16.58 Y18.22 F3500.00
G1 X16.03 Y18.51 F3500.00
G1 X16.58 Y17.88 F3500.00
G1 X17.59 Y16.39 F3500.00
G1 X18.32 Y14.65 F3500.00
G1 X18.69 Y13.68 F3500.00
G1 X18.77 Y14.42 F3500.00
M300 S50.00 (pen up)
G4 P150 (wait 150ms)

(Polyline consisting of 44 segments.)
G1 X14.37 Y2.01 F3500.00
M300 S30.00 (pen down)
G4 P150 (wait 150ms)
G1 X13.80 Y2.47 F3500.00
G1 X13.61 Y3.02 F3500.00
G1 X14.04 Y3.37 F3500.00
G1 X14.67 Y3.23 F3500.00
G1 X15.16 Y2.83 F3500.00
G1 X15.37 Y2.35 F3500.00
G1 X15.15 Y1.97 F3500.00
G1 X14.37 Y2.01 F3500.00
G1 X14.37 Y2.01 F3500.00
M300 S50.00 (pen up)
G4 P150 (wait 150ms)

(Polyline consisting of 44 segments.)
G1 X15.25 Y2.40 F3500.00
M300 S30.00 (pen down)
G4 P150 (wait 150ms)
G1 X14.93 Y2.89 F3500.00
G1 X14.15 Y3.28 F3500.00
G1 X13.72 Y3.00 F3500.00
G1 X13.90 Y2.51 F3500.00
G1 X14.47 Y2.14 F3500.00
G1 X15.04 Y2.08 F3500.00
G1 X15.25 Y2.40 F3500.00
M300 S50.00 (pen up)
G4 P150 (wait 150ms)

(Polyline consisting of 44 segments.)
G1 X15.66 Y3.60 F3500.00
M300 S30.00 (pen down)
G4 P150 (wait 150ms)
G1 X15.37 Y4.33 F3500.00
G1 X15.80 Y4.70 F3500.00
G1 X16.30 Y4.37 F3500.00
G1 X16.60 Y3.80 F3500.00
G1 X16.30 Y3.30 F3500.00
G1 X15.66 Y3.60 F3500.00
M300 S50.00 (pen up)
G4 P150 (wait 150ms)

(Polyline consisting of 44 segments.)
G1 X16.33 Y3.45 F3500.00
M300 S30.00 (pen down)
G4 P150 (wait 150ms)
G1 X16.49 Y3.72 F3500.00
G1 X15.77 Y4.59 F3500.00
G1 X15.51 Y4.19 F3500.00
G1 X15.86 Y3.53 F3500.00
G1 X16.33 Y3.45 F3500.00
M300 S50.00 (pen up)
G4 P150 (wait 150ms)

(Polyline consisting of 33 segments.)
G1 X-2.65 Y10.61 F3500.00
M300 S30.00 (pen down)
G4 P150 (wait 150ms)
G1 X-2.65 Y19.80 F3500.00
G1 X-1.51 Y19.80 F3500.00
G1 X-0.37 Y19.80 F3500.00
G1 X-0.37 Y10.61 F3500.00
G1 X-0.37 Y1.42 F3500.00
G1 X-1.51 Y1.42 F3500.00
G1 X-2.65 Y1.42 F3500.00
G1 X-2.65 Y10.61 F3500.00
M300 S50.00 (pen up)
G4 P150 (wait 150ms)

(Polyline consisting of 33 segments.)
G1 X9.29 Y1.62 F3500.00
M300 S30.00 (pen down)
G4 P150 (wait 150ms)
G1 X9.44 Y1.83 F3500.00
G1 X9.27 Y1.86 F3500.00
G1 X9.04 Y2.24 F3500.00
G1 X9.27 Y2.87 F3500.00
G1 X9.76 Y3.17 F3500.00
G1 X10.13 Y2.98 F3500.00
G1 X10.25 Y2.60 F3500.00
G1 X10.34 Y2.45 F3500.00
G1 X10.60 Y2.04 F3500.00
G1 X10.78 Y1.48 F3500.00
G1 X10.72 Y1.46 F3500.00
G1 X10.54 Y1.86 F3500.00
G1 X10.34 Y2.23 F3500.00
G1 X9.84 Y1.94 F3500.00
G1 X9.26 Y1.48 F3500.00
G1 X9.29 Y1.62 F3500.00
G1 X9.29 Y1.62 F3500.00
M300 S50.00 (pen up)
G4 P150 (wait 150ms)

(Polyline consisting of 33 segments.)
G1 X9.90 Y2.29 F3500.00
M300 S30.00 (pen down)
G4 P150 (wait 150ms)
G1 X10.12 Y2.81 F3500.00
G1 X9.53 Y2.97 F3500.00
G1 X9.15 Y2.29 F3500.00
G1 X9.35 Y1.97 F3500.00
G1 X9.90 Y2.29 F3500.00
G1 X9.90 Y2.29 F3500.00
M300 S50.00 (pen up)
G4 P150 (wait 150ms)

(Polyline consisting of 33 segments.)
G1 X26.12 Y10.61 F3500.00
M300 S30.00 (pen down)
G4 P150 (wait 150ms)
G1 X26.12 Y19.80 F3500.00
G1 X27.25 Y19.80 F3500.00
G1 X28.39 Y19.80 F3500.00
G1 X28.39 Y10.61 F3500.00
G1 X28.39 Y1.42 F3500.00
G1 X27.25 Y1.42 F3500.00
G1 X26.12 Y1.42 F3500.00
G1 X26.12 Y10.61 F3500.00
M300 S50.00 (pen up)
G4 P150 (wait 150ms)

(Polyline consisting of 33 segments.)
G1 X6.83 Y2.21 F3500.00
M300 S30.00 (pen down)
G4 P150 (wait 150ms)
G1 X9.11 Y4.33 F3500.00
G1 X10.48 Y5.87 F3500.00
G1 X9.84 Y5.74 F3500.00
G1 X9.37 Y5.66 F3500.00
G1 X9.30 Y6.39 F3500.00
G1 X9.44 Y8.16 F3500.00
G1 X10.55 Y9.27 F3500.00
G1 X11.16 Y9.64 F3500.00
G1 X10.70 Y9.57 F3500.00
G1 X9.31 Y9.04 F3500.00
G1 X8.38 Y8.04 F3500.00
G1 X8.25 Y7.82 F3500.00
G1 X8.28 Y7.98 F3500.00
G1 X9.03 Y9.01 F3500.00
G1 X10.51 Y9.64 F3500.00
G1 X11.03 Y9.87 F3500.00
G1 X9.38 Y9.47 F3500.00
G1 X8.59 Y8.87 F3500.00
G1 X8.06 Y8.09 F3500.00
G1 X7.82 Y7.22 F3500.00
G1 X7.92 Y6.33 F3500.00
G1 X8.13 Y5.92 F3500.00
G1 X8.16 Y6.74 F3500.00
G1 X8.13 Y7.71 F3500.00
G1 X8.21 Y6.83 F3500.00
G1 X8.41 Y5.58 F3500.00
G1 X8.52 Y5.19 F3500.00
G1 X8.22 Y5.54 F3500.00
G1 X7.72 Y6.75 F3500.00
G1 X8.02 Y8.19 F3500.00
G1 X8.95 Y9.35 F3500.00
G1 X10.52 Y10.00 F3500.00
G1 X10.70 Y10.28 F3500.00
G1 X9.90 Y12.74 F3500.00
G1 X9.91 Y14.87 F3500.00
G1 X10.86 Y16.73 F3500.00
G1 X12.01 Y17.76 F3500.00
G1 X13.03 Y18.30 F3500.00
G1 X13.84 Y18.59 F3500.00
G1 X14.96 Y18.84 F3500.00
G1 X16.21 Y18.51 F3500.00
G1 X17.44 Y17.79 F3500.00
G1 X18.25 Y16.84 F3500.00
G1 X18.73 Y15.74 F3500.00
G1 X18.87 Y14.44 F3500.00
G1 X18.35 Y12.30 F3500.00
G1 X18.24 Y11.83 F3500.00
G1 X18.22 Y11.54 F3500.00
G1 X18.18 Y11.77 F3500.00
G1 X17.82 Y12.19 F3500.00
G1 X16.88 Y12.02 F3500.00
G1 X15.85 Y11.92 F3500.00
G1 X15.20 Y11.97 F3500.00
G1 X14.62 Y11.99 F3500.00
G1 X14.26 Y12.42 F3500.00
G1 X14.06 Y12.74 F3500.00
G1 X13.65 Y12.80 F3500.00
G1 X12.92 Y12.65 F3500.00
G1 X12.43 Y12.16 F3500.00
G1 X12.22 Y10.89 F3500.00
G1 X12.79 Y9.81 F3500.00
G1 X13.07 Y9.59 F3500.00
G1 X13.37 Y9.94 F3500.00
G1 X13.80 Y10.26 F3500.00
G1 X14.33 Y10.08 F3500.00
G1 X15.10 Y10.03 F3500.00
G1 X15.61 Y10.28 F3500.00
G1 X16.55 Y10.24 F3500.00
G1 X17.03 Y10.01 F3500.00
G1 X17.27 Y10.16 F3500.00
G1 X17.55 Y10.45 F3500.00
G1 X17.94 Y10.33 F3500.00
G1 X18.11 Y10.24 F3500.00
G1 X18.18 Y10.57 F3500.00
G1 X18.20 Y10.69 F3500.00
G1 X18.17 Y10.39 F3500.00
G1 X18.13 Y9.35 F3500.00
G1 X18.16 Y8.15 F3500.00
G1 X18.19 Y7.62 F3500.00
G1 X18.26 Y7.71 F3500.00
G1 X18.32 Y7.72 F3500.00
G1 X18.34 Y7.08 F3500.00
G1 X18.25 Y6.12 F3500.00
G1 X18.16 Y6.21 F3500.00
G1 X18.16 Y6.83 F3500.00
G1 X18.14 Y7.38 F3500.00
G1 X17.94 Y6.96 F3500.00
G1 X17.55 Y6.33 F3500.00
G1 X17.02 Y6.29 F3500.00
G1 X16.22 Y6.57 F3500.00
G1 X15.84 Y6.65 F3500.00
G1 X15.78 Y6.74 F3500.00
G1 X15.36 Y7.03 F3500.00
G1 X14.33 Y7.42 F3500.00
G1 X13.70 Y7.75 F3500.00
G1 X13.70 Y7.46 F3500.00
G1 X13.50 Y6.71 F3500.00
G1 X13.31 Y6.26 F3500.00
G1 X14.10 Y5.77 F3500.00
G1 X15.30 Y5.14 F3500.00
G1 X15.93 Y5.14 F3500.00
G1 X16.04 Y5.57 F3500.00
G1 X15.94 Y6.32 F3500.00
G1 X16.66 Y6.12 F3500.00
G1 X17.60 Y5.99 F3500.00
G1 X18.23 Y5.55 F3500.00
G1 X18.96 Y3.82 F3500.00
G1 X19.64 Y1.98 F3500.00
G1 X19.76 Y1.56 F3500.00
G1 X19.61 Y1.76 F3500.00
G1 X19.35 Y2.40 F3500.00
G1 X19.22 Y2.68 F3500.00
G1 X19.19 Y2.51 F3500.00
G1 X19.02 Y1.98 F3500.00
G1 X18.69 Y1.84 F3500.00
G1 X17.62 Y2.67 F3500.00
G1 X17.64 Y3.16 F3500.00
G1 X17.89 Y3.39 F3500.00
G1 X18.27 Y3.07 F3500.00
G1 X18.83 Y2.82 F3500.00
G1 X19.16 Y2.90 F3500.00
G1 X18.78 Y4.02 F3500.00
G1 X18.28 Y5.01 F3500.00
G1 X17.89 Y5.03 F3500.00
G1 X17.42 Y5.58 F3500.00
G1 X17.13 Y5.95 F3500.00
G1 X16.63 Y6.01 F3500.00
G1 X16.09 Y6.01 F3500.00
G1 X16.15 Y5.65 F3500.00
G1 X16.06 Y5.14 F3500.00
G1 X15.72 Y4.92 F3500.00
G1 X13.95 Y5.74 F3500.00
G1 X13.06 Y6.24 F3500.00
G1 X13.11 Y6.36 F3500.00
G1 X13.60 Y7.53 F3500.00
G1 X13.31 Y8.05 F3500.00
G1 X12.95 Y8.23 F3500.00
G1 X12.87 Y8.29 F3500.00
G1 X12.50 Y8.81 F3500.00
G1 X12.21 Y9.12 F3500.00
G1 X12.20 Y8.97 F3500.00
G1 X12.49 Y8.16 F3500.00
G1 X12.79 Y7.83 F3500.00
G1 X12.82 Y7.66 F3500.00
G1 X12.58 Y7.02 F3500.00
G1 X12.05 Y6.48 F3500.00
G1 X11.70 Y6.23 F3500.00
G1 X12.31 Y6.22 F3500.00
G1 X12.92 Y6.21 F3500.00
G1 X12.22 Y6.07 F3500.00
G1 X11.35 Y5.76 F3500.00
G1 X11.37 Y5.36 F3500.00
G1 X11.75 Y5.09 F3500.00
G1 X12.19 Y5.13 F3500.00
G1 X12.52 Y5.42 F3500.00
G1 X12.40 Y5.80 F3500.00
G1 X12.32 Y6.01 F3500.00
G1 X12.54 Y5.88 F3500.00
G1 X12.59 Y5.37 F3500.00
G1 X12.03 Y4.97 F3500.00
G1 X11.42 Y5.22 F3500.00
G1 X11.21 Y5.78 F3500.00
G1 X11.21 Y6.01 F3500.00
G1 X9.61 Y4.65 F3500.00
G1 X8.12 Y3.13 F3500.00
G1 X7.76 Y2.79 F3500.00
G1 X7.97 Y2.79 F3500.00
G1 X8.44 Y2.69 F3500.00
G1 X8.40 Y2.20 F3500.00
G1 X7.98 Y1.76 F3500.00
G1 X7.55 Y1.68 F3500.00
G1 X7.41 Y2.13 F3500.00
G1 X7.42 Y2.51 F3500.00
G1 X6.76 Y2.02 F3500.00
G1 X6.02 Y1.53 F3500.00
G1 X6.83 Y2.21 F3500.00
G1 X6.83 Y2.21 F3500.00
M300 S50.00 (pen up)
G4 P150 (wait 150ms)

(Polyline consisting of 33 segments.)
G1 X7.95 Y1.82 F3500.00
M300 S30.00 (pen down)
G4 P150 (wait 150ms)
G1 X8.37 Y2.63 F3500.00
G1 X7.93 Y2.70 F3500.00
G1 X7.52 Y2.35 F3500.00
G1 X7.57 Y1.83 F3500.00
G1 X7.95 Y1.82 F3500.00
M300 S50.00 (pen up)
G4 P150 (wait 150ms)

(Polyline consisting of 33 segments.)
G1 X19.01 Y2.21 F3500.00
M300 S30.00 (pen down)
G4 P150 (wait 150ms)
G1 X19.06 Y2.63 F3500.00
G1 X18.88 Y2.73 F3500.00
G1 X18.64 Y2.60 F3500.00
G1 X18.88 Y1.97 F3500.00
G1 X19.01 Y2.21 F3500.00
G1 X19.01 Y2.21 F3500.00
M300 S50.00 (pen up)
G4 P150 (wait 150ms)

(Polyline consisting of 33 segments.)
G1 X18.46 Y2.50 F3500.00
M300 S30.00 (pen down)
G4 P150 (wait 150ms)
G1 X18.00 Y3.19 F3500.00
G1 X17.70 Y3.12 F3500.00
G1 X17.85 Y2.45 F3500.00
G1 X18.49 Y2.08 F3500.00
G1 X18.46 Y2.50 F3500.00
G1 X18.46 Y2.50 F3500.00
M300 S50.00 (pen up)
G4 P150 (wait 150ms)

(Polyline consisting of 33 segments.)
G1 X18.31 Y5.14 F3500.00
M300 S30.00 (pen down)
G4 P150 (wait 150ms)
G1 X17.53 Y5.94 F3500.00
G1 X17.44 Y5.76 F3500.00
G1 X17.92 Y5.13 F3500.00
G1 X18.31 Y5.14 F3500.00
M300 S50.00 (pen up)
G4 P150 (wait 150ms)

(Polyline consisting of 33 segments.)
G1 X10.42 Y5.97 F3500.00
M300 S30.00 (pen down)
G4 P150 (wait 150ms)
G1 X11.71 Y6.43 F3500.00
G1 X12.46 Y7.01 F3500.00
G1 X12.68 Y7.33 F3500.00
G1 X12.27 Y7.82 F3500.00
G1 X11.63 Y8.92 F3500.00
G1 X11.30 Y9.52 F3500.00
G1 X10.01 Y8.72 F3500.00
G1 X9.51 Y8.03 F3500.00
G1 X9.35 Y7.14 F3500.00
G1 X9.58 Y5.80 F3500.00
G1 X10.42 Y5.97 F3500.00
G1 X10.42 Y5.97 F3500.00
M300 S50.00 (pen up)
G4 P150 (wait 150ms)

(Polyline consisting of 33 segments.)
G1 X17.52 Y6.45 F3500.00
M300 S30.00 (pen down)
G4 P150 (wait 150ms)
G1 X18.05 Y7.80 F3500.00
G1 X17.91 Y9.15 F3500.00
G1 X17.88 Y8.96 F3500.00
G1 X18.00 Y8.37 F3500.00
G1 X18.02 Y8.16 F3500.00
G1 X17.93 Y8.42 F3500.00
G1 X17.79 Y8.84 F3500.00
G1 X16.87 Y7.91 F3500.00
G1 X16.14 Y7.07 F3500.00
G1 X16.15 Y6.76 F3500.00
G1 X17.30 Y6.41 F3500.00
G1 X17.52 Y6.45 F3500.00
G1 X17.52 Y6.45 F3500.00
M300 S50.00 (pen up)
G4 P150 (wait 150ms)

(Polyline consisting of 33 segments.)
G1 X16.74 Y7.91 F3500.00
M300 S30.00 (pen down)
G4 P150 (wait 150ms)
G1 X17.69 Y9.16 F3500.00
G1 X17.85 Y9.82 F3500.00
G1 X17.85 Y9.96 F3500.00
G1 X17.81 Y10.25 F3500.00
G1 X17.45 Y10.25 F3500.00
G1 X17.42 Y9.94 F3500.00
G1 X17.22 Y9.88 F3500.00
G1 X16.69 Y10.00 F3500.00
G1 X16.53 Y9.66 F3500.00
G1 X16.49 Y9.29 F3500.00
G1 X16.15 Y9.21 F3500.00
G1 X15.64 Y9.29 F3500.00
G1 X15.47 Y9.61 F3500.00
G1 X15.56 Y9.56 F3500.00
G1 X16.07 Y9.32 F3500.00
G1 X16.46 Y9.40 F3500.00
G1 X16.43 Y9.95 F3500.00
G1 X16.32 Y10.24 F3500.00
G1 X16.04 Y10.25 F3500.00
G1 X14.86 Y9.85 F3500.00
G1 X13.42 Y9.52 F3500.00
G1 X12.55 Y9.85 F3500.00
G1 X12.09 Y10.93 F3500.00
G1 X12.30 Y12.14 F3500.00
G1 X12.71 Y12.65 F3500.00
G1 X13.35 Y12.90 F3500.00
G1 X13.68 Y13.00 F3500.00
G1 X13.20 Y13.29 F3500.00
G1 X12.89 Y13.57 F3500.00
G1 X12.82 Y13.26 F3500.00
G1 X12.55 Y12.69 F3500.00
G1 X12.34 Y12.41 F3500.00
G1 X12.40 Y12.69 F3500.00
G1 X12.46 Y13.13 F3500.00
G1 X12.57 Y13.13 F3500.00
G1 X12.62 Y13.16 F3500.00
G1 X12.56 Y13.55 F3500.00
G1 X12.37 Y13.13 F3500.00
G1 X11.82 Y12.10 F3500.00
G1 X11.76 Y11.18 F3500.00
G1 X11.99 Y9.76 F3500.00
G1 X12.58 Y8.91 F3500.00
G1 X13.56 Y8.05 F3500.00
G1 X14.66 Y7.38 F3500.00
G1 X15.59 Y7.11 F3500.00
G1 X16.06 Y7.23 F3500.00
G1 X16.74 Y7.91 F3500.00
G1 X16.74 Y7.91 F3500.00
M300 S50.00 (pen up)
G4 P150 (wait 150ms)

(Polyline consisting of 33 segments.)
G1 X15.14 Y8.31 F3500.00
M300 S30.00 (pen down)
G4 P150 (wait 150ms)
G1 X14.64 Y8.69 F3500.00
G1 X15.26 Y8.83 F3500.00
G1 X16.53 Y8.90 F3500.00
G1 X16.94 Y8.94 F3500.00
G1 X16.91 Y8.75 F3500.00
G1 X15.82 Y8.10 F3500.00
G1 X15.14 Y8.31 F3500.00
M300 S50.00 (pen up)
G4 P150 (wait 150ms)

(Polyline consisting of 33 segments.)
G1 X16.34 Y8.36 F3500.00
M300 S30.00 (pen down)
G4 P150 (wait 150ms)
G1 X16.41 Y8.49 F3500.00
G1 X15.87 Y8.48 F3500.00
G1 X15.20 Y8.43 F3500.00
G1 X15.86 Y8.54 F3500.00
G1 X16.69 Y8.76 F3500.00
G1 X16.60 Y8.79 F3500.00
G1 X15.56 Y8.71 F3500.00
G1 X14.97 Y8.66 F3500.00
G1 X15.15 Y8.52 F3500.00
G1 X15.63 Y8.24 F3500.00
G1 X16.34 Y8.36 F3500.00
G1 X16.34 Y8.36 F3500.00
M300 S50.00 (pen up)
G4 P150 (wait 150ms)

(Polyline consisting of 33 segments.)
G1 X12.36 Y8.20 F3500.00
M300 S30.00 (pen down)
G4 P150 (wait 150ms)
G1 X11.62 Y11.54 F3500.00
G1 X11.58 Y12.13 F3500.00
G1 X11.45 Y12.08 F3500.00
G1 X11.35 Y10.85 F3500.00
G1 X11.36 Y9.90 F3500.00
G1 X11.24 Y10.79 F3500.00
G1 X10.94 Y11.68 F3500.00
G1 X10.59 Y11.48 F3500.00
G1 X10.60 Y10.85 F3500.00
G1 X11.35 Y9.73 F3500.00
G1 X11.61 Y9.27 F3500.00
G1 X12.43 Y7.85 F3500.00
G1 X12.36 Y8.20 F3500.00
G1 X12.36 Y8.20 F3500.00
M300 S50.00 (pen up)
G4 P150 (wait 150ms)

(Polyline consisting of 33 segments.)
G1 X10.87 Y10.79 F3500.00
M300 S30.00 (pen down)
G4 P150 (wait 150ms)
G1 X10.88 Y11.30 F3500.00
G1 X10.96 Y11.04 F3500.00
G1 X10.95 Y10.72 F3500.00
G1 X10.87 Y10.79 F3500.00
M300 S50.00 (pen up)
G4 P150 (wait 150ms)

(Polyline consisting of 33 segments.)
G1 X14.10 Y9.69 F3500.00
M300 S30.00 (pen down)
G4 P150 (wait 150ms)
G1 X14.41 Y9.86 F3500.00
G1 X14.15 Y10.07 F3500.00
G1 X13.70 Y10.11 F3500.00
G1 X13.39 Y9.84 F3500.00
G1 X13.53 Y9.62 F3500.00
G1 X14.10 Y9.69 F3500.00
M300 S50.00 (pen up)
G4 P150 (wait 150ms)

(Polyline consisting of 33 segments.)
G1 X10.61 Y12.66 F3500.00
M300 S30.00 (pen down)
G4 P150 (wait 150ms)
G1 X10.55 Y14.33 F3500.00
G1 X10.89 Y16.17 F3500.00
G1 X11.06 Y16.85 F3500.00
G1 X10.64 Y16.29 F3500.00
G1 X9.92 Y14.33 F3500.00
G1 X10.18 Y12.06 F3500.00
G1 X10.40 Y11.50 F3500.00
G1 X10.58 Y11.60 F3500.00
G1 X10.61 Y12.66 F3500.00
G1 X10.61 Y12.66 F3500.00
M300 S50.00 (pen up)
G4 P150 (wait 150ms)

(Polyline consisting of 33 segments.)
G1 X11.51 Y13.06 F3500.00
M300 S30.00 (pen down)
G4 P150 (wait 150ms)
G1 X11.57 Y16.55 F3500.00
G1 X11.73 Y17.35 F3500.00
G1 X11.49 Y17.23 F3500.00
G1 X11.04 Y16.33 F3500.00
G1 X10.68 Y14.57 F3500.00
G1 X10.67 Y12.88 F3500.00
G1 X10.98 Y11.84 F3500.00
G1 X11.39 Y12.15 F3500.00
G1 X11.51 Y13.06 F3500.00
G1 X11.51 Y13.06 F3500.00
M300 S50.00 (pen up)
G4 P150 (wait 150ms)

(Polyline consisting of 33 segments.)
G1 X16.93 Y12.16 F3500.00
M300 S30.00 (pen down)
G4 P150 (wait 150ms)
G1 X17.20 Y12.35 F3500.00
G1 X17.05 Y12.51 F3500.00
G1 X16.85 Y12.57 F3500.00
G1 X16.87 Y12.40 F3500.00
G1 X16.76 Y12.27 F3500.00
G1 X15.48 Y12.54 F3500.00
G1 X14.06 Y13.18 F3500.00
G1 X13.46 Y13.55 F3500.00
G1 X13.47 Y13.39 F3500.00
G1 X13.36 Y13.49 F3500.00
G1 X13.18 Y13.85 F3500.00
G1 X13.88 Y13.47 F3500.00
G1 X15.39 Y12.69 F3500.00
G1 X15.25 Y12.87 F3500.00
G1 X13.38 Y14.61 F3500.00
G1 X12.10 Y17.27 F3500.00
G1 X11.93 Y17.49 F3500.00
G1 X11.68 Y16.57 F3500.00
G1 X11.50 Y14.58 F3500.00
G1 X11.68 Y12.86 F3500.00
G1 X11.99 Y12.39 F3500.00
G1 X12.30 Y13.32 F3500.00
G1 X12.55 Y14.20 F3500.00
G1 X12.67 Y13.78 F3500.00
G1 X12.75 Y13.47 F3500.00
G1 X12.86 Y13.82 F3500.00
G1 X13.02 Y13.68 F3500.00
G1 X13.66 Y13.18 F3500.00
G1 X14.05 Y13.00 F3500.00
G1 X14.42 Y12.71 F3500.00
G1 X14.50 Y12.63 F3500.00
G1 X14.32 Y12.52 F3500.00
G1 X14.55 Y12.20 F3500.00
G1 X15.25 Y12.12 F3500.00
G1 X14.98 Y12.35 F3500.00
G1 X14.77 Y12.54 F3500.00
G1 X15.20 Y12.36 F3500.00
G1 X16.06 Y11.99 F3500.00
G1 X16.93 Y12.16 F3500.00
G1 X16.93 Y12.16 F3500.00
M300 S50.00 (pen up)
G4 P150 (wait 150ms)

(Polyline consisting of 33 segments.)
G1 X18.39 Y12.64 F3500.00
M300 S30.00 (pen down)
G4 P150 (wait 150ms)
G1 X18.56 Y13.28 F3500.00
G1 X18.08 Y15.02 F3500.00
G1 X17.13 Y17.00 F3500.00
G1 X15.62 Y18.62 F3500.00
G1 X14.13 Y18.63 F3500.00
G1 X14.01 Y18.49 F3500.00
G1 X14.49 Y18.14 F3500.00
G1 X15.72 Y17.04 F3500.00
G1 X16.85 Y15.55 F3500.00
G1 X18.23 Y12.57 F3500.00
G1 X17.86 Y13.33 F3500.00
G1 X16.51 Y15.86 F3500.00
G1 X14.81 Y17.78 F3500.00
G1 X14.01 Y18.30 F3500.00
G1 X13.58 Y18.29 F3500.00
G1 X14.32 Y16.26 F3500.00
G1 X15.95 Y13.50 F3500.00
G1 X17.11 Y12.57 F3500.00
G1 X18.01 Y12.27 F3500.00
G1 X18.39 Y12.64 F3500.00
G1 X18.39 Y12.64 F3500.00
M300 S50.00 (pen up)
G4 P150 (wait 150ms)

(Polyline consisting of 33 segments.)
G1 X16.16 Y13.11 F3500.00
M300 S30.00 (pen down)
G4 P150 (wait 150ms)
G1 X15.11 Y14.53 F3500.00
G1 X14.00 Y16.70 F3500.00
G1 X13.28 Y18.24 F3500.00
G1 X12.88 Y18.14 F3500.00
G1 X12.29 Y17.82 F3500.00
G1 X12.30 Y16.98 F3500.00
G1 X13.37 Y14.83 F3500.00
G1 X15.07 Y13.14 F3500.00
G1 X15.54 Y12.65 F3500.00
G1 X15.61 Y12.63 F3500.00
G1 X15.98 Y12.58 F3500.00
G1 X16.43 Y12.47 F3500.00
G1 X16.62 Y12.55 F3500.00
G1 X16.16 Y13.11 F3500.00
G1 X16.16 Y13.11 F3500.00
M300 S50.00 (pen up)
G4 P150 (wait 150ms)

(Polyline consisting of 33 segments.)
G1 X18.77 Y14.43 F3500.00
M300 S30.00 (pen down)
G4 P150 (wait 150ms)
G1 X18.63 Y15.62 F3500.00
G1 X18.22 Y16.66 F3500.00
G1 X17.56 Y17.53 F3500.00
G1 X16.66 Y18.18 F3500.00
G1 X16.03 Y18.52 F3500.00
G1 X16.47 Y18.01 F3500.00
G1 X17.49 Y16.55 F3500.00
G1 X18.24 Y14.93 F3500.00
G1 X18.56 Y13.83 F3500.00
G1 X18.67 Y13.67 F3500.00
G1 X18.77 Y14.43 F3500.00
G1 X18.77 Y14.43 F3500.00
M300 S50.00 (pen up)
G4 P150 (wait 150ms)

(Polyline consisting of 33 segments.)
G1 X14.49 Y1.97 F3500.00
M300 S30.00 (pen down)
G4 P150 (wait 150ms)
G1 X13.60 Y2.89 F3500.00
G1 X13.72 Y3.26 F3500.00
G1 X14.04 Y3.40 F3500.00
